<?xml version="1.0" encoding="UTF-8"?>
<map version="1.0" tiledversion="1.1.5" orientation="orthogonal" renderorder="right-down" width="41" height="32" tilewidth="32" tileheight="32" infinite="0" nextobjectid="37">
 <properties>
  <property name="battlebg" type="file" value="../art/backgrounds/caveoflight.png"/>
  <property name="onload" type="file" value="actions/dream_mountain_cave2_etc.lua"/>
 </properties>
 <tileset firstgid="1" name="knotholehut" tilewidth="32" tileheight="32" tilecount="1044" columns="29">
  <image source="../art/tiles/knotholehutinterior.png" trans="000000" width="950" height="1170"/>
 </tileset>
 <tileset firstgid="1045" source="knothole.tsx"/>
 <tileset firstgid="4529" source="robotropolis.tsx"/>
 <tileset firstgid="8029" source="cave.tsx"/>
 <tileset firstgid="10374" source="forest2.tsx"/>
 <tileset firstgid="15549" source="knotholeindoors.tsx"/>
 <layer name="floor" width="41" height="32">
  <data encoding="csv">
0,8210,8209,8210,8209,8210,8209,8210,8209,8210,8209,8210,8209,8210,8209,8210,8209,8210,8209,8210,8209,8210,8209,8210,0,0,0,0,0,0,0,0,0,0,0,0,0,0,0,0,0,
0,8175,8174,8175,8174,8175,8174,8175,8174,8175,8174,8175,8174,8175,8174,8175,8174,8175,8174,8175,8174,8175,8174,8175,0,0,0,0,0,0,0,0,0,0,0,0,0,0,0,0,0,
0,8210,8209,8210,8209,8210,8209,8210,8209,8170,8171,8210,8170,8171,8209,8210,8209,8210,8209,8210,8209,8210,8209,8210,0,0,0,0,0,0,0,0,0,0,0,0,0,0,0,0,0,
0,8175,8174,8175,8174,8175,8174,8175,8174,8205,8206,8175,8205,8206,8174,8175,8174,8175,8174,8175,8174,8175,8174,8175,0,0,0,0,0,0,0,0,0,0,0,0,0,0,0,0,0,
0,8210,8209,8210,8209,8210,8209,8100,8101,8210,8209,8210,8209,8210,8209,8100,8101,8210,8209,8210,8209,8210,8209,8210,0,0,0,0,0,0,0,0,0,0,0,0,0,0,0,0,0,
0,8175,8174,8175,8174,8175,8174,8135,8136,8175,8174,8175,8174,8175,8174,8135,8136,8175,8174,8175,8174,8175,8174,8175,0,0,0,0,0,0,0,0,0,0,0,0,0,0,0,0,0,
0,8210,8209,8210,8209,8210,8209,8210,8209,8210,8209,8210,8209,8210,8209,8210,8209,8210,8209,8210,8209,8210,8209,8210,0,0,0,0,0,0,0,0,0,0,0,0,0,0,0,0,0,
0,8175,8174,8175,8174,8175,8174,8175,8174,8175,8174,8175,8174,8175,8174,8175,8174,8175,8174,8175,8174,8175,8174,8175,0,0,0,0,0,0,0,0,0,0,0,0,0,0,0,0,0,
0,8210,8209,8100,8101,8210,8170,8171,8209,8210,8209,8210,8209,8210,8209,8210,8170,8171,8209,8210,8209,8210,8209,8210,0,0,0,0,0,0,0,0,0,0,0,0,0,0,0,0,0,
0,8175,8174,8135,8136,8175,8205,8206,8174,8175,8174,8175,8174,8175,8174,8175,8205,8206,8174,8175,8174,8175,8174,8175,0,0,0,0,0,0,0,0,0,0,0,0,0,0,0,0,0,
0,8210,8209,8210,8209,8210,8209,8210,8209,8210,8209,8210,8209,8210,8209,8100,8101,8210,8100,8101,8209,8210,8209,8210,0,0,0,0,0,0,0,0,0,0,0,0,0,0,0,0,0,
0,8175,8174,8170,8171,8175,8174,8175,8174,8175,8174,8175,8174,8175,8174,8175,8174,8175,8174,8175,8174,8175,8174,8175,0,0,0,0,0,0,0,0,0,0,0,0,0,0,0,0,0,
0,8210,8209,8205,8206,8210,8209,8210,8209,8174,8175,8174,8175,8174,8209,8210,8209,8210,8209,8210,8209,8210,8209,8210,0,0,0,0,0,0,0,0,0,0,0,0,0,0,0,0,0,
0,8175,8174,8175,8174,8175,8174,8175,8174,8209,8210,8174,8175,8174,8175,8174,8174,8175,8174,8175,8174,8175,8174,8175,0,0,0,0,0,0,0,0,0,0,0,0,0,0,0,0,0,
0,0,0,8210,8209,8210,8209,8100,8101,8174,8175,8209,8210,8209,8210,8209,8101,8210,8209,8210,8209,8210,0,0,0,0,0,0,0,0,0,0,0,0,0,0,0,0,0,0,0,
0,0,0,8175,8174,8175,8174,8135,8136,8209,8210,8174,8175,8174,8175,8174,8136,8175,8174,8175,8174,8175,8209,8210,8209,8209,8210,8209,8210,8209,8209,8210,8209,8210,8209,8209,8210,8209,8210,8209,0,
0,0,0,8210,8209,8210,8209,8210,8209,8210,8209,8209,8210,8209,8210,8209,8209,8210,8209,8210,8209,8210,8174,8175,8174,8174,8175,8174,8175,8174,8175,8174,8175,8174,8175,8174,8175,8174,8175,8174,0,
0,0,0,8175,8174,8175,8174,8175,8174,8175,8174,8175,8174,8175,8174,8175,8174,8175,8174,8175,8174,8175,8170,8171,8209,8170,8171,8209,8210,8209,8210,8209,8210,8209,8210,8170,8171,8209,8210,8209,0,
0,0,0,8100,8101,8210,8170,8171,8209,8210,8209,8210,8209,8210,8209,8210,8170,8171,8209,8210,8209,8210,8205,8206,8174,8205,8206,8174,8175,8174,8175,8174,8175,8174,8175,8205,8206,8175,8174,8175,8174,
0,0,0,8135,8136,8175,8205,8206,8174,8175,8174,8175,8174,8175,8174,8175,8205,8206,8174,8175,8174,8175,8209,8210,8209,8209,8210,8175,8174,8175,8174,8209,8210,8209,8175,8174,8175,8210,8209,8210,8209,
0,0,0,8210,8209,8210,8209,8210,8209,8210,8209,8210,8209,8210,8209,8100,8101,8210,8100,8101,8209,8210,8174,8175,8174,8174,8175,8210,8209,8210,8209,8174,8175,8174,8210,8209,8210,8175,8174,8175,8174,
0,0,0,8175,8174,8175,8174,8175,8174,8175,8174,8175,8174,8175,8174,8175,8174,8175,8174,8175,8174,8175,8209,8210,8209,8209,8210,8175,8174,8175,8174,8170,8171,8209,8175,8174,8175,8210,8209,8210,8209,
0,0,0,8210,8209,8210,8209,8210,8209,8170,8171,8210,8170,8171,8209,8210,8209,8210,8209,8210,8209,8210,8174,8175,8174,8174,8175,8210,8209,8210,8209,8205,8206,8174,8210,8209,8210,8209,8175,8174,0,
0,0,0,8175,8174,8175,8174,8175,8174,8205,8206,8175,8205,8206,8174,8175,8174,8175,8174,8175,8174,8175,8209,8100,8101,8209,8100,8101,8210,8209,8210,8209,8210,8209,8100,8101,8210,8209,8210,8209,0,
0,0,0,8210,8209,8210,8209,8100,8101,8210,8209,8210,8209,8210,8209,8100,8101,8210,8209,8210,8209,8210,8174,8135,8136,8174,8135,8136,8175,8174,8175,8174,8175,8174,8135,8136,8175,8174,8175,8174,0,
0,0,0,8175,8174,8175,8174,8135,8136,8175,8174,8175,8174,8175,8174,8135,8136,8175,8174,8175,8174,8175,8209,8210,8209,8209,8210,8209,8210,8209,8210,8209,8210,8209,8210,8175,8174,8175,8174,8209,0,
0,0,0,8210,8209,8210,8209,8210,8209,8210,8209,8210,8209,8210,8209,8210,8209,8210,8209,8210,8209,8210,8174,8175,8174,8174,8175,8174,8175,8174,8175,8174,8175,8174,8175,8210,8209,8210,8209,8174,0,
0,0,0,8175,8174,8175,8174,8175,8174,8175,8174,8175,8174,8175,8174,8175,8174,8175,8174,8175,8174,8175,8170,8171,8209,8170,8171,8209,8210,8209,8210,8209,8210,8209,8210,8175,8174,8175,8174,8209,0,
0,0,0,8100,8101,8210,8170,8171,8209,8210,8209,8210,8209,8210,8209,8210,8170,8171,8209,8210,8209,8210,8205,8206,8174,8205,8206,8174,8175,8174,8175,8174,8175,8174,8175,8210,8209,8210,8209,8174,0,
0,0,0,8135,8136,8175,8205,8206,8174,8175,8174,8175,8174,8175,8174,8175,8205,8206,8174,8175,8174,8175,0,0,0,0,0,0,0,0,8175,8174,8175,8174,0,0,0,0,0,0,0,
0,0,0,8210,8209,8210,8209,8210,8209,8210,8209,8210,8209,8210,8209,8100,8101,8210,8100,8101,8209,8210,0,0,0,0,0,0,0,0,8210,8209,8210,8209,0,0,0,0,0,0,0,
0,0,0,8175,8174,8175,8174,8175,8174,8175,8174,8175,8174,8175,8174,8135,8136,8175,8135,8136,8174,8175,0,0,0,0,0,0,0,0,8175,8174,8175,8174,0,0,0,0,0,0,0
</data>
 </layer>
 <layer name="shadowfloor" width="41" height="32" opacity="0.5">
  <data encoding="csv">
0,0,0,0,0,0,0,0,0,0,0,0,0,0,0,0,0,0,0,0,0,0,0,0,0,0,0,0,0,0,0,0,0,0,0,0,0,0,0,0,0,
0,0,0,0,0,0,0,0,0,0,0,0,0,0,0,0,0,0,0,0,0,0,0,0,0,0,0,0,0,0,0,0,0,0,0,0,0,0,0,0,0,
0,0,0,0,0,0,0,0,0,0,0,0,0,0,0,0,0,0,0,0,0,0,0,0,0,0,0,0,0,0,0,0,0,0,0,0,0,0,0,0,0,
0,0,0,0,0,0,0,0,0,0,0,0,0,0,0,0,0,0,0,0,0,0,0,0,0,0,0,0,0,0,0,0,0,0,0,0,0,0,0,0,0,
0,0,0,0,0,0,0,0,0,0,0,0,0,0,0,0,0,0,0,0,0,0,0,0,0,0,0,0,0,0,0,0,0,0,0,0,0,0,0,0,0,
0,0,0,0,0,0,0,0,0,0,0,0,0,0,0,0,0,0,0,0,0,0,0,0,0,0,0,0,0,0,0,0,0,0,0,0,0,0,0,0,0,
0,0,0,0,0,0,0,0,0,0,0,0,0,0,0,0,0,0,0,0,0,0,0,0,0,0,0,0,0,0,0,0,0,0,0,0,0,0,0,0,0,
0,0,0,0,0,0,0,0,0,0,0,0,0,0,0,0,0,0,0,0,0,0,0,0,0,0,0,0,0,0,0,0,0,0,0,0,0,0,0,0,0,
0,0,0,0,0,0,0,0,0,0,0,0,0,0,0,0,0,0,0,0,0,0,0,0,0,0,0,0,0,0,0,0,0,0,0,0,0,0,0,0,0,
0,0,0,0,0,0,0,0,0,0,0,0,0,0,0,0,0,0,0,0,0,0,0,0,0,0,0,0,0,0,0,0,0,0,0,0,0,0,0,0,0,
0,0,0,0,0,0,0,0,0,0,0,0,0,0,0,0,0,0,0,0,0,0,0,0,0,0,0,0,0,0,0,0,0,0,0,0,0,0,0,0,0,
0,0,0,0,0,0,0,0,0,0,0,0,0,0,0,0,0,0,0,0,0,0,0,0,0,0,0,0,0,0,0,0,0,0,0,0,0,0,0,0,0,
0,0,0,0,0,0,0,0,0,0,0,0,0,0,0,0,0,0,0,0,0,0,0,0,0,0,0,0,0,0,0,0,0,0,0,0,0,0,0,0,0,
0,0,0,0,0,0,0,0,0,0,0,0,0,0,0,0,0,0,0,0,0,0,0,0,0,0,0,0,0,0,0,0,0,0,0,0,0,0,0,0,0,
0,0,0,0,0,0,0,0,0,0,0,0,0,0,0,0,0,0,0,0,0,0,0,0,0,0,0,0,0,0,0,0,0,0,0,0,0,0,0,0,0,
0,0,0,0,0,0,0,0,0,0,0,0,0,0,0,0,0,0,0,0,0,0,0,0,0,0,0,0,0,0,0,0,0,0,0,0,0,0,0,0,0,
0,0,0,0,0,0,0,0,0,0,0,0,0,0,0,0,0,0,0,0,0,0,0,0,0,0,0,0,0,0,0,0,0,0,0,0,0,0,0,0,0,
0,0,0,0,0,0,0,0,0,0,0,0,0,0,0,0,0,0,0,0,0,0,0,0,0,0,0,0,0,0,0,0,0,0,0,0,0,0,0,0,0,
0,0,0,0,0,0,0,0,0,0,0,0,0,0,0,0,0,0,0,0,0,0,0,0,0,0,0,0,0,0,0,0,0,0,0,0,0,0,0,0,0,
0,0,0,0,0,0,0,0,0,0,0,0,0,0,0,0,0,0,0,0,0,0,0,0,0,0,0,0,0,0,0,0,0,0,0,0,0,0,0,0,0,
0,0,0,0,0,0,0,0,0,0,0,0,0,0,0,0,0,0,0,0,0,0,0,0,0,0,0,0,0,0,0,0,0,0,0,0,0,0,0,0,0,
0,0,0,0,0,0,0,0,0,0,0,0,0,0,0,0,0,0,0,0,0,0,0,0,0,0,0,0,0,0,0,0,0,0,0,0,0,0,0,0,0,
0,0,0,0,0,0,0,0,0,0,0,0,0,0,0,0,0,0,0,0,0,0,0,0,0,0,0,0,0,0,0,0,0,0,0,0,0,0,0,0,0,
0,0,0,0,0,0,0,0,0,0,0,0,0,0,0,0,0,0,0,0,0,0,0,0,0,0,0,0,0,0,0,0,0,0,0,0,0,0,0,0,0,
0,0,0,0,0,0,0,0,0,0,0,0,0,0,0,0,0,0,0,0,0,0,0,0,0,0,0,0,0,0,0,0,0,0,0,0,0,0,0,0,0,
0,0,0,0,0,0,0,0,0,0,0,0,0,0,0,0,0,0,0,0,0,0,0,0,0,0,0,0,0,0,0,0,0,0,0,0,0,0,0,0,0,
0,0,0,0,0,0,0,0,0,0,0,0,0,0,0,0,0,0,0,0,0,0,0,0,0,0,0,0,0,0,0,0,0,0,0,0,0,0,0,0,0,
0,0,0,0,0,0,0,0,0,0,0,0,0,0,0,0,0,0,0,0,0,0,0,0,0,0,0,0,0,0,0,0,0,0,0,0,0,0,0,0,0,
0,0,0,0,0,0,0,0,0,0,0,0,0,0,0,0,0,0,0,0,0,0,0,0,0,0,0,0,0,0,0,0,0,0,0,0,0,0,0,0,0,
0,0,0,0,0,0,0,0,0,0,0,0,0,0,0,0,0,0,0,0,0,0,0,0,0,0,0,0,0,0,0,0,0,0,0,0,0,0,0,0,0,
0,0,0,0,0,0,0,0,0,0,0,0,0,0,0,0,0,0,0,0,0,0,0,0,0,0,0,0,0,0,0,0,0,0,0,0,0,0,0,0,0,
0,0,0,0,0,0,0,0,0,0,0,0,0,0,0,0,0,0,0,0,0,0,0,0,0,0,0,0,0,0,0,0,0,0,0,0,0,0,0,0,0
</data>
 </layer>
 <layer name="above" width="41" height="32">
  <data encoding="csv">
0,8066,8066,8066,8066,8066,8066,8066,8066,8066,8066,8066,8066,8066,8066,8066,8066,8066,8066,8066,8066,8066,8066,8066,0,0,0,0,0,0,0,0,0,0,0,0,0,0,0,0,0,
0,8066,8066,8066,8066,8066,8066,8066,8066,8066,8066,8066,8066,8066,8066,8066,8066,8066,8066,8066,8066,8066,8066,8066,0,0,0,0,0,0,0,0,0,0,0,0,0,0,0,0,0,
0,8066,8066,8066,8066,8066,8066,8066,8066,8066,8066,8066,8066,8066,8066,8066,8066,8066,8066,8066,8066,8066,8066,8066,0,0,0,0,0,0,0,0,0,0,0,0,0,0,0,0,0,
0,8066,8066,8066,8066,8066,8066,8066,8066,8066,8066,8066,8066,8066,8066,8066,8066,8066,8066,8066,8066,8066,8066,8066,0,0,0,0,0,0,0,0,0,0,0,0,0,0,0,0,0,
0,8066,8066,8066,8066,8066,8066,8066,8066,8066,8066,8066,8066,8066,8066,8066,8066,8066,8066,8066,8066,8066,8066,8066,0,0,0,0,0,0,0,0,0,0,0,0,0,0,0,0,0,
0,8066,8066,8066,8066,8066,8066,8066,8066,8066,8066,8066,8066,8066,8066,8066,8066,8066,8066,8066,8066,8066,8066,8066,0,0,0,0,0,0,0,0,0,0,0,0,0,0,0,0,0,
0,8066,8066,8066,8066,8066,8066,8066,8066,8700,8733,8066,8066,8066,8734,0,8066,8066,8066,8066,8066,8066,8066,8066,0,0,0,0,0,0,0,0,0,0,0,0,0,0,0,0,0,
0,8066,8066,8066,8066,8066,8066,8066,8254,8701,8873,8874,8874,8874,8875,8696,8697,8066,8066,8066,8066,8066,8066,8066,0,0,0,0,0,0,0,0,0,0,0,0,0,0,0,0,0,
0,8066,8066,8066,8066,8066,8066,8700,8251,8252,8253,8251,8252,8251,8252,8253,8252,8253,8066,8066,8066,8066,8066,8066,0,0,0,0,0,8066,8066,8066,8066,8066,8066,8066,8066,8066,8066,0,0,
0,8066,8066,8066,8066,8066,8254,8701,8286,8287,8288,8286,8287,8286,8287,8288,8287,8288,8697,8066,8066,8066,8066,8066,8066,8066,8066,8240,8253,8254,8253,8252,8253,8252,8253,8252,8253,8252,8253,0,0,
0,8066,8066,8066,8066,8700,8289,8736,8321,8322,8323,8321,8322,8321,8322,8323,8322,8323,8696,8697,8066,8066,8066,8066,8066,8066,8066,8220,8254,8289,8288,8287,8288,8287,8288,8287,8288,8287,8288,8215,8216,
0,8066,8066,8066,8254,8701,8324,8771,8356,8357,8358,8356,8357,8356,8357,8358,8357,8358,8731,8696,8697,8066,8066,8066,8066,8066,8240,8254,8289,8324,8323,8322,8323,8322,8323,8322,8323,8322,8323,8250,8251,
0,8066,8066,8700,8289,8736,8359,8806,8391,8392,8393,8391,8392,8391,8392,8393,8392,8393,8766,8731,8696,9185,8066,8066,8066,8240,8254,8289,8324,8359,8358,8357,8358,8357,8358,8357,8358,8357,8358,8285,8286,
0,8066,8066,8701,8324,8771,8394,8841,8426,8427,8428,8426,8427,8426,8427,8428,8427,8428,8801,8766,8731,8847,8251,8252,8253,8254,8255,8324,8359,8394,8393,8392,8393,8392,8393,8392,8393,8392,8393,8320,8321,
0,8066,8066,8736,8359,8806,8429,0,0,0,0,0,0,0,0,0,0,0,8836,8801,8766,8882,8286,8287,8288,8289,8290,8359,8394,8429,8428,8427,8428,8427,8428,8427,8428,8427,8428,8355,8356,
0,8066,8066,8771,8394,8841,0,0,0,0,0,0,0,0,0,0,0,0,0,8836,8801,8917,8321,8322,8323,8324,8325,8394,8429,0,0,0,0,0,0,0,0,0,0,8390,8391,
0,8066,8066,8806,8429,0,0,0,0,0,0,0,0,0,0,0,0,0,0,0,8836,8952,8356,8357,8358,8359,8360,8429,0,0,0,0,0,0,0,0,0,0,0,8425,8426,
0,8066,8066,8841,0,0,0,0,0,0,0,0,0,0,0,0,0,0,0,0,0,8987,8391,8392,8393,8394,8395,0,0,0,0,0,0,0,0,0,0,0,0,0,0,
0,8066,8066,0,0,0,0,0,0,0,0,0,0,0,0,0,0,0,0,0,0,9022,8426,8427,8428,8429,8430,0,0,0,0,0,0,0,0,0,0,0,0,0,0,
0,8066,8066,0,0,0,0,0,0,0,0,0,0,0,0,0,0,0,0,0,0,0,0,0,0,0,0,0,0,0,0,0,0,0,0,0,0,0,0,0,0,
0,8066,8066,0,0,0,0,0,0,0,0,0,0,0,0,0,0,0,0,0,0,0,0,0,0,0,0,0,0,0,0,0,0,0,0,0,0,0,0,0,0,
0,8066,8066,0,0,0,0,0,0,0,0,0,0,0,0,0,0,0,0,0,0,0,0,0,0,0,0,0,0,0,0,0,0,0,0,0,0,0,0,0,0,
0,8066,8066,0,0,0,0,0,0,0,0,0,0,0,0,0,0,0,0,0,0,0,0,0,0,0,0,0,0,0,0,0,0,0,0,0,0,0,0,0,0,
0,8066,8066,0,0,0,0,0,0,0,0,0,0,0,0,0,0,0,0,0,0,0,0,0,0,0,0,0,0,0,0,0,0,0,0,0,0,0,0,0,0,
0,8066,8066,0,0,0,0,0,0,0,0,0,0,0,0,0,0,0,0,0,0,0,0,8066,0,0,0,0,0,0,0,0,0,0,0,0,0,0,0,0,0,
0,8066,8066,0,0,0,0,0,0,0,0,0,0,0,0,0,0,0,0,0,0,0,8066,8066,0,0,0,0,0,0,0,0,0,0,0,0,0,0,0,0,0,
0,8066,8066,9219,0,0,0,0,0,0,0,0,0,0,0,0,0,0,0,0,0,9220,8066,8066,0,0,0,0,0,0,0,0,0,0,0,0,0,0,0,0,0,
0,8066,8066,8066,0,0,0,0,0,0,0,0,0,0,0,0,0,0,0,0,0,8066,8066,8066,0,0,0,0,0,0,0,0,0,0,0,0,0,0,0,0,0,
0,8066,8066,8066,9219,0,0,0,0,0,0,0,0,0,0,0,0,0,0,0,9220,8066,8066,8066,0,0,0,0,0,0,0,0,0,0,0,0,0,0,0,0,0,
0,8066,8066,8066,8066,9219,0,0,0,0,0,0,0,0,0,0,0,0,0,9220,8066,8066,8066,8066,0,0,0,0,0,0,0,0,0,0,0,0,0,0,0,0,0,
0,8066,8066,8066,8066,8066,8066,8066,8066,8066,8873,8874,8874,8874,8875,8066,8066,8066,8066,8066,8066,8066,8066,8066,0,0,0,0,0,0,0,0,0,0,0,0,0,0,0,0,0,
0,8066,8066,8066,8066,8066,8066,8066,8066,8066,8908,8909,8909,8909,8910,8066,8066,8066,8066,8066,8066,8066,8066,8066,0,0,0,0,0,0,0,0,0,0,0,0,0,0,0,0,0
</data>
 </layer>
 <objectgroup name="objects">
  <object id="34" name="Entrance2" type="SceneEdge" gid="6902" x="992" y="960" width="96" height="32">
   <properties>
    <property name="ghost" type="bool" value="true"/>
    <property name="key" value="down"/>
    <property name="layerOverride" type="int" value="7"/>
    <property name="no_run" type="bool" value="true"/>
    <property name="orientation" value="up"/>
    <property name="scene" type="file" value="boulderbay_cliffs.lua"/>
    <property name="spawn_point" value="Entrance2"/>
   </properties>
  </object>
  <object id="35" name="Entrance1" type="SceneEdge" gid="6902" x="320" y="1024" width="160" height="32">
   <properties>
    <property name="ghost" type="bool" value="true"/>
    <property name="key" value="down"/>
    <property name="orientation" value="up"/>
    <property name="scene" type="file" value="dream_mountain_cave2.lua"/>
    <property name="spawn_point" value="Entrance1"/>
   </properties>
  </object>
  <object id="36" name="Spawn 1" type="Player" gid="4565" x="384" y="992" width="32" height="32">
   <properties>
    <property name="orientation" value="up"/>
   </properties>
  </object>
 </objectgroup>
 <objectgroup name="all"/>
 <objectgroup name="upper"/>
 <layer name="top" width="41" height="32">
  <data encoding="csv">
8066,8066,8066,0,0,0,0,0,0,0,0,0,0,0,0,0,0,0,0,0,0,0,0,0,8066,8066,8066,8066,8066,8066,8066,8066,8066,8066,8066,8066,8066,8066,8066,8066,8066,
8066,8066,8066,0,0,0,0,0,0,0,0,0,0,0,0,0,0,0,0,0,0,0,8066,8066,8066,8066,8066,8066,8066,8066,8066,8066,8066,8066,8066,8066,8066,8066,8066,8066,8066,
8066,8066,8066,8066,8066,8066,8066,8066,8066,8066,8066,8066,8066,8066,8066,8066,8066,8066,8066,8066,8066,8066,8066,8066,8066,8066,8066,8066,8066,8066,8066,8066,8066,8066,8066,8066,8066,8066,8066,8066,8066,
8066,8066,8066,8066,8066,8066,8066,8066,8066,8066,8066,8066,8066,8066,8066,8066,8066,8066,8066,8066,8066,8066,8066,8066,8066,8066,8066,8066,8066,8066,8066,8066,8066,8066,8066,8066,8066,8066,8066,8066,8066,
8066,8066,8066,8066,8066,8066,8066,8066,8066,8066,0,0,0,0,0,8066,8066,8066,8066,8066,8066,8066,8066,8066,8066,8066,8066,8066,8066,8066,8066,8066,8066,8066,8066,8066,8066,8066,8066,8066,8066,
8066,8066,8066,8066,8066,8066,8066,8066,8066,8066,0,0,0,0,0,8066,8066,8066,8066,8066,8066,8066,8066,8066,8066,8066,8066,8066,8066,8066,8066,8066,8066,8066,8066,8066,8066,8066,8066,8066,8066,
8066,8066,8066,8066,8066,8066,8066,8066,8066,8240,8240,8240,8240,8240,8240,8240,8066,8066,8066,8066,8066,8066,8066,8066,8066,8066,8066,8066,8066,8066,8066,8066,8066,8066,8066,8066,8066,8066,8066,8066,8066,
8066,8066,8066,8066,8066,8066,8066,8066,8240,8240,8240,8240,8240,8240,8240,8240,8240,8066,8066,8066,8066,8066,8066,8066,8066,8066,8066,8066,8066,8066,8066,8066,8066,8066,8066,8066,8066,8066,8066,8066,8066,
8066,8066,8066,8066,8066,8066,8066,9184,0,0,0,0,0,0,0,0,0,9185,8066,8066,8066,8066,8066,8066,8066,8066,8066,8066,8066,8066,8066,8066,8066,8066,8066,8066,8066,8066,8066,8066,8066,
8066,8066,8066,8066,8066,8066,9184,0,0,0,0,0,0,0,0,0,0,0,9185,8066,8066,0,0,0,0,0,0,0,0,0,0,0,0,0,0,0,0,0,0,8066,8066,
8066,8066,8066,8066,8066,9184,0,0,0,0,0,0,0,0,0,0,0,0,8696,9185,8066,0,0,0,0,0,0,0,0,0,0,0,0,0,0,0,0,0,0,0,8066,
8066,8066,8066,8066,9184,8701,0,0,0,0,0,0,0,0,0,0,0,0,8731,8696,9185,0,0,0,0,0,0,0,0,0,0,0,0,0,0,0,0,0,0,0,8066,
8066,8066,8066,9184,0,0,0,0,0,0,0,0,0,0,0,0,0,0,0,0,0,0,0,0,0,0,9184,0,0,0,0,0,0,0,0,0,0,0,0,0,8066,
8066,8066,8066,0,0,0,0,0,0,0,0,0,0,0,0,0,0,0,0,0,0,0,0,0,0,0,0,0,0,0,0,0,0,0,0,0,0,0,0,0,8066,
8066,8066,8066,0,0,0,0,0,0,0,0,0,0,0,0,0,0,0,0,0,0,0,0,0,0,0,0,0,0,0,0,0,0,0,0,0,0,0,0,0,8066,
8066,8066,8066,0,0,0,0,0,0,0,0,0,0,0,0,0,0,0,0,0,0,0,0,0,0,0,0,0,0,0,0,0,0,0,0,0,0,0,0,0,8240,
8066,8066,8066,0,0,0,0,0,0,0,0,0,0,0,0,0,0,0,0,0,0,0,0,0,0,0,0,0,0,0,0,0,0,0,0,0,0,0,0,0,8240,
8066,8066,8066,0,0,0,0,0,0,0,0,0,0,0,0,0,0,0,0,0,0,0,0,0,0,0,0,0,0,0,0,0,0,0,0,0,0,0,0,0,8240,
8066,8066,8066,0,0,0,0,0,0,0,0,0,0,0,0,0,0,0,0,0,0,0,0,0,0,0,0,0,0,0,0,0,0,0,0,0,0,0,0,0,8240,
8066,8066,8066,0,0,0,0,0,0,0,0,0,0,0,0,0,0,0,0,0,0,0,0,0,0,0,0,0,0,0,0,0,0,0,0,0,0,0,0,0,8240,
8066,8066,8066,0,0,0,0,0,0,0,0,0,0,0,0,0,0,0,0,0,0,0,0,0,0,0,0,0,0,0,0,0,0,0,0,0,0,0,0,0,8240,
8066,8066,8066,0,0,0,0,0,0,0,0,0,0,0,0,0,0,0,0,0,0,0,0,0,0,0,0,0,0,0,0,0,0,0,0,0,0,0,0,0,8240,
8066,8066,8066,0,0,0,0,0,0,0,0,0,0,0,0,0,0,0,0,0,0,0,0,0,0,0,0,0,0,0,0,0,0,0,0,0,0,0,0,0,8240,
8066,8066,8066,0,0,0,0,0,0,0,0,0,0,0,0,0,0,0,0,0,0,0,0,0,0,0,0,0,0,0,0,0,0,0,0,0,0,0,0,0,8240,
8066,8066,8066,0,0,0,0,0,0,0,0,0,0,0,0,0,0,0,0,0,0,0,9220,8066,9219,0,0,0,0,0,0,0,0,0,0,0,0,0,0,0,8240,
8066,8066,8066,0,0,0,0,0,0,0,0,0,0,0,0,0,0,0,0,0,0,0,8066,8066,8240,0,0,0,0,0,0,0,0,0,0,0,0,0,0,0,8240,
8066,8066,8066,9219,0,0,0,0,0,0,0,0,0,0,0,0,0,0,0,0,0,9220,8066,8066,8240,9219,0,0,0,0,0,0,0,0,0,0,0,0,0,9220,8240,
8066,8066,8066,8066,0,0,0,0,0,0,0,0,0,0,0,0,0,0,0,0,0,8066,8066,8066,8066,8240,9219,0,0,0,0,0,0,0,0,0,0,9220,8240,8240,8066,
8066,8066,8066,8066,9219,0,0,0,0,0,0,0,0,0,0,0,0,0,0,0,9220,8066,8066,8066,8066,8240,8240,8240,8240,8240,8240,0,0,0,8240,8240,8240,8240,8240,8066,8066,
8066,8066,8066,8066,8066,9219,0,0,0,0,0,0,0,0,0,0,0,0,0,9220,8066,8066,8066,8066,8066,8066,8066,8066,8066,8066,8066,0,0,0,8240,8066,8066,8066,8066,8066,8066,
8066,8066,8066,8066,8066,8066,8066,8066,8066,8066,0,0,0,0,0,8066,8066,8066,8066,8066,8066,8066,8066,8066,8066,8066,8066,8066,8066,8066,8066,8066,8066,8066,8066,8066,8066,8066,8066,8066,8066,
8066,8066,8066,8066,8066,8066,8066,8066,8066,8066,0,0,0,0,0,8066,8066,8066,8066,8066,8066,8066,8066,8066,8066,8066,8066,8066,8066,8066,8066,8066,8066,8066,8066,8066,8066,8066,8066,8066,8066
</data>
 </layer>
 <layer name="Collision" width="41" height="32" visible="0">
  <data encoding="csv">
0,0,0,0,0,0,0,0,0,0,0,0,0,0,0,0,0,0,0,0,0,0,0,0,0,0,0,0,0,0,0,0,0,0,0,0,0,0,0,0,0,
0,0,0,0,0,0,0,0,0,0,0,0,0,0,0,0,0,0,0,0,0,0,0,0,0,0,0,0,0,0,0,0,0,0,0,0,0,0,0,0,0,
0,0,0,0,0,0,0,0,0,0,0,0,0,0,0,0,0,0,0,0,0,0,0,0,0,0,0,0,0,0,0,0,0,0,0,0,0,0,0,0,0,
0,0,0,0,0,0,0,0,0,0,0,0,0,0,0,0,0,0,0,0,0,0,0,0,0,0,0,0,0,0,0,0,0,0,0,0,0,0,0,0,0,
0,0,0,0,0,0,0,0,0,0,0,0,0,0,0,0,0,0,0,0,0,0,0,0,0,0,0,0,0,0,0,0,0,0,0,0,0,0,0,0,0,
0,0,0,0,0,0,0,0,0,0,8941,0,0,0,8941,0,0,0,0,0,0,0,0,0,0,0,0,0,0,0,0,0,0,0,0,0,0,0,0,0,0,
0,0,0,0,0,0,0,0,0,0,8941,0,0,0,8941,0,0,0,0,0,0,0,0,0,0,0,0,0,0,0,0,0,0,0,0,0,0,0,0,0,0,
0,0,0,0,0,0,0,0,0,0,8941,0,0,0,8941,0,0,0,0,0,0,0,0,0,0,0,0,0,0,0,0,0,0,0,0,0,0,0,0,0,0,
0,0,0,0,0,0,0,0,0,0,8941,0,0,0,8941,0,0,0,0,0,0,0,0,0,0,0,0,0,0,0,0,0,0,0,0,0,0,0,0,0,0,
0,0,0,0,0,0,0,8941,8941,8941,8941,0,0,0,8941,8941,8941,8941,0,0,0,0,0,0,0,0,0,0,0,0,0,0,0,0,0,0,0,0,0,0,0,
0,0,0,0,0,0,0,8941,0,0,0,0,0,0,0,0,0,8941,0,0,0,0,0,0,0,0,0,0,0,0,0,0,0,0,0,0,0,0,0,0,0,
0,0,0,0,0,0,0,8941,0,0,0,0,0,0,0,0,0,8941,0,0,0,0,0,0,0,0,0,0,0,0,0,0,0,0,0,0,0,0,0,0,0,
0,0,0,0,0,0,0,8941,0,0,0,0,0,0,0,0,0,8941,8941,0,0,0,0,0,0,0,0,0,0,0,0,0,0,0,0,0,0,0,0,0,0,
0,0,0,0,0,0,8941,8941,8941,8941,8941,8941,8941,8941,8941,8941,8941,8941,8941,0,0,0,0,0,0,0,0,0,0,8941,8941,8941,0,0,0,0,0,0,0,0,0,
0,0,0,0,0,8941,8941,0,0,0,0,0,0,0,0,0,0,0,0,8941,0,0,0,0,0,0,0,8941,8941,8941,8941,8941,8941,8941,8941,8941,8941,8941,8941,8941,0,
0,0,0,0,8941,8941,0,0,0,0,0,0,0,0,0,0,0,0,0,8941,8941,0,0,0,0,0,8941,8941,0,0,0,0,0,0,0,0,0,0,0,8941,8941,
0,0,0,8941,8941,0,0,0,0,0,0,0,0,0,0,0,0,0,0,0,8941,8941,0,0,0,0,8941,8941,0,0,0,0,0,0,0,0,0,0,0,0,8941,
0,8941,8941,8941,0,0,0,0,0,0,0,0,0,0,0,0,0,0,0,0,0,8941,8941,8941,0,8941,8941,0,0,0,0,0,0,0,0,0,0,0,0,0,0,
8941,8941,8941,0,0,0,0,0,0,0,0,0,0,0,0,0,0,0,0,0,0,0,8941,8941,8941,8941,0,0,0,0,0,0,0,0,0,0,0,0,0,0,0,
8941,8941,0,0,0,0,0,0,0,0,0,0,0,0,0,0,0,0,0,0,0,0,0,0,0,0,0,0,0,0,0,0,0,0,0,0,0,0,0,0,0,
8941,8941,0,0,0,0,0,0,0,0,0,0,0,0,0,0,0,0,0,0,0,0,0,0,0,0,0,0,0,0,0,0,0,0,0,0,0,0,0,0,0,
8941,8941,0,0,0,0,0,0,0,0,0,0,0,0,0,0,0,0,0,0,0,0,0,0,0,0,0,0,0,0,0,0,0,0,0,0,0,0,0,0,0,
0,8941,0,0,0,0,0,0,0,0,0,0,0,0,0,0,0,0,0,0,0,0,0,0,0,0,0,0,0,0,0,0,0,0,0,0,0,0,0,0,0,
0,8941,0,0,0,0,0,0,0,0,0,0,0,0,0,0,0,0,0,0,0,0,0,0,0,0,0,0,0,0,0,0,0,0,0,0,0,0,0,0,0,
0,8941,0,0,0,0,0,0,0,0,0,0,0,0,0,0,0,0,0,0,0,0,0,0,0,0,0,0,0,0,0,0,0,0,0,0,0,0,0,0,0,
0,8941,0,0,0,0,0,0,0,0,0,0,0,0,0,0,0,0,0,0,0,0,0,0,0,0,0,0,0,0,0,0,0,0,0,0,0,0,0,0,0,
0,8941,0,0,0,0,0,0,0,0,0,0,0,0,0,0,0,0,0,0,0,0,0,8941,0,0,0,0,0,0,0,0,0,0,0,0,0,0,0,0,0,
0,8941,0,0,0,0,0,0,0,0,0,0,0,0,0,0,0,0,0,0,0,0,8941,8941,8941,0,0,0,0,0,0,0,0,0,0,0,0,0,0,0,8941,
0,8941,8941,0,0,0,0,0,0,0,0,0,0,0,0,0,0,0,0,0,0,0,8941,8941,8941,8941,8941,8941,8941,8941,8941,0,0,0,8941,8941,8941,8941,8941,8941,8941,
0,0,8941,8941,0,0,0,0,0,0,0,0,0,0,0,0,0,0,0,0,0,8941,8941,0,0,8941,8941,8941,8941,8941,8941,0,0,0,8941,8941,8941,8941,8941,8941,0,
0,0,0,8941,8941,8941,8941,8941,8941,8941,8941,0,0,0,8941,8941,8941,8941,8941,8941,8941,8941,8941,0,0,0,0,0,0,8941,8941,0,0,0,8941,8941,8941,8941,0,0,0,
0,0,8941,8941,8941,8941,8941,8941,8941,8941,8941,0,0,0,8941,8941,8941,8941,8941,8941,8941,0,0,0,0,0,0,0,0,8941,8941,8941,8941,8941,8941,8941,0,0,0,0,0
</data>
 </layer>
 <layer name="BunnyExtCollision" width="41" height="32" visible="0">
  <data encoding="csv">
0,0,0,0,0,0,0,0,0,0,0,0,0,0,0,0,0,0,0,0,0,0,0,0,0,0,0,0,0,0,0,0,0,0,0,0,0,0,0,0,0,
0,0,0,0,0,0,0,0,0,0,0,0,0,0,0,0,0,0,0,0,0,0,0,0,0,0,0,0,0,0,0,0,0,0,0,0,0,0,0,0,0,
0,0,0,0,0,0,0,0,0,0,0,0,0,0,0,0,0,0,0,0,0,0,0,0,0,0,0,0,0,0,0,0,0,0,0,0,0,0,0,0,0,
0,0,0,0,0,0,0,0,0,0,0,0,0,0,0,0,0,0,0,0,0,0,0,0,0,0,0,0,0,0,0,0,0,0,0,0,0,0,0,0,0,
0,0,0,0,0,0,0,0,0,0,0,0,0,0,0,0,0,0,0,0,0,0,0,0,0,0,0,0,0,0,0,0,0,0,0,0,0,0,0,0,0,
0,0,0,0,0,0,0,0,0,0,0,0,0,0,0,0,0,0,0,0,0,0,0,0,0,0,0,0,0,0,0,0,0,0,0,0,0,0,0,0,0,
0,0,0,0,0,0,0,0,0,0,0,0,0,0,0,0,0,0,0,0,0,0,0,0,0,0,0,0,0,0,0,0,0,0,0,0,0,0,0,0,0,
0,0,0,0,0,0,0,0,0,0,0,0,0,0,0,0,0,0,0,0,0,0,0,0,0,0,0,0,0,0,0,0,0,0,0,0,0,0,0,0,0,
0,0,0,0,0,0,0,0,0,0,0,0,0,0,0,0,0,0,0,0,0,0,0,0,0,0,0,0,0,0,0,0,0,0,0,0,0,0,0,0,0,
0,0,0,0,0,0,0,0,0,0,0,0,0,0,0,0,0,0,0,0,0,0,0,0,0,0,0,0,0,0,0,0,0,0,0,0,0,0,0,0,0,
0,0,0,0,0,0,0,0,0,0,0,0,0,0,0,0,0,0,0,0,0,0,0,0,0,0,0,0,0,0,0,0,0,0,0,0,0,0,0,0,0,
0,0,0,0,0,0,0,0,0,0,0,0,0,0,0,0,0,0,0,0,0,0,0,0,0,0,0,0,0,0,0,0,0,0,0,0,0,0,0,0,0,
0,0,0,0,0,0,0,0,0,0,0,0,0,0,0,0,0,0,0,0,0,0,0,0,0,0,0,0,0,0,0,0,0,0,0,0,0,0,0,0,0,
0,0,0,0,0,0,0,0,0,0,0,0,0,0,0,0,0,0,0,0,0,0,0,0,0,0,0,0,0,0,0,0,0,0,0,0,0,0,0,0,0,
0,0,0,0,0,0,0,0,0,0,0,0,0,0,0,0,0,0,0,0,0,0,0,0,0,0,0,0,0,0,0,0,0,0,0,0,0,0,0,0,0,
0,0,0,0,0,0,0,0,0,0,0,0,0,0,0,0,0,0,0,0,0,0,0,0,0,0,0,0,0,0,0,0,0,0,0,0,0,0,0,0,0,
0,0,0,0,0,0,0,0,0,0,0,0,0,0,0,0,0,0,0,0,0,0,0,0,0,0,0,0,0,0,0,0,0,0,0,0,0,0,0,0,0,
0,0,0,0,0,0,0,0,0,0,0,0,0,0,0,0,0,0,0,0,0,0,0,0,0,0,0,0,0,0,0,0,0,0,0,0,0,0,0,0,0,
0,0,0,0,0,0,0,0,0,0,0,0,0,0,0,0,0,0,0,0,0,0,0,0,0,0,0,0,0,0,0,0,0,0,0,0,0,0,0,0,0,
0,0,0,0,0,0,0,0,0,0,0,0,0,0,0,0,0,0,0,0,0,0,0,0,0,0,0,0,0,0,0,0,0,0,0,0,0,0,0,0,0,
0,0,0,0,0,0,0,0,0,0,0,0,0,0,0,0,0,0,0,0,0,0,0,0,0,0,0,0,0,0,0,0,0,0,0,0,0,0,0,0,0,
0,0,0,0,0,0,0,0,0,0,0,0,0,0,0,0,0,0,0,0,0,0,0,0,0,0,0,0,0,0,0,0,0,0,0,0,0,0,0,0,0,
0,0,0,0,0,0,0,0,0,0,0,0,0,0,0,0,0,0,0,0,0,0,0,0,0,0,0,0,0,0,0,0,0,0,0,0,0,0,0,0,0,
0,0,0,0,0,0,0,0,0,0,0,0,0,0,0,0,0,0,0,0,0,0,0,0,0,0,0,0,0,0,0,0,0,0,0,0,0,0,0,0,0,
0,0,0,0,0,0,0,0,0,0,0,0,0,0,0,0,0,0,0,0,0,0,0,0,0,0,0,0,0,0,0,0,0,0,0,0,0,0,0,0,0,
0,0,0,0,0,0,0,0,0,0,0,0,0,0,0,0,0,0,0,0,0,0,0,0,0,0,0,0,0,0,0,0,0,0,0,0,0,0,0,0,0,
0,0,0,0,0,0,0,0,0,0,0,0,0,0,0,0,0,0,0,0,0,0,0,0,0,0,0,0,0,0,0,0,0,0,0,0,0,0,0,0,0,
0,0,0,0,0,0,0,0,0,0,0,0,0,0,0,0,0,0,0,0,0,0,0,0,0,0,0,0,0,0,0,0,0,0,0,0,0,0,0,0,0,
0,0,0,0,0,0,0,0,0,0,0,0,0,0,0,0,0,0,0,0,0,0,0,0,0,0,0,0,0,0,0,0,0,0,0,0,0,0,0,0,0,
0,0,0,0,0,0,0,0,0,0,0,0,0,0,0,0,0,0,0,0,0,0,0,0,0,0,0,0,0,0,0,0,0,0,0,0,0,0,0,0,0,
0,0,0,0,0,0,0,0,0,0,0,0,0,0,0,0,0,0,0,0,0,0,0,0,0,0,0,0,0,0,0,0,0,0,0,0,0,0,0,0,0,
0,0,0,0,0,0,0,0,0,0,0,0,0,0,0,0,0,0,0,0,0,0,0,0,0,0,0,0,0,0,0,0,0,0,0,0,0,0,0,0,0
</data>
 </layer>
</map>
