<?xml version="1.0" encoding="UTF-8"?>
<map version="1.0" tiledversion="1.1.5" orientation="orthogonal" renderorder="right-down" width="31" height="35" tilewidth="32" tileheight="32" infinite="0" nextobjectid="32">
 <properties>
  <property name="battlebg" type="file" value="../art/backgrounds/deatheggbattle.png"/>
  <property name="currentLayer" type="int" value="7"/>
  <property name="layered" type="bool" value="true"/>
  <property name="onload" type="file" value="actions/dream_mountain_cave1.lua"/>
 </properties>
 <tileset firstgid="1" name="knotholehut" tilewidth="32" tileheight="32" tilecount="1044" columns="29">
  <image source="../art/tiles/knotholehutinterior.png" trans="000000" width="950" height="1170"/>
 </tileset>
 <tileset firstgid="1045" source="knothole.tsx"/>
 <tileset firstgid="4529" source="robotropolis.tsx"/>
 <tileset firstgid="8029" source="cave.tsx"/>
 <tileset firstgid="10374" source="forest2.tsx"/>
 <tileset firstgid="15549" source="knotholeindoors.tsx"/>
 <layer name="floor" width="31" height="35">
  <data encoding="csv">
0,8175,8174,8175,8174,8175,8174,8175,8174,8175,8174,8175,8174,8175,8174,8175,8174,8175,8174,8175,8174,8175,8174,8175,0,0,0,0,0,0,0,
0,8210,8209,8210,8209,8210,8209,8210,8209,8210,8209,8210,8209,8210,8209,8210,8209,8210,8209,8210,8209,8210,8209,8210,0,0,0,0,0,0,0,
0,8175,8174,8175,8174,8175,8174,8175,8174,8175,8174,8175,8174,8175,8174,8175,8174,8175,8174,8175,8174,8175,8174,8175,0,0,0,0,0,0,0,
0,8210,8209,8210,8209,8210,8209,8210,8209,8210,8209,8210,8209,8210,8209,8210,8209,8210,8209,8210,8209,8210,8209,8210,0,0,0,0,0,0,0,
0,8175,8174,8175,8174,8175,8174,8175,8174,8175,8174,8175,8174,8175,8174,8175,8174,8175,8174,8175,8174,8175,8174,8175,0,0,0,0,0,0,0,
0,8210,8209,8210,8209,8210,8209,8210,8209,8170,8171,8210,8170,8171,8209,8210,8209,8210,8209,8210,8209,8210,8209,8210,0,0,0,0,0,0,0,
0,8175,8174,8175,8174,8175,8174,8175,8174,8205,8206,8175,8205,8206,8174,8175,8174,8175,8174,8175,8174,8175,8174,8175,0,0,0,0,0,0,0,
0,8210,8209,8210,8209,8210,8209,8100,8101,8210,8209,8210,8209,8210,8209,8100,8101,8210,8209,8210,8209,8210,8209,8210,0,0,0,0,0,0,0,
0,8175,8174,8175,8174,8175,8174,8135,8136,8175,8174,8175,8174,8175,8174,8135,8136,8175,8174,8175,8174,8175,8174,8175,0,0,0,0,0,0,0,
0,8210,8209,8210,8209,8210,8209,8210,8209,8210,8209,8210,8209,8210,8209,8210,8209,8210,8209,8210,8209,8210,8209,8210,0,0,0,0,0,0,0,
0,8175,8174,8175,8174,8175,8174,8175,8174,8175,8174,8175,8174,8175,8174,8175,8174,8175,8174,8175,8174,8175,8174,8175,0,0,0,0,0,0,0,
0,8210,8209,8100,8101,8210,8170,8171,8209,8210,8209,8210,8209,8210,8209,8210,8170,8171,8209,8210,8209,8210,8209,8210,0,0,0,0,0,0,0,
0,8175,8174,8135,8136,8175,8205,8206,8174,8175,8174,8175,8174,8175,8174,8175,8205,8206,8174,8175,8174,8175,8174,8175,0,0,0,0,0,0,0,
0,8210,8209,8210,8209,8210,8209,8210,8209,8210,8209,8210,8209,8210,8209,8100,8101,8210,8100,8101,8209,8210,8209,8210,0,0,0,0,0,0,0,
0,8175,8174,8170,8171,8175,8174,8175,8174,8175,8174,8175,8174,8175,8174,8175,8174,8175,8174,8175,8174,8175,8174,8175,0,0,0,0,0,0,0,
0,8210,8209,8205,8206,8210,8209,8210,8209,8174,8175,8174,8175,8174,8209,8210,8209,8210,8209,8210,8209,8210,8209,8210,0,0,0,0,0,0,0,
0,8175,8174,8175,8174,8175,8174,8175,8174,8209,8210,8174,8175,8174,8175,8174,8174,8175,8174,8175,8174,8175,8174,8175,0,0,0,0,0,0,0,
0,0,0,8210,8209,8210,8209,8100,8101,8174,8175,8209,8210,8209,8210,8209,8101,8210,8209,8210,8209,8210,0,0,0,0,0,0,0,0,0,
0,0,0,8175,8174,8175,8174,8135,8136,8209,8210,8174,8175,8174,8175,8174,8136,8175,8174,8175,8174,8175,0,0,0,0,0,0,0,0,0,
0,0,0,8210,8209,8210,8209,8210,8209,8210,8209,8209,8210,8209,8210,8209,8209,8210,8209,8210,8209,8210,0,0,0,0,0,0,0,0,0,
0,0,0,8175,8174,8175,8174,8175,8174,8175,8174,8175,8174,8175,8174,8175,8174,8175,8174,8175,8174,8175,0,0,0,0,0,0,0,0,0,
0,0,0,8100,8101,8210,8170,8171,8209,8210,8209,8210,8209,8210,8209,8210,8170,8171,8209,8210,8209,8210,0,0,0,0,0,0,0,0,0,
0,0,0,8135,8136,8175,8205,8206,8174,8175,8174,8175,8174,8175,8174,8175,8205,8206,8174,8175,8174,8175,0,0,0,0,0,0,0,0,0,
0,0,0,8210,8209,8210,8209,8210,8209,8210,8209,8210,8209,8210,8209,8100,8101,8210,8100,8101,8209,8210,0,0,0,0,0,0,0,0,0,
0,0,0,8175,8174,8175,8174,8175,8174,8175,8174,8175,8174,8175,8174,8175,8174,8175,8174,8175,8174,8175,0,0,0,0,0,0,0,0,0,
0,0,0,8210,8209,8210,8209,8210,8209,8170,8171,8210,8170,8171,8209,8210,8209,8210,8209,8210,8209,8210,0,0,0,0,0,0,0,0,0,
0,0,0,8175,8174,8175,8174,8175,8174,8205,8206,8175,8205,8206,8174,8175,8174,8175,8174,8175,8174,8175,0,0,0,0,0,0,0,0,0,
0,0,0,8210,8209,8210,8209,8100,8101,8210,8209,8210,8209,8210,8209,8100,8101,8210,8209,8210,8209,8210,0,0,0,0,0,0,0,0,0,
0,0,0,8175,8174,8175,8174,8135,8136,8175,8174,8175,8174,8175,8174,8135,8136,8175,8174,8175,8174,8175,0,0,0,0,0,0,0,0,0,
0,0,0,8210,8209,8210,8209,8210,8209,8210,8209,8210,8209,8210,8209,8210,8209,8210,8209,8210,8209,8210,0,0,0,0,0,0,0,0,0,
0,0,0,8175,8174,8175,8174,8175,8174,8175,8174,8175,8174,8175,8174,8175,8174,8175,8174,8175,8174,8175,0,0,0,0,0,0,0,0,0,
0,0,0,8100,8101,8210,8170,8171,8209,8210,8209,8210,8209,8210,8209,8210,8170,8171,8209,8210,8209,8210,0,0,0,0,0,0,0,0,0,
0,0,0,8135,8136,8175,8205,8206,8174,8175,8174,8175,8174,8175,8174,8175,8205,8206,8174,8175,8174,8175,0,0,0,0,0,0,0,0,0,
0,0,0,8210,8209,8210,8209,8210,8209,8210,8209,8210,8209,8210,8209,8100,8101,8210,8100,8101,8209,8210,0,0,0,0,0,0,0,0,0,
0,0,0,8175,8174,8175,8174,8175,8174,8175,8174,8175,8174,8175,8174,8135,8136,8175,8135,8136,8174,8175,0,0,0,0,0,0,0,0,0
</data>
 </layer>
 <layer name="shadowfloor" width="31" height="35" opacity="0.5">
  <data encoding="csv">
0,0,0,0,0,0,0,0,0,0,0,0,0,0,0,0,0,0,0,0,0,0,0,0,0,0,0,0,0,0,0,
0,0,0,0,0,0,0,0,0,0,0,0,0,0,0,0,0,0,0,0,0,0,0,0,0,0,0,0,0,0,0,
0,0,0,0,0,0,0,0,0,0,0,0,0,0,0,0,0,0,0,0,0,0,0,0,0,0,0,0,0,0,0,
0,0,0,0,0,0,0,0,0,0,0,0,0,0,0,0,0,0,0,0,0,0,0,0,0,0,0,0,0,0,0,
0,0,0,0,0,0,0,0,0,0,0,0,0,0,0,0,0,0,0,0,0,0,0,0,0,0,0,0,0,0,0,
0,0,0,0,0,0,0,0,0,0,0,0,0,0,0,0,0,0,0,0,0,0,0,0,0,0,0,0,0,0,0,
0,0,0,0,0,0,0,0,0,0,0,0,0,0,0,0,0,0,0,0,0,0,0,0,0,0,0,0,0,0,0,
0,0,0,0,0,0,0,0,0,0,0,0,0,0,0,0,0,0,0,0,0,0,0,0,0,0,0,0,0,0,0,
0,0,0,0,0,0,0,0,0,0,0,0,0,0,0,0,0,0,0,0,0,0,0,0,0,0,0,0,0,0,0,
0,0,0,0,0,0,0,0,0,0,0,0,0,0,0,0,0,0,0,0,0,0,0,0,0,0,0,0,0,0,0,
0,0,0,0,0,0,0,0,0,0,0,0,0,0,0,0,0,0,0,0,0,0,0,0,0,0,0,0,0,0,0,
0,0,0,0,0,0,0,0,0,0,0,0,0,0,0,0,0,0,0,0,0,0,0,0,0,0,0,0,0,0,0,
0,0,0,0,0,0,0,0,0,0,0,0,0,0,0,0,0,0,0,0,0,0,0,0,0,0,0,0,0,0,0,
0,0,0,0,0,0,0,0,0,0,0,0,0,0,0,0,0,0,0,0,0,0,0,0,0,0,0,0,0,0,0,
0,0,0,0,0,0,0,0,0,0,0,0,0,0,0,0,0,0,0,0,0,0,0,0,0,0,0,0,0,0,0,
0,0,0,0,0,0,0,0,0,0,0,0,0,0,0,0,0,0,0,0,0,0,0,0,0,0,0,0,0,0,0,
0,0,0,0,0,0,0,0,0,0,0,0,0,0,0,0,0,0,0,0,0,0,0,0,0,0,0,0,0,0,0,
0,0,0,0,0,0,0,0,0,0,0,0,0,0,0,0,0,0,0,0,0,0,0,0,0,0,0,0,0,0,0,
0,0,0,0,0,0,0,0,0,0,0,0,0,0,0,0,0,0,0,0,0,0,0,0,0,0,0,0,0,0,0,
0,0,0,0,0,0,0,0,0,0,0,0,0,0,0,0,0,0,0,0,0,0,0,0,0,0,0,0,0,0,0,
0,0,0,0,0,0,0,0,0,0,0,0,0,0,0,0,0,0,0,0,0,0,0,0,0,0,0,0,0,0,0,
0,0,0,0,0,0,0,0,0,0,0,0,0,0,0,0,0,0,0,0,0,0,0,0,0,0,0,0,0,0,0,
0,0,0,0,0,0,0,0,0,0,0,0,0,0,0,0,0,0,0,0,0,0,0,0,0,0,0,0,0,0,0,
0,0,0,0,0,0,0,0,0,0,0,0,0,0,0,0,0,0,0,0,0,0,0,0,0,0,0,0,0,0,0,
0,0,0,0,0,0,0,0,0,0,0,0,0,0,0,0,0,0,0,0,0,0,0,0,0,0,0,0,0,0,0,
0,0,0,0,0,0,0,0,0,0,0,0,0,0,0,0,0,0,0,0,0,0,0,0,0,0,0,0,0,0,0,
0,0,0,0,0,0,0,0,0,0,0,0,0,0,0,0,0,0,0,0,0,0,0,0,0,0,0,0,0,0,0,
0,0,0,0,0,0,0,0,0,0,0,0,0,0,0,0,0,0,0,0,0,0,0,0,0,0,0,0,0,0,0,
0,0,0,0,0,0,0,0,0,0,0,0,0,0,0,0,0,0,0,0,0,0,0,0,0,0,0,0,0,0,0,
0,0,0,0,0,0,0,0,0,0,0,0,0,0,0,0,0,0,0,0,0,0,0,0,0,0,0,0,0,0,0,
0,0,0,0,0,0,0,0,0,0,0,0,0,0,0,0,0,0,0,0,0,0,0,0,0,0,0,0,0,0,0,
0,0,0,0,0,0,0,0,0,0,0,0,0,0,0,0,0,0,0,0,0,0,0,0,0,0,0,0,0,0,0,
0,0,0,0,0,0,0,0,0,0,0,0,0,0,0,0,0,0,0,0,0,0,0,0,0,0,0,0,0,0,0,
0,0,0,0,0,0,0,0,0,0,0,0,0,0,0,0,0,0,0,0,0,0,0,0,0,0,0,0,0,0,0,
0,0,0,0,0,0,0,0,0,0,0,0,0,0,0,0,0,0,0,0,0,0,0,0,0,0,0,0,0,0,0
</data>
 </layer>
 <layer name="above" width="31" height="35">
  <data encoding="csv">
0,8066,8066,8066,8066,8066,8066,8066,8066,8066,8066,8066,8066,8066,8066,8066,8066,8066,8066,8066,8066,8066,8066,8066,0,0,0,0,0,0,0,
0,8066,8066,8066,8066,8066,8066,8066,8066,8066,8066,8066,8066,8066,8066,8066,8066,8066,8066,8066,8066,8066,8066,8066,0,0,0,0,0,0,0,
0,8066,8066,8066,8066,8066,8066,8066,8066,8066,8066,8066,8066,8066,8066,8066,8066,8066,8066,8066,8066,8066,8066,8066,0,0,0,0,0,0,0,
0,8066,8066,8066,8066,8066,8066,8066,8066,8066,8066,8066,8066,8066,8066,8066,8066,8066,8066,8066,8066,8066,8066,8066,0,0,0,0,0,0,0,
0,8066,8066,8066,8066,8066,8066,8066,8066,8066,8066,8066,8066,8066,8066,8066,8066,8066,8066,8066,8066,8066,8066,8066,0,0,0,0,0,0,0,
0,8066,8066,8066,8066,8066,8066,8066,8066,8066,8066,8066,8066,8066,8066,8066,8066,8066,8066,8066,8066,8066,8066,8066,0,0,0,0,0,0,0,
0,8066,8066,8066,8066,8066,8066,8066,8066,8066,8066,8066,8066,8066,8066,8066,8066,8066,8066,8066,8066,8066,8066,8066,0,0,0,0,0,0,0,
0,8066,8066,8066,8066,8066,8066,8066,8066,8066,8066,8066,8066,8066,8066,8066,8066,8066,8066,8066,8066,8066,8066,8066,0,0,0,0,0,0,0,
0,8066,8066,8066,8066,8066,8066,8066,8066,8066,8066,8066,8066,8066,8066,8066,8066,8066,8066,8066,8066,8066,8066,8066,0,0,0,0,0,0,0,
0,8066,8066,8066,8066,8066,8066,8066,8066,8700,8733,8066,8066,8066,8734,0,8066,8066,8066,8066,8066,8066,8066,8066,0,0,0,0,0,0,0,
0,8066,8066,8066,8066,8066,8066,8066,8700,8701,8873,8874,8874,8874,8875,8696,8697,8066,8066,8066,8066,8066,8066,8066,0,0,0,0,0,0,0,
0,8066,8066,8066,8066,8066,8066,8700,8701,8768,8908,8909,8909,8909,8910,8768,8696,8697,8066,8066,8066,8066,8066,8066,0,0,0,0,0,0,0,
0,8066,8066,8066,8066,8066,8700,8701,8736,8803,8943,8944,8944,8944,8945,8803,8731,8696,8697,8066,8066,8066,8066,8066,0,0,0,0,0,0,0,
0,8066,8066,8066,8066,8700,8701,8736,8279,8630,8630,8630,8630,8630,8630,8630,8280,8836,8696,8697,8066,8066,8066,8066,0,0,0,0,0,0,0,
0,8066,8066,8066,8700,8701,8736,8771,8279,0,0,0,0,0,8174,8174,8280,8766,8731,8696,8697,8066,8066,8066,0,0,0,0,0,0,0,
0,8066,8066,8700,8701,8736,8771,8806,8279,0,0,0,0,0,8209,8210,8280,8801,8766,8731,8696,8697,8066,8066,0,0,0,0,0,0,0,
0,8066,8066,8701,8736,8771,8806,8841,8279,0,0,0,0,0,0,0,8280,8836,8801,8766,8731,8847,8066,8066,0,0,0,0,0,0,0,
0,8066,8066,8736,8771,8806,8841,0,8279,0,0,0,0,0,0,0,8280,0,8836,8801,8766,8882,8066,8066,0,0,0,0,0,0,0,
0,8066,8066,8771,8806,8841,0,0,8279,0,0,0,0,0,8209,8210,8280,0,0,8836,8801,8917,8066,8066,0,0,0,0,0,0,0,
0,8066,8066,8806,8841,0,0,0,8279,0,0,0,0,0,0,0,8280,0,0,0,8836,8952,8066,8066,0,0,0,0,0,0,0,
0,8066,8066,8841,0,0,0,0,8279,0,0,0,0,0,0,0,8280,0,0,0,0,8987,8066,8066,0,0,0,0,0,0,0,
0,8066,8066,0,0,0,0,0,8279,0,0,0,0,0,0,0,8280,0,0,0,0,9022,8066,8066,0,0,0,0,0,0,0,
0,8066,8066,0,0,0,0,0,8696,8697,0,0,0,0,0,8700,8701,0,0,0,0,0,8066,8066,0,0,0,0,0,0,0,
0,8066,8066,0,0,0,0,0,8731,8732,8733,0,0,0,8734,8735,8736,0,0,0,0,0,8066,8066,0,0,0,0,0,0,0,
0,8066,8066,0,0,0,0,0,8766,8767,8873,8874,8874,8874,8875,8770,8771,0,0,0,0,0,8066,8066,0,0,0,0,0,0,0,
0,8066,8066,0,0,0,0,0,8801,8802,8908,8909,8909,8909,8910,8805,8806,0,0,0,0,0,8066,8066,0,0,0,0,0,0,0,
0,8066,8066,0,0,0,0,0,8836,8837,8943,8944,8944,8944,8945,8840,8841,0,0,0,0,0,8066,8066,0,0,0,0,0,0,0,
0,8066,8066,0,0,0,0,0,0,0,0,0,0,0,0,0,0,0,0,0,0,0,8066,8066,0,0,0,0,0,0,0,
0,8066,8066,0,0,0,0,0,0,0,0,0,0,0,0,0,0,0,0,0,0,0,8066,8066,0,0,0,0,0,0,0,
0,8066,8066,9219,0,0,0,0,0,0,0,0,0,0,0,0,0,0,0,0,0,9220,8066,8066,0,0,0,0,0,0,0,
0,8066,8066,8066,0,0,0,0,0,0,0,0,0,0,0,0,0,0,0,0,0,8066,8066,8066,0,0,0,0,0,0,0,
0,8066,8066,8066,9219,0,0,0,0,0,0,0,0,0,0,0,0,0,0,0,9220,8066,8066,8066,0,0,0,0,0,0,0,
0,8066,8066,8066,8066,9219,0,0,0,0,0,0,0,0,0,0,0,0,0,9220,8066,8066,8066,8066,0,0,0,0,0,0,0,
0,8066,8066,8066,8066,8066,8066,8066,8066,8066,8066,0,0,0,8066,8066,8066,8066,8066,8066,8066,8066,8066,8066,0,0,0,0,0,0,0,
0,8066,8066,8066,8066,8066,8066,8066,8066,8066,8066,0,0,0,8066,8066,8066,8066,8066,8066,8066,8066,8066,8066,0,0,0,0,0,0,0
</data>
 </layer>
 <layer name="above2" width="31" height="35">
  <data encoding="csv">
0,0,0,0,0,0,0,0,0,0,0,0,0,0,0,0,0,0,0,0,0,0,0,0,0,0,0,0,0,0,0,
0,0,0,0,0,0,0,0,0,0,0,0,0,0,0,0,0,0,0,0,0,0,0,0,0,0,0,0,0,0,0,
0,0,0,0,0,0,0,0,0,0,0,0,0,0,0,0,0,0,0,0,0,0,0,0,0,0,0,0,0,0,0,
0,0,0,0,0,0,0,0,0,0,0,0,0,0,0,0,0,0,0,0,0,0,0,0,0,0,0,0,0,0,0,
0,0,0,0,0,0,0,0,0,0,0,0,0,0,0,0,0,0,0,0,0,0,0,0,0,0,0,0,0,0,0,
0,0,0,0,0,0,0,0,0,0,0,0,0,0,0,0,0,0,0,0,0,0,0,0,0,0,0,0,0,0,0,
0,0,0,0,0,0,0,0,0,0,0,0,0,0,0,0,0,0,0,0,0,0,0,0,0,0,0,0,0,0,0,
0,0,0,0,0,0,0,0,0,0,8250,8251,8252,8253,8254,0,0,0,0,0,0,0,0,0,0,0,0,0,0,0,0,
0,0,0,0,0,0,0,0,0,0,8285,8286,8287,8288,8289,0,0,0,0,0,0,0,0,0,0,0,0,0,0,0,0,
0,0,0,0,0,0,0,0,0,0,8320,8321,8322,8323,8324,0,0,0,0,0,0,0,0,0,0,0,0,0,0,0,0,
0,0,0,0,0,0,0,0,0,0,8355,8356,8357,8358,8359,0,0,0,0,0,0,0,0,0,0,0,0,0,0,0,0,
0,0,0,0,0,0,0,0,0,0,8390,8391,8392,8393,8394,0,0,0,0,0,0,0,0,0,0,0,0,0,0,0,0,
0,0,0,0,0,0,0,0,0,0,8425,8426,8427,8428,8429,0,0,0,0,0,0,0,0,0,0,0,0,0,0,0,0,
0,0,0,0,0,0,0,0,0,0,0,0,0,0,0,0,0,0,0,0,0,0,0,0,0,0,0,0,0,0,0,
0,0,0,0,0,0,0,0,0,0,0,0,0,0,0,0,0,0,0,0,0,0,0,0,0,0,0,0,0,0,0,
0,0,0,0,0,0,0,0,0,0,0,0,0,0,0,0,0,0,0,0,0,0,0,0,0,0,0,0,0,0,0,
0,0,0,0,0,0,0,0,0,0,0,0,0,0,0,0,0,0,0,0,0,0,0,0,0,0,0,0,0,0,0,
0,0,0,0,0,0,0,0,0,0,0,0,0,0,0,0,0,0,0,0,0,0,0,0,0,0,0,0,0,0,0,
0,0,0,0,0,0,0,0,0,0,0,0,0,0,0,0,0,0,0,0,0,0,0,0,0,0,0,0,0,0,0,
0,0,0,0,0,0,0,0,0,0,0,0,0,0,0,0,0,0,0,0,0,0,0,0,0,0,0,0,0,0,0,
0,0,0,0,0,0,0,0,0,0,0,0,0,0,0,0,0,0,0,0,0,0,0,0,0,0,0,0,0,0,0,
0,0,0,0,0,0,0,0,0,0,0,0,0,0,0,0,0,0,0,0,0,0,0,0,0,0,0,0,0,0,0,
0,0,0,0,0,0,0,0,0,0,0,0,0,0,0,0,0,0,0,0,0,0,0,0,0,0,0,0,0,0,0,
0,0,0,0,0,0,0,0,0,0,0,0,0,0,0,0,0,0,0,0,0,0,0,0,0,0,0,0,0,0,0,
0,0,0,0,0,0,0,0,0,0,0,0,0,0,0,0,0,0,0,0,0,0,0,0,0,0,0,0,0,0,0,
0,0,0,0,0,0,0,0,0,0,0,0,0,0,0,0,0,0,0,0,0,0,0,0,0,0,0,0,0,0,0,
0,0,0,0,0,0,0,0,0,0,0,0,0,0,0,0,0,0,0,0,0,0,0,0,0,0,0,0,0,0,0,
0,0,0,0,0,0,0,0,0,0,0,0,0,0,0,0,0,0,0,0,0,0,0,0,0,0,0,0,0,0,0,
0,0,0,0,0,0,0,0,0,0,0,0,0,0,0,0,0,0,0,0,0,0,0,0,0,0,0,0,0,0,0,
0,0,0,0,0,0,0,0,0,0,0,0,0,0,0,0,0,0,0,0,0,0,0,0,0,0,0,0,0,0,0,
0,0,0,0,0,0,0,0,0,0,0,0,0,0,0,0,0,0,0,0,0,0,0,0,0,0,0,0,0,0,0,
0,0,0,0,0,0,0,0,0,0,0,0,0,0,0,0,0,0,0,0,0,0,0,0,0,0,0,0,0,0,0,
0,0,0,0,0,0,0,0,0,0,0,0,0,0,0,0,0,0,0,0,0,0,0,0,0,0,0,0,0,0,0,
0,0,0,0,0,0,0,0,0,0,0,0,0,0,0,0,0,0,0,0,0,0,0,0,0,0,0,0,0,0,0,
0,0,0,0,0,0,0,0,0,0,0,0,0,0,0,0,0,0,0,0,0,0,0,0,0,0,0,0,0,0,0
</data>
 </layer>
 <objectgroup name="objects7">
  <object id="25" name="Spawn 1" type="Player" gid="6902" x="384" y="1056" width="32" height="32">
   <properties>
    <property name="ghost" type="bool" value="true"/>
    <property name="orientation" value="down"/>
   </properties>
  </object>
 </objectgroup>
 <objectgroup name="objects6"/>
 <objectgroup name="objects5"/>
 <objectgroup name="objects4" offsetx="-288" offsety="0"/>
 <objectgroup name="objects3"/>
 <objectgroup name="objects2"/>
 <objectgroup name="objects"/>
 <objectgroup name="all">
  <object id="29" name="Entrance2" type="SceneEdge" gid="6902" x="320" y="320" width="160" height="32">
   <properties>
    <property name="ghost" type="bool" value="true"/>
    <property name="key" value="down"/>
    <property name="layerOverride" type="int" value="7"/>
    <property name="no_run" type="bool" value="true"/>
    <property name="orientation" value="down"/>
    <property name="scene" type="file" value="boulderbay_cliffs.lua"/>
    <property name="spawn_point" value="Entrance1"/>
   </properties>
  </object>
  <object id="30" name="Entrance1" type="SceneEdge" gid="6902" x="320" y="1088" width="160" height="32">
   <properties>
    <property name="ghost" type="bool" value="true"/>
    <property name="key" value="down"/>
    <property name="layerOverride" type="int" value="7"/>
    <property name="no_run" type="bool" value="true"/>
    <property name="orientation" value="down"/>
    <property name="scene" type="file" value="boulderbay_cliffs.lua"/>
    <property name="spawn_point" value="Entrance1"/>
   </properties>
  </object>
  <object id="31" name="Golem" type="BasicNPC" gid="6839" x="384" y="416" width="64" height="64">
   <properties>
    <property name="align" value="bottom_center"/>
    <property name="audibleDistance" type="int" value="0"/>
    <property name="battle" type="file" value="../data/monsters/golem.lua"/>
    <property name="battleInitiative" value="opponent"/>
    <property name="battleMusic" value="boss"/>
    <property name="battleOnCollide" type="bool" value="true"/>
    <property name="defaultAnim" value="hide"/>
    <property name="disappearAfterBattle" type="bool" value="true"/>
    <property name="disappearOnFlag" type="bool" value="true"/>
    <property name="ghost" type="bool" value="true"/>
    <property name="noInvestigate" type="bool" value="true"/>
    <property name="noflashlight" type="bool" value="true"/>
    <property name="sprite" type="file" value="../art/sprites/golem.png"/>
    <property name="swapLayers" value="objects:objects7, objects2:objects7, objects3:objects7, objects4:objects4, objects5:objects5, objects6:objects7, objects7:objects7"/>
    <property name="visibleDistance" type="int" value="0"/>
   </properties>
  </object>
 </objectgroup>
 <objectgroup name="upper"/>
 <layer name="top" width="31" height="35">
  <data encoding="csv">
0,0,0,0,0,0,0,0,0,0,0,0,0,0,0,0,0,0,0,0,0,0,0,0,0,0,0,0,0,0,0,
0,8066,8066,0,0,0,0,0,0,0,0,0,0,0,0,0,0,0,0,0,0,0,0,0,0,0,0,0,0,0,0,
0,8066,8066,0,0,0,0,0,0,0,0,0,0,0,0,0,0,0,0,0,0,0,0,0,0,0,0,0,0,0,0,
0,8066,8066,0,0,0,0,0,0,0,0,0,0,0,0,0,0,0,0,0,0,0,0,0,0,0,0,0,0,0,0,
0,8066,8066,0,0,0,0,0,0,0,0,0,0,0,0,0,0,0,0,0,0,0,8066,8066,0,0,0,0,0,0,0,
0,8066,8066,8066,8066,8066,8066,8066,8066,8066,8066,8066,8066,8066,8066,8066,8066,8066,8066,8066,8066,8066,8066,8066,0,0,0,0,0,0,0,
0,8066,8066,8066,8066,8066,8066,8066,8066,8066,8066,8066,8066,8066,8066,8066,8066,8066,8066,8066,8066,8066,8066,8066,0,0,0,0,0,0,0,
0,8066,8066,8066,8066,8066,8066,8066,8066,8066,0,0,0,0,0,8066,8066,8066,8066,8066,8066,8066,8066,8066,0,0,0,0,0,0,0,
0,8066,8066,8066,8066,8066,8066,8066,8066,8066,0,0,0,0,0,8066,8066,8066,8066,8066,8066,8066,8066,8066,0,0,0,0,0,0,0,
0,8066,8066,8066,8066,8066,8066,8066,8066,9184,0,0,0,0,0,9185,8066,8066,8066,8066,8066,8066,8066,8066,0,0,0,0,0,0,0,
0,8066,8066,8066,8066,8066,8066,8066,9184,0,0,0,0,0,0,0,9185,8066,8066,8066,8066,8066,8066,8066,0,0,0,0,0,0,0,
0,8066,8066,8066,8066,8066,8066,9184,0,0,0,0,0,0,0,0,8696,9185,8066,8066,8066,8066,8066,8066,0,0,0,0,0,0,0,
0,8066,8066,8066,8066,8066,9184,0,0,0,0,0,0,0,0,0,0,0,9185,8066,8066,8066,8066,8066,0,0,0,0,0,0,0,
0,8066,8066,8066,8066,9184,0,0,0,0,0,0,0,0,0,0,0,0,8696,9185,8066,8066,8066,8066,0,0,0,0,0,0,0,
0,8066,8066,8066,9184,8701,0,0,0,0,0,0,0,0,0,0,0,0,8731,8696,9185,8066,8066,8066,0,0,0,0,0,0,0,
0,8066,8066,9184,0,0,0,0,0,0,0,0,0,0,0,0,0,0,0,0,0,9185,8066,8066,0,0,0,0,0,0,0,
0,8066,8066,0,0,0,0,0,0,0,0,0,0,0,0,0,0,0,0,0,0,0,8066,8066,0,0,0,0,0,0,0,
0,8066,8066,0,0,0,0,0,0,0,0,0,0,0,0,0,0,0,0,0,0,0,8066,8066,0,0,0,0,0,0,0,
0,8066,8066,0,0,0,0,0,0,0,0,0,0,0,0,0,0,0,0,0,0,0,8066,8066,0,0,0,0,0,0,0,
0,8066,8066,0,0,0,0,0,0,0,0,0,0,0,0,0,0,0,0,0,0,0,8066,8066,0,0,0,0,0,0,0,
0,8066,8066,0,0,0,0,0,0,0,0,0,0,0,0,0,0,0,0,0,0,0,8066,8066,0,0,0,0,0,0,0,
0,8066,8066,0,0,0,0,0,0,0,0,0,0,0,0,0,0,0,0,0,0,0,8066,8066,0,0,0,0,0,0,0,
0,8066,8066,0,0,0,0,0,0,0,0,0,0,0,0,0,0,0,0,0,0,0,8066,8066,0,0,0,0,0,0,0,
0,8066,8066,0,0,0,0,0,0,0,0,0,0,0,0,0,0,0,0,0,0,0,8066,8066,0,0,0,0,0,0,0,
0,8066,8066,0,0,0,0,0,0,0,0,0,0,0,0,0,0,0,0,0,0,0,8066,8066,0,0,0,0,0,0,0,
0,8066,8066,0,0,0,0,0,0,0,0,0,0,0,0,0,0,0,0,0,0,0,8066,8066,0,0,0,0,0,0,0,
0,8066,8066,0,0,0,0,0,0,0,0,0,0,0,0,0,0,0,0,0,0,0,8066,8066,0,0,0,0,0,0,0,
0,8066,8066,0,0,0,0,0,0,0,0,0,0,0,0,0,0,0,0,0,0,0,8066,8066,0,0,0,0,0,0,0,
0,8066,8066,0,0,0,0,0,0,0,0,0,0,0,0,0,0,0,0,0,0,0,8066,8066,0,0,0,0,0,0,0,
0,8066,8066,9219,0,0,0,0,0,0,0,0,0,0,0,0,0,0,0,0,0,9220,8066,8066,0,0,0,0,0,0,0,
0,8066,8066,8066,0,0,0,0,0,0,0,0,0,0,0,0,0,0,0,0,0,8066,8066,8066,0,0,0,0,0,0,0,
0,8066,8066,8066,9219,0,0,0,0,0,0,0,0,0,0,0,0,0,0,0,9220,8066,8066,8066,0,0,0,0,0,0,0,
0,8066,8066,8066,8066,9219,0,0,0,0,0,0,0,0,0,0,0,0,0,9220,8066,8066,8066,8066,0,0,0,0,0,0,0,
0,8066,8066,8066,8066,8066,8066,8066,8066,8066,8066,0,0,0,8066,8066,8066,8066,8066,8066,8066,8066,8066,8066,0,0,0,0,0,0,0,
0,8066,8066,8066,8066,8066,8066,8066,8066,8066,8066,0,0,0,8066,8066,8066,8066,8066,8066,8066,8066,8066,8066,0,0,0,0,0,0,0
</data>
 </layer>
 <layer name="Collision7" width="31" height="35" visible="0">
  <data encoding="csv">
0,0,0,0,0,0,0,0,0,0,0,0,0,0,0,0,0,0,0,0,0,0,0,0,0,0,0,0,0,0,0,
0,0,0,0,0,0,0,0,0,0,0,0,0,0,0,0,0,0,0,0,0,0,0,0,0,0,0,0,0,0,0,
0,0,0,0,0,0,0,0,0,0,0,0,0,0,0,0,0,0,0,0,0,0,0,0,0,0,0,0,0,0,0,
0,0,0,0,0,0,0,0,0,0,0,0,0,0,0,0,0,0,0,0,0,0,0,0,0,0,0,0,0,0,0,
0,0,0,0,0,0,0,0,0,0,0,0,0,0,0,0,0,0,0,0,0,0,0,0,0,0,0,0,0,0,0,
0,0,0,0,0,0,0,0,0,0,0,0,0,0,0,0,0,0,0,0,0,0,0,0,0,0,0,0,0,0,0,
0,0,0,0,0,0,0,0,0,0,0,0,0,0,0,0,0,0,0,0,0,0,0,0,0,0,0,0,0,0,0,
0,0,0,0,0,0,0,0,0,0,0,0,0,0,0,0,0,0,0,0,0,0,0,0,0,0,0,0,0,0,0,
0,0,0,0,0,0,0,0,0,0,8941,0,0,0,8941,0,0,0,0,0,0,0,0,0,0,0,0,0,0,0,0,
0,0,0,0,0,0,0,0,0,0,8941,0,0,0,8941,0,0,0,0,0,0,0,0,0,0,0,0,0,0,0,0,
0,0,0,0,0,0,0,0,0,0,8941,0,0,0,8941,0,0,0,0,0,0,0,0,0,0,0,0,0,0,0,0,
0,0,0,0,0,0,0,0,0,0,8941,0,0,0,8941,0,0,0,0,0,0,0,0,0,0,0,0,0,0,0,0,
0,0,0,0,0,0,0,8941,8941,8941,8941,0,0,0,8941,8941,8941,8941,0,0,0,0,0,0,0,0,0,0,0,0,0,
0,0,0,0,0,0,0,8941,0,0,0,0,0,0,0,0,0,8941,0,0,0,0,0,0,0,0,0,0,0,0,0,
0,0,0,0,0,0,0,8941,0,0,0,0,0,0,0,0,0,8941,0,0,0,0,0,0,0,0,0,0,0,0,0,
0,0,0,0,0,0,0,8941,0,0,0,0,0,0,0,0,0,8941,8941,0,0,0,0,0,0,0,0,0,0,0,0,
0,0,0,0,0,0,8941,8941,0,0,0,0,0,0,0,0,0,8941,8941,0,0,0,0,0,0,0,0,0,0,0,0,
0,0,0,0,0,8941,8941,8941,0,0,0,0,0,0,0,0,0,8941,0,8941,0,0,0,0,0,0,0,0,0,0,0,
0,0,0,0,8941,8941,0,8941,0,0,0,0,0,0,0,0,0,8941,0,8941,8941,0,0,0,0,0,0,0,0,0,0,
0,0,0,8941,8941,0,0,8941,0,0,0,0,0,0,0,0,0,8941,0,0,8941,8941,0,0,0,0,0,0,0,0,0,
0,8941,8941,8941,0,0,0,8941,0,0,0,0,0,0,0,0,0,8941,0,0,0,8941,8941,8941,0,0,0,0,0,0,0,
8941,8941,8941,0,0,0,0,8941,0,0,0,0,0,0,0,0,0,8941,0,0,0,0,8941,8941,0,0,0,0,0,0,0,
8941,8941,0,0,0,0,0,8941,0,0,0,0,0,0,0,0,0,8941,0,0,0,0,0,8941,0,0,0,0,0,0,0,
8941,8941,0,0,0,0,0,8941,0,0,0,0,0,0,0,0,0,8941,0,0,0,0,0,8941,0,0,0,0,0,0,0,
8941,8941,0,0,0,0,0,8941,8941,8941,8941,0,0,0,8941,8941,8941,8941,0,0,0,0,0,8941,0,0,0,0,0,0,0,
0,8941,0,0,0,0,0,0,8941,8941,8941,0,0,0,8941,8941,8941,0,0,0,0,0,0,8941,0,0,0,0,0,0,0,
0,8941,0,0,0,0,0,0,8941,8941,8941,0,0,0,8941,8941,8941,0,0,0,0,0,0,8941,0,0,0,0,0,0,0,
0,8941,0,0,0,0,0,0,0,0,0,0,0,0,0,0,0,0,0,0,0,0,0,8941,0,0,0,0,0,0,0,
0,8941,0,0,0,0,0,0,0,0,0,0,0,0,0,0,0,0,0,0,0,0,0,8941,0,0,0,0,0,0,0,
0,8941,0,0,0,0,0,0,0,0,0,0,0,0,0,0,0,0,0,0,0,0,0,8941,0,0,0,0,0,0,0,
0,8941,0,0,0,0,0,0,0,0,0,0,0,0,0,0,0,0,0,0,0,0,0,8941,0,0,0,0,0,0,0,
0,8941,8941,0,0,0,0,0,0,0,0,0,0,0,0,0,0,0,0,0,0,0,8941,8941,0,0,0,0,0,0,0,
0,0,8941,8941,0,0,0,0,0,0,0,0,0,0,0,0,0,0,0,0,0,8941,8941,0,0,0,0,0,0,0,0,
0,0,0,8941,8941,0,0,0,0,0,0,0,0,0,0,0,0,0,0,0,8941,8941,8941,0,0,0,0,0,0,0,0,
0,0,8941,8941,8941,8941,8941,8941,8941,8941,0,0,0,0,0,8941,8941,8941,8941,8941,8941,0,0,0,0,0,0,0,0,0,0
</data>
 </layer>
 <layer name="Collision6" width="31" height="35" visible="0">
  <data encoding="csv">
0,0,0,0,0,0,0,0,0,0,0,0,0,0,0,0,0,0,0,0,0,0,0,0,0,0,0,0,0,0,0,
0,0,0,0,0,0,0,0,0,0,0,0,0,0,0,0,0,0,0,0,0,0,0,0,0,0,0,0,0,0,0,
0,0,0,0,0,0,0,0,0,0,0,0,0,0,0,0,0,0,0,0,0,0,0,0,0,0,0,0,0,0,0,
0,0,0,0,0,0,0,0,0,0,0,0,0,0,0,0,0,0,0,0,0,0,0,0,0,0,0,0,0,0,0,
0,0,0,0,0,0,0,0,0,0,0,0,0,0,0,0,0,0,0,0,0,0,0,0,0,0,0,0,0,0,0,
0,0,0,0,0,0,0,0,0,0,0,0,0,0,0,0,0,0,0,0,0,0,0,0,0,0,0,0,0,0,0,
0,0,0,0,0,0,0,0,0,0,0,0,0,0,0,0,0,0,0,0,0,0,0,0,0,0,0,0,0,0,0,
0,0,0,0,0,0,0,0,0,0,0,0,0,0,0,0,0,0,0,0,0,0,0,0,0,0,0,0,0,0,0,
0,0,0,0,0,0,0,0,0,0,0,0,0,0,0,0,0,0,0,0,0,0,0,0,0,0,0,0,0,0,0,
0,0,0,0,0,0,0,0,0,0,0,0,0,0,0,0,0,0,0,0,0,0,0,0,0,0,0,0,0,0,0,
0,0,0,0,0,0,0,0,0,0,0,0,0,0,0,0,0,0,0,0,0,0,0,0,0,0,0,0,0,0,0,
0,0,0,0,0,0,0,0,0,0,0,0,0,0,0,0,0,0,0,0,0,0,0,0,0,0,0,0,0,0,0,
0,0,0,0,0,0,0,0,0,0,0,0,0,0,0,0,0,0,0,0,0,0,0,0,0,0,0,0,0,0,0,
0,0,0,0,0,0,0,0,0,0,0,0,0,0,0,0,0,0,0,0,0,0,0,0,0,0,0,0,0,0,0,
0,0,0,0,0,0,0,0,0,0,0,0,0,0,0,0,0,0,0,0,0,0,0,0,0,0,0,0,0,0,0,
0,0,0,0,0,0,0,0,0,0,0,0,0,0,0,0,0,0,0,0,0,0,0,0,0,0,0,0,0,0,0,
0,0,0,0,0,0,0,0,0,0,0,0,0,0,0,0,0,0,0,0,0,0,0,0,0,0,0,0,0,0,0,
0,0,0,0,0,0,0,0,0,0,0,0,0,0,0,0,0,0,0,0,0,0,0,0,0,0,0,0,0,0,0,
0,0,0,0,0,0,0,0,0,0,0,0,0,0,0,0,0,0,0,0,0,0,0,0,0,0,0,0,0,0,0,
0,0,0,0,0,0,0,0,0,0,0,0,0,0,0,0,0,0,0,0,0,0,0,0,0,0,0,0,0,0,0,
0,0,0,0,0,0,0,0,0,0,0,0,0,0,0,0,0,0,0,0,0,0,0,0,0,0,0,0,0,0,0,
0,0,0,0,0,0,0,0,0,0,0,0,0,0,0,0,0,0,0,0,0,0,0,0,0,0,0,0,0,0,0,
0,0,0,0,0,0,0,0,0,0,0,0,0,0,0,0,0,0,0,0,0,0,0,0,0,0,0,0,0,0,0,
0,0,0,0,0,0,0,0,0,0,0,0,0,0,0,0,0,0,0,0,0,0,0,0,0,0,0,0,0,0,0,
0,0,0,0,0,0,0,0,0,0,0,0,0,0,0,0,0,0,0,0,0,0,0,0,0,0,0,0,0,0,0,
0,0,0,0,0,0,0,0,0,0,0,0,0,0,0,0,0,0,0,0,0,0,0,0,0,0,0,0,0,0,0,
0,0,0,0,0,0,0,0,0,0,0,0,0,0,0,0,0,0,0,0,0,0,0,0,0,0,0,0,0,0,0,
0,0,0,0,0,0,0,0,0,0,0,0,0,0,0,0,0,0,0,0,0,0,0,0,0,0,0,0,0,0,0,
0,0,0,0,0,0,0,0,0,0,0,0,0,0,0,0,0,0,0,0,0,0,0,0,0,0,0,0,0,0,0,
0,0,0,0,0,0,0,0,0,0,0,0,0,0,0,0,0,0,0,0,0,0,0,0,0,0,0,0,0,0,0,
0,0,0,0,0,0,0,0,0,0,0,0,0,0,0,0,0,0,0,0,0,0,0,0,0,0,0,0,0,0,0,
0,0,0,0,0,0,0,0,0,0,0,0,0,0,0,0,0,0,0,0,0,0,0,0,0,0,0,0,0,0,0,
0,0,0,0,0,0,0,0,0,0,0,0,0,0,0,0,0,0,0,0,0,0,0,0,0,0,0,0,0,0,0,
0,0,0,0,0,0,0,0,0,0,0,0,0,0,0,0,0,0,0,0,0,0,0,0,0,0,0,0,0,0,0,
0,0,0,0,0,0,0,0,0,0,0,0,0,0,0,0,0,0,0,0,0,0,0,0,0,0,0,0,0,0,0
</data>
 </layer>
 <layer name="Collision5" width="31" height="35" visible="0">
  <data encoding="csv">
0,0,0,0,0,0,0,0,0,0,0,0,0,0,0,0,0,0,0,0,0,0,0,0,0,0,0,0,0,0,0,
0,0,0,0,0,0,0,0,0,0,0,0,0,0,0,0,0,0,0,0,0,0,0,0,0,0,0,0,0,0,0,
0,0,0,0,0,0,0,0,0,0,0,0,0,0,0,0,0,0,0,0,0,0,0,0,0,0,0,0,0,0,0,
0,0,0,0,0,0,0,0,0,0,0,0,0,0,0,0,0,0,0,0,0,0,0,0,0,0,0,0,0,0,0,
0,0,0,0,0,0,0,0,0,0,0,0,0,0,0,0,0,0,0,0,0,0,0,0,0,0,0,0,0,0,0,
0,0,0,0,0,0,0,0,0,0,0,0,0,0,0,0,0,0,0,0,0,0,0,0,0,0,0,0,0,0,0,
0,0,0,0,0,0,0,0,0,0,0,0,0,0,0,0,0,0,0,0,0,0,0,0,0,0,0,0,0,0,0,
0,0,0,0,0,0,0,0,0,0,0,0,0,0,0,0,0,0,0,0,0,0,0,0,0,0,0,0,0,0,0,
0,0,0,0,0,0,0,0,0,0,8941,0,0,0,8941,0,0,0,0,0,0,0,0,0,0,0,0,0,0,0,0,
0,0,0,0,0,0,0,0,0,0,8941,0,0,0,8941,0,0,0,0,0,0,0,0,0,0,0,0,0,0,0,0,
0,0,0,0,0,0,0,0,0,0,8941,0,0,0,8941,0,0,0,0,0,0,0,0,0,0,0,0,0,0,0,0,
0,0,0,0,0,0,0,0,0,0,8941,0,0,0,8941,0,0,0,0,0,0,0,0,0,0,0,0,0,0,0,0,
0,0,0,0,0,0,0,8941,8941,8941,8941,0,0,0,8941,8941,8941,8941,0,0,0,0,0,0,0,0,0,0,0,0,0,
0,0,0,0,0,0,0,8941,0,0,0,0,0,0,0,0,0,8941,0,0,0,0,0,0,0,0,0,0,0,0,0,
0,0,0,0,0,0,0,8941,0,0,0,0,0,0,0,0,0,8941,0,0,0,0,0,0,0,0,0,0,0,0,0,
0,0,0,0,0,0,0,8941,0,0,0,0,0,0,0,0,0,8941,8941,0,0,0,0,0,0,0,0,0,0,0,0,
0,0,0,0,0,0,8941,8941,0,0,0,0,0,0,0,0,0,8941,8941,0,0,0,0,0,0,0,0,0,0,0,0,
0,0,0,0,0,8941,8941,8941,0,0,0,0,0,0,0,0,0,8941,0,8941,0,0,0,0,0,0,0,0,0,0,0,
0,0,0,0,8941,8941,0,8941,0,0,0,0,0,0,0,0,0,8941,0,8941,8941,0,0,0,0,0,0,0,0,0,0,
0,0,0,8941,8941,0,0,8941,0,0,0,0,0,0,0,0,0,8941,0,0,8941,8941,0,0,0,0,0,0,0,0,0,
0,8941,8941,8941,0,0,0,8941,0,0,0,0,0,0,0,0,0,8941,0,0,0,8941,8941,8941,0,0,0,0,0,0,0,
8941,8941,8941,0,0,0,0,8941,0,0,0,0,0,0,0,0,0,8941,0,0,0,0,8941,8941,0,0,0,0,0,0,0,
8941,8941,0,0,0,0,0,8941,0,0,0,0,0,0,0,0,0,8941,0,0,0,0,0,8941,0,0,0,0,0,0,0,
8941,8941,0,0,0,0,0,8941,0,0,0,0,0,0,0,0,0,8941,0,0,0,0,0,8941,0,0,0,0,0,0,0,
8941,8941,0,0,0,0,0,8941,8941,8941,8941,0,0,0,8941,8941,8941,8941,0,0,0,0,0,8941,0,0,0,0,0,0,0,
0,8941,0,0,0,0,0,0,8941,8941,8941,0,0,0,8941,8941,8941,0,0,0,0,0,0,8941,0,0,0,0,0,0,0,
0,8941,0,0,0,0,0,0,8941,8941,8941,0,0,0,8941,8941,8941,0,0,0,0,0,0,8941,0,0,0,0,0,0,0,
0,8941,0,0,0,0,0,0,0,0,0,0,0,0,0,0,0,0,0,0,0,0,0,8941,0,0,0,0,0,0,0,
0,8941,0,0,0,0,0,0,0,0,0,0,0,0,0,0,0,0,0,0,0,0,0,8941,0,0,0,0,0,0,0,
0,8941,0,0,0,0,0,0,0,0,0,0,0,0,0,0,0,0,0,0,0,0,0,8941,0,0,0,0,0,0,0,
0,8941,0,0,0,0,0,0,0,0,0,0,0,0,0,0,0,0,0,0,0,0,0,8941,0,0,0,0,0,0,0,
0,8941,8941,0,0,0,0,0,0,0,0,0,0,0,0,0,0,0,0,0,0,0,8941,8941,0,0,0,0,0,0,0,
0,0,8941,8941,0,0,0,0,0,0,0,0,0,0,0,0,0,0,0,0,0,8941,8941,0,0,0,0,0,0,0,0,
0,0,0,8941,8941,0,0,0,0,0,0,0,0,0,0,0,0,0,0,0,8941,8941,8941,0,0,0,0,0,0,0,0,
0,0,8941,8941,8941,8941,8941,8941,8941,8941,0,0,0,0,0,8941,8941,8941,8941,8941,8941,0,0,0,0,0,0,0,0,0,0
</data>
 </layer>
 <layer name="Collision4" width="31" height="35" visible="0">
  <data encoding="csv">
0,0,0,0,0,0,0,0,0,0,0,0,0,0,0,0,0,0,0,0,0,0,0,0,0,0,0,0,0,0,0,
0,0,0,0,0,0,0,0,0,0,0,0,0,0,0,0,0,0,0,0,0,0,0,0,0,0,0,0,0,0,0,
0,0,0,0,0,0,0,0,0,0,0,0,0,0,0,0,0,0,0,0,0,0,0,0,0,0,0,0,0,0,0,
0,0,0,0,0,0,0,0,0,0,0,0,0,0,0,0,0,0,0,0,0,0,0,0,0,0,0,0,0,0,0,
0,0,0,0,0,0,0,0,0,0,0,0,0,0,0,0,0,0,0,0,0,0,0,0,0,0,0,0,0,0,0,
0,0,0,0,0,0,0,0,0,0,0,0,0,0,0,0,0,0,0,0,0,0,0,0,0,0,0,0,0,0,0,
0,0,0,0,0,0,0,0,0,0,0,0,0,0,0,0,0,0,0,0,0,0,0,0,0,0,0,0,0,0,0,
0,0,0,0,0,0,0,0,0,0,0,0,0,0,0,0,0,0,0,0,0,0,0,0,0,0,0,0,0,0,0,
0,0,0,0,0,0,0,0,0,0,8941,0,0,0,8941,0,0,0,0,0,0,0,0,0,0,0,0,0,0,0,0,
0,0,0,0,0,0,0,0,0,0,8941,0,0,0,8941,0,0,0,0,0,0,0,0,0,0,0,0,0,0,0,0,
0,0,0,0,0,0,0,0,0,0,8941,0,0,0,8941,0,0,0,0,0,0,0,0,0,0,0,0,0,0,0,0,
0,0,0,0,0,0,0,0,0,0,8941,0,0,0,8941,0,0,0,0,0,0,0,0,0,0,0,0,0,0,0,0,
0,0,0,0,0,0,0,8941,8941,8941,8941,0,0,0,8941,8941,8941,8941,0,0,0,0,0,0,0,0,0,0,0,0,0,
0,0,0,0,0,0,0,8941,0,0,0,0,0,0,0,0,0,8941,0,0,0,0,0,0,0,0,0,0,0,0,0,
0,0,0,0,0,0,0,8941,0,0,0,0,0,0,0,0,0,8941,0,0,0,0,0,0,0,0,0,0,0,0,0,
0,0,0,0,0,0,0,8941,0,0,0,0,0,0,0,0,0,8941,8941,0,0,0,0,0,0,0,0,0,0,0,0,
0,0,0,0,0,0,8941,8941,0,0,0,0,0,0,0,0,0,8941,8941,0,0,0,0,0,0,0,0,0,0,0,0,
0,0,0,0,0,8941,8941,8941,0,0,0,0,0,0,0,0,0,8941,0,8941,0,0,0,0,0,0,0,0,0,0,0,
0,0,0,0,8941,8941,0,8941,0,0,0,0,0,0,0,0,0,8941,0,8941,8941,0,0,0,0,0,0,0,0,0,0,
0,0,0,8941,8941,0,0,8941,0,0,0,0,0,0,0,0,0,8941,0,0,8941,8941,0,0,0,0,0,0,0,0,0,
0,8941,8941,8941,0,0,0,8941,0,0,0,0,0,0,0,0,0,8941,0,0,0,8941,8941,8941,0,0,0,0,0,0,0,
8941,8941,8941,0,0,0,0,8941,0,0,0,0,0,0,0,0,0,8941,0,0,0,0,8941,8941,0,0,0,0,0,0,0,
8941,8941,0,0,0,0,0,8941,0,0,0,0,0,0,0,0,0,8941,0,0,0,0,0,8941,0,0,0,0,0,0,0,
8941,8941,0,0,0,0,0,8941,0,0,0,0,0,0,0,0,0,8941,0,0,0,0,0,8941,0,0,0,0,0,0,0,
8941,8941,0,0,0,0,0,8941,8941,8941,8941,0,0,0,8941,8941,8941,8941,0,0,0,0,0,8941,0,0,0,0,0,0,0,
0,8941,0,0,0,0,0,0,8941,8941,8941,0,0,0,8941,8941,8941,0,0,0,0,0,0,8941,0,0,0,0,0,0,0,
0,8941,0,0,0,0,0,0,8941,8941,8941,0,0,0,8941,8941,8941,0,0,0,0,0,0,8941,0,0,0,0,0,0,0,
0,8941,0,0,0,0,0,0,0,0,0,0,0,0,0,0,0,0,0,0,0,0,0,8941,0,0,0,0,0,0,0,
0,8941,0,0,0,0,0,0,0,0,0,0,0,0,0,0,0,0,0,0,0,0,0,8941,0,0,0,0,0,0,0,
0,8941,0,0,0,0,0,0,0,0,0,0,0,0,0,0,0,0,0,0,0,0,0,8941,0,0,0,0,0,0,0,
0,8941,0,0,0,0,0,0,0,0,0,0,0,0,0,0,0,0,0,0,0,0,0,8941,0,0,0,0,0,0,0,
0,8941,8941,0,0,0,0,0,0,0,0,0,0,0,0,0,0,0,0,0,0,0,8941,8941,0,0,0,0,0,0,0,
0,0,8941,8941,0,0,0,0,0,0,0,0,0,0,0,0,0,0,0,0,0,8941,8941,0,0,0,0,0,0,0,0,
0,0,0,8941,8941,0,0,0,0,0,0,0,0,0,0,0,0,0,0,0,8941,8941,8941,0,0,0,0,0,0,0,0,
0,0,8941,8941,8941,8941,8941,8941,8941,8941,0,0,0,0,0,8941,8941,8941,8941,8941,8941,0,0,0,0,0,0,0,0,0,0
</data>
 </layer>
 <layer name="Collision3" width="31" height="35" visible="0">
  <data encoding="csv">
0,0,0,0,0,0,0,0,0,0,0,0,0,0,0,0,0,0,0,0,0,0,0,0,0,0,0,0,0,0,0,
0,0,0,0,0,0,0,0,0,0,0,0,0,0,0,0,0,0,0,0,0,0,0,0,0,0,0,0,0,0,0,
0,0,0,0,0,0,0,0,0,0,0,0,0,0,0,0,0,0,0,0,0,0,0,0,0,0,0,0,0,0,0,
0,0,0,0,0,0,0,0,0,0,0,0,0,0,0,0,0,0,0,0,0,0,0,0,0,0,0,0,0,0,0,
0,0,0,0,0,0,0,0,0,0,0,0,0,0,0,0,0,0,0,0,0,0,0,0,0,0,0,0,0,0,0,
0,0,0,0,0,0,0,0,0,0,0,0,0,0,0,0,0,0,0,0,0,0,0,0,0,0,0,0,0,0,0,
0,0,0,0,0,0,0,0,0,0,0,0,0,0,0,0,0,0,0,0,0,0,0,0,0,0,0,0,0,0,0,
0,0,0,0,0,0,0,0,0,0,0,0,0,0,0,0,0,0,0,0,0,0,0,0,0,0,0,0,0,0,0,
0,0,0,0,0,0,0,0,0,0,0,0,0,0,0,0,0,0,0,0,0,0,0,0,0,0,0,0,0,0,0,
0,0,0,0,0,0,0,0,0,0,0,0,0,0,0,0,0,0,0,0,0,0,0,0,0,0,0,0,0,0,0,
0,0,0,0,0,0,0,0,0,0,0,0,0,0,0,0,0,0,0,0,0,0,0,0,0,0,0,0,0,0,0,
0,0,0,0,0,0,0,0,0,0,0,0,0,0,0,0,0,0,0,0,0,0,0,0,0,0,0,0,0,0,0,
0,0,0,0,0,0,0,0,0,0,0,0,0,0,0,0,0,0,0,0,0,0,0,0,0,0,0,0,0,0,0,
0,0,0,0,0,0,0,0,0,0,0,0,0,0,0,0,0,0,0,0,0,0,0,0,0,0,0,0,0,0,0,
0,0,0,0,0,0,0,0,0,0,0,0,0,0,0,0,0,0,0,0,0,0,0,0,0,0,0,0,0,0,0,
0,0,0,0,0,0,0,0,0,0,0,0,0,0,0,0,0,0,0,0,0,0,0,0,0,0,0,0,0,0,0,
0,0,0,0,0,0,0,0,0,0,0,0,0,0,0,0,0,0,0,0,0,0,0,0,0,0,0,0,0,0,0,
0,0,0,0,0,0,0,0,0,0,0,0,0,0,0,0,0,0,0,0,0,0,0,0,0,0,0,0,0,0,0,
0,0,0,0,0,0,0,0,0,0,0,0,0,0,0,0,0,0,0,0,0,0,0,0,0,0,0,0,0,0,0,
0,0,0,0,0,0,0,0,0,0,0,0,0,0,0,0,0,0,0,0,0,0,0,0,0,0,0,0,0,0,0,
0,0,0,0,0,0,0,0,0,0,0,0,0,0,0,0,0,0,0,0,0,0,0,0,0,0,0,0,0,0,0,
0,0,0,0,0,0,0,0,0,0,0,0,0,0,0,0,0,0,0,0,0,0,0,0,0,0,0,0,0,0,0,
0,0,0,0,0,0,0,0,0,0,0,0,0,0,0,0,0,0,0,0,0,0,0,0,0,0,0,0,0,0,0,
0,0,0,0,0,0,0,0,0,0,0,0,0,0,0,0,0,0,0,0,0,0,0,0,0,0,0,0,0,0,0,
0,0,0,0,0,0,0,0,0,0,0,0,0,0,0,0,0,0,0,0,0,0,0,0,0,0,0,0,0,0,0,
0,0,0,0,0,0,0,0,0,0,0,0,0,0,0,0,0,0,0,0,0,0,0,0,0,0,0,0,0,0,0,
0,0,0,0,0,0,0,0,0,0,0,0,0,0,0,0,0,0,0,0,0,0,0,0,0,0,0,0,0,0,0,
0,0,0,0,0,0,0,0,0,0,0,0,0,0,0,0,0,0,0,0,0,0,0,0,0,0,0,0,0,0,0,
0,0,0,0,0,0,0,0,0,0,0,0,0,0,0,0,0,0,0,0,0,0,0,0,0,0,0,0,0,0,0,
0,0,0,0,0,0,0,0,0,0,0,0,0,0,0,0,0,0,0,0,0,0,0,0,0,0,0,0,0,0,0,
0,0,0,0,0,0,0,0,0,0,0,0,0,0,0,0,0,0,0,0,0,0,0,0,0,0,0,0,0,0,0,
0,0,0,0,0,0,0,0,0,0,0,0,0,0,0,0,0,0,0,0,0,0,0,0,0,0,0,0,0,0,0,
0,0,0,0,0,0,0,0,0,0,0,0,0,0,0,0,0,0,0,0,0,0,0,0,0,0,0,0,0,0,0,
0,0,0,0,0,0,0,0,0,0,0,0,0,0,0,0,0,0,0,0,0,0,0,0,0,0,0,0,0,0,0,
0,0,0,0,0,0,0,0,0,0,0,0,0,0,0,0,0,0,0,0,0,0,0,0,0,0,0,0,0,0,0
</data>
 </layer>
 <layer name="Collision2" width="31" height="35" visible="0">
  <data encoding="csv">
0,0,0,0,0,0,0,0,0,0,0,0,0,0,0,0,0,0,0,0,0,0,0,0,0,0,0,0,0,0,0,
0,0,0,0,0,0,0,0,0,0,0,0,0,0,0,0,0,0,0,0,0,0,0,0,0,0,0,0,0,0,0,
0,0,0,0,0,0,0,0,0,0,0,0,0,0,0,0,0,0,0,0,0,0,0,0,0,0,0,0,0,0,0,
0,0,0,0,0,0,0,0,0,0,0,0,0,0,0,0,0,0,0,0,0,0,0,0,0,0,0,0,0,0,0,
0,0,0,0,0,0,0,0,0,0,0,0,0,0,0,0,0,0,0,0,0,0,0,0,0,0,0,0,0,0,0,
0,0,0,0,0,0,0,0,0,0,0,0,0,0,0,0,0,0,0,0,0,0,0,0,0,0,0,0,0,0,0,
0,0,0,0,0,0,0,0,0,0,0,0,0,0,0,0,0,0,0,0,0,0,0,0,0,0,0,0,0,0,0,
0,0,0,0,0,0,0,0,0,0,0,0,0,0,0,0,0,0,0,0,0,0,0,0,0,0,0,0,0,0,0,
0,0,0,0,0,0,0,0,0,0,0,0,0,0,0,0,0,0,0,0,0,0,0,0,0,0,0,0,0,0,0,
0,0,0,0,0,0,0,0,0,0,0,0,0,0,0,0,0,0,0,0,0,0,0,0,0,0,0,0,0,0,0,
0,0,0,0,0,0,0,0,0,0,0,0,0,0,0,0,0,0,0,0,0,0,0,0,0,0,0,0,0,0,0,
0,0,0,0,0,0,0,0,0,0,0,0,0,0,0,0,0,0,0,0,0,0,0,0,0,0,0,0,0,0,0,
0,0,0,0,0,0,0,0,0,0,0,0,0,0,0,0,0,0,0,0,0,0,0,0,0,0,0,0,0,0,0,
0,0,0,0,0,0,0,0,0,0,0,0,0,0,0,0,0,0,0,0,0,0,0,0,0,0,0,0,0,0,0,
0,0,0,0,0,0,0,0,0,0,0,0,0,0,0,0,0,0,0,0,0,0,0,0,0,0,0,0,0,0,0,
0,0,0,0,0,0,0,0,0,0,0,0,0,0,0,0,0,0,0,0,0,0,0,0,0,0,0,0,0,0,0,
0,0,0,0,0,0,0,0,0,0,0,0,0,0,0,0,0,0,0,0,0,0,0,0,0,0,0,0,0,0,0,
0,0,0,0,0,0,0,0,0,0,0,0,0,0,0,0,0,0,0,0,0,0,0,0,0,0,0,0,0,0,0,
0,0,0,0,0,0,0,0,0,0,0,0,0,0,0,0,0,0,0,0,0,0,0,0,0,0,0,0,0,0,0,
0,0,0,0,0,0,0,0,0,0,0,0,0,0,0,0,0,0,0,0,0,0,0,0,0,0,0,0,0,0,0,
0,0,0,0,0,0,0,0,0,0,0,0,0,0,0,0,0,0,0,0,0,0,0,0,0,0,0,0,0,0,0,
0,0,0,0,0,0,0,0,0,0,0,0,0,0,0,0,0,0,0,0,0,0,0,0,0,0,0,0,0,0,0,
0,0,0,0,0,0,0,0,0,0,0,0,0,0,0,0,0,0,0,0,0,0,0,0,0,0,0,0,0,0,0,
0,0,0,0,0,0,0,0,0,0,0,0,0,0,0,0,0,0,0,0,0,0,0,0,0,0,0,0,0,0,0,
0,0,0,0,0,0,0,0,0,0,0,0,0,0,0,0,0,0,0,0,0,0,0,0,0,0,0,0,0,0,0,
0,0,0,0,0,0,0,0,0,0,0,0,0,0,0,0,0,0,0,0,0,0,0,0,0,0,0,0,0,0,0,
0,0,0,0,0,0,0,0,0,0,0,0,0,0,0,0,0,0,0,0,0,0,0,0,0,0,0,0,0,0,0,
0,0,0,0,0,0,0,0,0,0,0,0,0,0,0,0,0,0,0,0,0,0,0,0,0,0,0,0,0,0,0,
0,0,0,0,0,0,0,0,0,0,0,0,0,0,0,0,0,0,0,0,0,0,0,0,0,0,0,0,0,0,0,
0,0,0,0,0,0,0,0,0,0,0,0,0,0,0,0,0,0,0,0,0,0,0,0,0,0,0,0,0,0,0,
0,0,0,0,0,0,0,0,0,0,0,0,0,0,0,0,0,0,0,0,0,0,0,0,0,0,0,0,0,0,0,
0,0,0,0,0,0,0,0,0,0,0,0,0,0,0,0,0,0,0,0,0,0,0,0,0,0,0,0,0,0,0,
0,0,0,0,0,0,0,0,0,0,0,0,0,0,0,0,0,0,0,0,0,0,0,0,0,0,0,0,0,0,0,
0,0,0,0,0,0,0,0,0,0,0,0,0,0,0,0,0,0,0,0,0,0,0,0,0,0,0,0,0,0,0,
0,0,0,0,0,0,0,0,0,0,0,0,0,0,0,0,0,0,0,0,0,0,0,0,0,0,0,0,0,0,0
</data>
 </layer>
 <layer name="Collision" width="31" height="35" visible="0">
  <data encoding="csv">
0,0,0,0,0,0,0,0,0,0,0,0,0,0,0,0,0,0,0,0,0,0,0,0,0,0,0,0,0,0,0,
0,0,0,0,0,0,0,0,0,0,0,0,0,0,0,0,0,0,0,0,0,0,0,0,0,0,0,0,0,0,0,
0,0,0,0,0,0,0,0,0,0,0,0,0,0,0,0,0,0,0,0,0,0,0,0,0,0,0,0,0,0,0,
0,0,0,0,0,0,0,0,0,0,0,0,0,0,0,0,0,0,0,0,0,0,0,0,0,0,0,0,0,0,0,
0,0,0,0,0,0,0,0,0,0,0,0,0,0,0,0,0,0,0,0,0,0,0,0,0,0,0,0,0,0,0,
0,0,0,0,0,0,0,0,0,0,0,0,0,0,0,0,0,0,0,0,0,0,0,0,0,0,0,0,0,0,0,
0,0,0,0,0,0,0,0,0,0,0,0,0,0,0,0,0,0,0,0,0,0,0,0,0,0,0,0,0,0,0,
0,0,0,0,0,0,0,0,0,0,0,0,0,0,0,0,0,0,0,0,0,0,0,0,0,0,0,0,0,0,0,
0,0,0,0,0,0,0,0,0,0,0,0,0,0,0,0,0,0,0,0,0,0,0,0,0,0,0,0,0,0,0,
0,0,0,0,0,0,0,0,0,0,0,0,0,0,0,0,0,0,0,0,0,0,0,0,0,0,0,0,0,0,0,
0,0,0,0,0,0,0,0,0,0,0,0,0,0,0,0,0,0,0,0,0,0,0,0,0,0,0,0,0,0,0,
0,0,0,0,0,0,0,0,0,0,0,0,0,0,0,0,0,0,0,0,0,0,0,0,0,0,0,0,0,0,0,
0,0,0,0,0,0,0,0,0,0,0,0,0,0,0,0,0,0,0,0,0,0,0,0,0,0,0,0,0,0,0,
0,0,0,0,0,0,0,0,0,0,0,0,0,0,0,0,0,0,0,0,0,0,0,0,0,0,0,0,0,0,0,
0,0,0,0,0,0,0,0,0,0,0,0,0,0,0,0,0,0,0,0,0,0,0,0,0,0,0,0,0,0,0,
0,0,0,0,0,0,0,0,0,0,0,0,0,0,0,0,0,0,0,0,0,0,0,0,0,0,0,0,0,0,0,
0,0,0,0,0,0,0,0,0,0,0,0,0,0,0,0,0,0,0,0,0,0,0,0,0,0,0,0,0,0,0,
0,0,0,0,0,0,0,0,0,0,0,0,0,0,0,0,0,0,0,0,0,0,0,0,0,0,0,0,0,0,0,
0,0,0,0,0,0,0,0,0,0,0,0,0,0,0,0,0,0,0,0,0,0,0,0,0,0,0,0,0,0,0,
0,0,0,0,0,0,0,0,0,0,0,0,0,0,0,0,0,0,0,0,0,0,0,0,0,0,0,0,0,0,0,
0,0,0,0,0,0,0,0,0,0,0,0,0,0,0,0,0,0,0,0,0,0,0,0,0,0,0,0,0,0,0,
0,0,0,0,0,0,0,0,0,0,0,0,0,0,0,0,0,0,0,0,0,0,0,0,0,0,0,0,0,0,0,
0,0,0,0,0,0,0,0,0,0,0,0,0,0,0,0,0,0,0,0,0,0,0,0,0,0,0,0,0,0,0,
0,0,0,0,0,0,0,0,0,0,0,0,0,0,0,0,0,0,0,0,0,0,0,0,0,0,0,0,0,0,0,
0,0,0,0,0,0,0,0,0,0,0,0,0,0,0,0,0,0,0,0,0,0,0,0,0,0,0,0,0,0,0,
0,0,0,0,0,0,0,0,0,0,0,0,0,0,0,0,0,0,0,0,0,0,0,0,0,0,0,0,0,0,0,
0,0,0,0,0,0,0,0,0,0,0,0,0,0,0,0,0,0,0,0,0,0,0,0,0,0,0,0,0,0,0,
0,0,0,0,0,0,0,0,0,0,0,0,0,0,0,0,0,0,0,0,0,0,0,0,0,0,0,0,0,0,0,
0,0,0,0,0,0,0,0,0,0,0,0,0,0,0,0,0,0,0,0,0,0,0,0,0,0,0,0,0,0,0,
0,0,0,0,0,0,0,0,0,0,0,0,0,0,0,0,0,0,0,0,0,0,0,0,0,0,0,0,0,0,0,
0,0,0,0,0,0,0,0,0,0,0,0,0,0,0,0,0,0,0,0,0,0,0,0,0,0,0,0,0,0,0,
0,0,0,0,0,0,0,0,0,0,0,0,0,0,0,0,0,0,0,0,0,0,0,0,0,0,0,0,0,0,0,
0,0,0,0,0,0,0,0,0,0,0,0,0,0,0,0,0,0,0,0,0,0,0,0,0,0,0,0,0,0,0,
0,0,0,0,0,0,0,0,0,0,0,0,0,0,0,0,0,0,0,0,0,0,0,0,0,0,0,0,0,0,0,
0,0,0,0,0,0,0,0,0,0,0,0,0,0,0,0,0,0,0,0,0,0,0,0,0,0,0,0,0,0,0
</data>
 </layer>
 <layer name="BunnyExtCollision" width="31" height="35" visible="0">
  <data encoding="csv">
0,0,0,0,0,0,0,0,0,0,0,0,0,0,0,0,0,0,0,0,0,0,0,0,0,0,0,0,0,0,0,
0,0,0,0,0,0,0,0,0,0,0,0,0,0,0,0,0,0,0,0,0,0,0,0,0,0,0,0,0,0,0,
0,0,0,0,0,0,0,0,0,0,0,0,0,0,0,0,0,0,0,0,0,0,0,0,0,0,0,0,0,0,0,
0,0,0,0,0,0,0,0,0,0,0,0,0,0,0,0,0,0,0,0,0,0,0,0,0,0,0,0,0,0,0,
0,0,0,0,0,0,0,0,0,0,0,0,0,0,0,0,0,0,0,0,0,0,0,0,0,0,0,0,0,0,0,
0,0,0,0,0,0,0,0,0,0,0,0,0,0,0,0,0,0,0,0,0,0,0,0,0,0,0,0,0,0,0,
0,0,0,0,0,0,0,0,0,0,0,0,0,0,0,0,0,0,0,0,0,0,0,0,0,0,0,0,0,0,0,
0,0,0,0,0,0,0,0,0,0,0,0,0,0,0,0,0,0,0,0,0,0,0,0,0,0,0,0,0,0,0,
0,0,0,0,0,0,0,0,0,0,0,0,0,0,0,0,0,0,0,0,0,0,0,0,0,0,0,0,0,0,0,
0,0,0,0,0,0,0,0,0,0,0,0,0,0,0,0,0,0,0,0,0,0,0,0,0,0,0,0,0,0,0,
0,0,0,0,0,0,0,0,0,0,0,0,0,0,0,0,0,0,0,0,0,0,0,0,0,0,0,0,0,0,0,
0,0,0,0,0,0,0,0,0,0,0,0,0,0,0,0,0,0,0,0,0,0,0,0,0,0,0,0,0,0,0,
0,0,0,0,0,0,0,0,0,0,0,0,0,0,0,0,0,0,0,0,0,0,0,0,0,0,0,0,0,0,0,
0,0,0,0,0,0,0,0,0,0,0,0,0,0,0,0,0,0,0,0,0,0,0,0,0,0,0,0,0,0,0,
0,0,0,0,0,0,0,0,0,0,0,0,0,0,0,0,0,0,0,0,0,0,0,0,0,0,0,0,0,0,0,
0,0,0,0,0,0,0,0,0,0,0,0,0,0,0,0,0,0,0,0,0,0,0,0,0,0,0,0,0,0,0,
0,0,0,0,0,0,0,0,0,0,0,0,0,0,0,0,0,0,0,0,0,0,0,0,0,0,0,0,0,0,0,
0,0,0,0,0,0,0,0,0,0,0,0,0,0,0,0,0,0,0,0,0,0,0,0,0,0,0,0,0,0,0,
0,0,0,0,0,0,0,0,0,0,0,0,0,0,0,0,0,0,0,0,0,0,0,0,0,0,0,0,0,0,0,
0,0,0,0,0,0,0,0,0,0,0,0,0,0,0,0,0,0,0,0,0,0,0,0,0,0,0,0,0,0,0,
0,0,0,0,0,0,0,0,0,0,0,0,0,0,0,0,0,0,0,0,0,0,0,0,0,0,0,0,0,0,0,
0,0,0,0,0,0,0,0,0,0,0,0,0,0,0,0,0,0,0,0,0,0,0,0,0,0,0,0,0,0,0,
0,0,0,0,0,0,0,0,0,0,0,0,0,0,0,0,0,0,0,0,0,0,0,0,0,0,0,0,0,0,0,
0,0,0,0,0,0,0,0,0,0,0,0,0,0,0,0,0,0,0,0,0,0,0,0,0,0,0,0,0,0,0,
0,0,0,0,0,0,0,0,0,0,0,0,0,0,0,0,0,0,0,0,0,0,0,0,0,0,0,0,0,0,0,
0,0,0,0,0,0,0,0,0,0,0,0,0,0,0,0,0,0,0,0,0,0,0,0,0,0,0,0,0,0,0,
0,0,0,0,0,0,0,0,0,0,0,0,0,0,0,0,0,0,0,0,0,0,0,0,0,0,0,0,0,0,0,
0,0,0,0,0,0,0,0,0,0,0,0,0,0,0,0,0,0,0,0,0,0,0,0,0,0,0,0,0,0,0,
0,0,0,0,0,0,0,0,0,0,0,0,0,0,0,0,0,0,0,0,0,0,0,0,0,0,0,0,0,0,0,
0,0,0,0,0,0,0,0,0,0,0,0,0,0,0,0,0,0,0,0,0,0,0,0,0,0,0,0,0,0,0,
0,0,0,0,0,0,0,0,0,0,0,0,0,0,0,0,0,0,0,0,0,0,0,0,0,0,0,0,0,0,0,
0,0,0,0,0,0,0,0,0,0,0,0,0,0,0,0,0,0,0,0,0,0,0,0,0,0,0,0,0,0,0,
0,0,0,0,0,0,0,0,0,0,0,0,0,0,0,0,0,0,0,0,0,0,0,0,0,0,0,0,0,0,0,
0,0,0,0,0,0,0,0,0,0,0,0,0,0,0,0,0,0,0,0,0,0,0,0,0,0,0,0,0,0,0,
0,0,0,0,0,0,0,0,0,0,0,0,0,0,0,0,0,0,0,0,0,0,0,0,0,0,0,0,0,0,0
</data>
 </layer>
</map>
