<?xml version="1.0" encoding="UTF-8"?>
<map version="1.0" tiledversion="1.1.5" orientation="orthogonal" renderorder="right-down" width="25" height="23" tilewidth="32" tileheight="32" infinite="0" nextobjectid="89">
 <properties>
  <property name="battlebg" type="file" value="../art/backgrounds/caveoflight.png"/>
  <property name="noBattleMusic" type="bool" value="true"/>
  <property name="onload" type="file" value="actions/epilogue1.lua"/>
  <property name="regionName" value="Cave of Light"/>
  <property name="sectorName" value="Race to the Light"/>
 </properties>
 <tileset firstgid="1" name="knotholehut" tilewidth="32" tileheight="32" tilecount="1044" columns="29">
  <image source="../art/tiles/knotholehutinterior.png" trans="000000" width="950" height="1170"/>
 </tileset>
 <tileset firstgid="1045" source="knothole.tsx"/>
 <tileset firstgid="4529" source="robotropolis.tsx"/>
 <tileset firstgid="8029" source="cave.tsx"/>
 <tileset firstgid="10374" source="forest2.tsx"/>
 <tileset firstgid="15549" source="knotholeindoors.tsx"/>
 <tileset firstgid="17351" source="worldmap.tsx"/>
 <layer name="floor" width="25" height="23">
  <data encoding="csv">
8174,8175,8174,8136,8175,8174,8175,8174,8175,8175,8174,8174,8175,8175,8209,8210,8209,8210,8174,8175,8209,8210,8210,0,0,
8209,8210,8209,8101,8210,8209,8210,8209,8210,8209,8210,8174,8210,8174,8209,8210,8174,8175,8209,8210,8175,8174,8175,0,0,
8175,8174,8174,8209,8175,8174,8209,8174,8175,8174,8210,8209,8175,8209,8174,8175,8209,8210,8175,8174,8209,8174,8210,0,0,
8210,8209,8209,8175,8174,8175,8174,8175,8174,8174,8175,8209,8210,8175,8209,8210,8174,8175,8209,8210,8209,8209,8175,0,0,
8174,8209,8209,8210,8209,8210,8209,8210,8209,8209,8175,8175,8175,8209,8209,8210,8209,8210,8175,8174,8209,8209,8210,0,0,
8210,8209,8174,8175,8174,8175,8175,8174,8209,8209,8210,8174,8210,8175,8174,8175,8174,8210,8209,8210,8210,8175,8175,0,0,
8174,8209,8175,8210,8209,8210,8209,8210,8209,8174,8175,8209,8175,8174,8175,8174,8209,8175,8175,8174,8175,8174,8210,8210,8209,
8175,8209,8210,8175,8174,8175,8175,8174,8209,8175,8210,8175,8210,8209,8175,8175,8174,8175,8174,8209,8210,8209,8175,8175,8175,
8210,8175,8174,8210,8209,8210,8174,8175,8209,8210,8210,8210,8209,8210,8175,8174,8175,8210,8209,8174,8175,8175,8210,8175,8210,
8175,8174,8175,8174,8175,8175,8209,8210,8175,8174,8210,8175,8175,8174,8174,8209,8174,8175,8209,8210,8209,8210,8209,8210,8209,
8210,8209,8100,8101,8210,8210,8175,8174,8209,8174,8210,8175,8174,8209,8209,8210,8210,8175,8175,8175,8175,8175,8175,8175,8175,
8175,8174,8135,8136,8175,8175,8209,8210,8209,8209,8210,8174,8175,8175,8175,8174,8175,8174,8174,8174,8174,8175,8174,8175,8174,
8210,8209,8210,8209,8210,8210,8175,8174,8209,8209,8210,8174,8210,8174,8174,8209,8210,8209,8209,8209,8209,8210,8209,8210,8209,
8210,8209,8175,8175,8174,8175,8174,8175,8174,8209,8174,8209,8175,8209,8209,8174,8175,8175,8175,8175,8175,8175,8175,8175,8175,
8210,8175,8175,8174,8209,8210,8209,8210,8209,8175,8209,8174,8175,8175,8209,8174,8175,8174,8209,8209,8210,8174,8175,8174,8175,
8175,8174,8210,8209,8174,8175,8175,8174,8209,8174,8174,8174,8210,8174,8174,8175,8174,8175,8174,8175,8174,8175,8174,8175,8174,
8210,8209,8174,8209,8209,8210,8174,8175,8174,8209,8209,8209,8175,8209,8209,8210,8209,8210,8209,8210,8209,8210,8209,8210,8209,
8175,8175,8175,8174,8175,8174,8175,8174,8175,8174,8175,8209,8210,8175,8174,8175,8174,8174,8175,8174,8209,8210,8174,8210,8174,
8175,8209,8210,8209,8210,8209,8210,8209,8210,8209,8175,8175,8175,8209,8209,8210,8209,8209,8100,8101,8174,8175,8209,8175,8209,
8174,8174,8174,8175,8174,8209,8210,8174,8175,8174,8175,8174,8210,8175,8174,8175,8174,8174,8135,8136,8209,8210,8174,8210,8174,
8210,8209,8209,8100,8101,8174,8175,8209,8210,8209,8210,8209,8175,8174,8170,8171,8209,8209,8210,8209,8210,8209,8209,8209,8209,
8175,8174,8174,8135,8136,8209,8210,8174,8175,8174,8175,8175,8210,8209,8174,8175,8174,8175,8175,8174,8209,8209,8175,8209,8175,
8210,8209,8209,8210,8209,8210,8209,8209,8209,8209,8210,8210,8209,8210,8209,8210,8209,8210,8209,8210,8209,8174,8210,8174,8210
</data>
 </layer>
 <layer name="above" width="25" height="23">
  <data encoding="csv">
8240,8240,8240,8240,8240,8240,8240,8240,8240,8240,8240,8240,8240,8240,8240,8240,8240,8240,8240,8240,8240,8240,8240,8240,8240,
8253,8254,8251,8252,8253,8254,8251,8252,8253,8254,8251,8252,8253,8254,8251,8252,8253,8254,8251,8252,8253,8254,8251,8252,8253,
8288,8289,8286,8287,8288,8289,8286,8287,8288,8289,8286,8287,8288,8289,8286,8287,8288,8289,8286,8287,8288,8289,8286,8287,8288,
8323,8324,8321,8322,8323,8324,8321,8322,8323,8324,8321,8322,8323,8324,8321,8322,8323,8324,8321,8322,8323,8324,8321,8322,8323,
8358,8359,8356,8357,8358,8359,8356,8357,8358,8359,8356,8357,8358,8359,8356,8357,8358,8359,8356,8357,8358,8359,8356,8357,8358,
8393,8394,8391,8392,8393,8394,8391,8392,8393,8394,8391,8392,8393,8394,8391,8392,8393,8394,8391,8392,8393,8394,8391,8392,8393,
8428,8429,8426,8427,8428,8429,8426,8427,8428,8429,8426,8427,8428,8429,8426,8427,8428,8429,8426,8427,8428,8429,8426,8427,8428,
0,0,0,0,0,0,0,0,0,0,0,0,0,0,0,0,0,0,0,0,0,0,0,0,0,
0,0,0,0,0,0,0,0,0,0,0,0,0,0,0,0,0,0,0,0,0,0,0,0,0,
0,0,0,0,0,0,0,0,0,0,0,0,0,0,0,0,0,0,0,0,0,0,0,0,0,
0,0,0,0,0,0,0,0,0,0,0,0,0,0,0,0,0,0,0,0,0,0,0,0,0,
0,0,0,0,0,0,0,0,0,0,0,0,0,0,0,0,0,0,0,0,0,0,0,0,0,
0,0,0,0,0,0,0,0,0,0,0,0,0,0,0,0,0,0,0,0,0,0,0,0,0,
0,0,0,0,0,0,0,0,0,0,0,0,0,0,0,0,0,0,0,0,0,0,0,0,0,
0,0,0,0,0,0,0,0,0,0,0,0,0,0,0,0,0,0,0,0,0,0,0,0,0,
0,0,0,0,0,0,0,0,0,0,0,0,0,0,0,0,0,0,0,0,0,0,0,0,0,
0,0,0,0,0,0,0,0,0,0,0,0,0,0,0,0,0,0,0,0,0,0,0,0,0,
0,0,0,0,0,0,0,0,0,0,0,0,0,0,0,0,0,0,0,0,0,0,0,0,0,
0,0,0,0,0,0,0,0,0,0,0,0,0,0,0,0,0,0,0,0,0,0,0,0,0,
0,0,0,0,0,0,0,0,0,0,0,0,0,0,0,0,0,0,0,0,0,0,0,0,0,
0,0,0,0,0,0,0,0,0,0,0,0,0,0,0,0,0,0,0,0,0,0,0,0,0,
0,0,0,0,0,0,0,0,0,0,0,0,0,0,0,0,0,0,0,0,0,0,0,0,0,
0,0,0,0,0,0,0,0,0,0,0,0,0,0,0,0,0,0,0,0,0,0,0,0,0
</data>
 </layer>
 <objectgroup name="objects">
  <object id="36" name="Spawn 1" type="Player" gid="4565" x="416" y="384" width="32" height="32">
   <properties>
    <property name="orientation" value="right"/>
   </properties>
  </object>
  <object id="60" name="Robotnik" type="BasicNPC" gid="6839" x="320" y="320" width="160" height="160">
   <properties>
    <property name="defaultAnim" value="knockdown"/>
    <property name="ghost" type="bool" value="true"/>
    <property name="sprite" type="file" value="../art/sprites/robotnikbattle.png"/>
   </properties>
  </object>
 </objectgroup>
 <objectgroup name="all"/>
 <layer name="top" width="25" height="23" visible="0">
  <data encoding="csv">
0,0,0,0,0,0,0,0,8066,8066,8066,8066,8066,0,0,0,0,0,0,0,0,0,0,0,0,
0,0,0,0,0,0,0,0,8066,8066,8066,8066,8066,0,0,0,0,0,0,0,0,0,0,0,0,
0,0,0,0,0,0,0,0,8066,8066,8066,8066,8066,0,0,0,0,0,0,0,0,0,0,0,0,
0,0,0,0,0,0,0,0,8066,8066,8066,8066,8066,0,0,0,0,0,0,0,0,0,0,0,0,
0,0,0,0,0,0,0,0,8066,8066,8066,8066,8066,0,0,0,0,0,0,0,0,0,0,0,0,
0,0,0,0,0,0,0,0,8066,8066,8066,8066,8066,0,0,0,0,0,0,0,0,0,0,0,0,
0,0,0,0,0,0,0,0,8066,8066,8066,8066,8066,0,0,0,0,0,0,0,0,0,0,0,0,
0,0,0,0,0,0,0,0,8066,8066,8066,8066,8066,0,0,0,0,0,0,0,0,0,0,0,0,
0,0,0,0,0,0,0,0,8066,8066,8066,8066,8066,0,0,0,0,0,0,0,0,0,0,0,0,
0,0,0,0,0,0,0,0,8066,8066,8066,8066,8066,0,0,0,0,0,0,0,0,0,0,0,0,
0,0,0,0,0,0,0,0,8066,8066,8066,8066,8066,0,0,0,0,0,0,0,0,0,0,0,0,
0,0,0,0,0,0,0,0,8066,8066,8066,8066,8066,0,0,0,0,0,0,0,0,0,0,0,0,
0,0,0,0,0,0,0,0,8066,8066,8066,8066,8066,0,0,0,0,0,0,0,0,0,0,0,0,
0,0,0,0,0,0,0,0,8066,8066,8066,8066,8066,0,0,0,0,0,0,0,0,0,0,0,0,
0,0,0,0,0,0,0,0,8066,8066,8066,8066,8066,0,0,0,0,0,0,0,0,0,0,0,0,
0,0,0,0,0,0,0,0,8066,8066,8066,8066,8066,0,0,0,0,0,0,0,0,0,0,0,0,
0,0,0,0,0,0,0,0,8066,8066,8066,8066,8066,0,0,0,0,0,0,0,0,0,0,0,0,
0,0,0,0,0,0,0,0,8066,8066,8066,8066,8066,0,0,0,0,0,0,0,0,0,0,0,0,
0,0,0,0,0,0,0,0,8066,8066,8066,8066,8066,0,0,0,0,0,0,0,0,0,0,0,0,
0,0,0,0,0,0,0,0,8066,8066,8066,8066,8066,0,0,0,0,0,0,0,0,0,0,0,0,
0,0,0,0,0,0,0,0,8066,8066,8066,8066,8066,0,0,0,0,0,0,0,0,0,0,0,0,
0,0,0,0,0,0,0,0,8066,8066,8066,8066,8066,0,0,0,0,0,0,0,0,0,0,0,0,
0,0,0,0,0,0,0,0,8066,8066,8066,8066,8066,0,0,0,0,0,0,0,0,0,0,0,0
</data>
 </layer>
 <objectgroup name="upper"/>
 <layer name="Collision" width="25" height="23" visible="0">
  <data encoding="csv">
0,0,0,0,0,0,0,0,0,0,0,0,0,0,0,0,0,0,0,0,0,0,0,0,0,
0,0,0,0,0,0,0,0,0,0,0,0,0,0,0,0,0,0,0,0,0,0,0,0,0,
0,0,0,0,0,0,0,0,0,0,0,0,0,0,0,0,0,0,0,0,0,0,0,0,0,
0,0,0,0,0,0,0,0,0,0,0,0,0,0,0,0,0,0,0,0,0,0,0,0,0,
0,0,0,0,0,0,0,0,0,0,0,0,0,0,0,0,0,0,0,0,0,0,0,0,0,
0,0,0,0,0,0,0,0,0,0,0,0,0,0,0,0,0,0,0,0,0,0,0,0,0,
0,0,0,0,0,0,0,0,0,0,0,0,0,0,0,0,0,0,0,0,0,0,0,0,0,
0,0,0,0,0,0,0,0,0,0,0,0,0,0,0,0,0,0,0,0,0,0,0,0,0,
0,0,0,0,0,0,0,0,0,0,0,0,0,0,0,0,0,0,0,0,0,0,0,0,0,
0,0,0,0,0,0,0,0,0,0,0,0,0,0,0,0,0,0,0,0,0,0,0,0,0,
0,0,0,0,0,0,0,0,0,0,0,0,0,0,0,0,0,0,0,0,0,0,0,0,0,
0,0,0,0,0,0,0,0,0,0,0,0,0,0,0,0,0,0,0,0,0,0,0,0,0,
0,0,0,0,0,0,0,0,0,0,0,0,0,0,0,0,0,0,0,0,0,0,0,0,0,
0,0,0,0,0,0,0,0,0,0,0,0,0,0,0,0,0,0,0,0,0,0,0,0,0,
0,0,0,0,0,0,0,0,0,0,0,0,0,0,0,0,0,0,0,0,0,0,0,0,0,
0,0,0,0,0,0,0,0,0,0,0,0,0,0,0,0,0,0,0,0,0,0,0,0,0,
0,0,0,0,0,0,0,0,0,0,0,0,0,0,0,0,0,0,0,0,0,0,0,0,0,
0,0,0,0,0,0,0,0,0,0,0,0,0,0,0,0,0,0,0,0,0,0,0,0,0,
0,0,0,0,0,0,0,0,0,0,0,0,0,0,0,0,0,0,0,0,0,0,0,0,0,
0,0,0,0,0,0,0,0,0,0,0,0,0,0,0,0,0,0,0,0,0,0,0,0,0,
0,0,0,0,0,0,0,0,0,0,0,0,0,0,0,0,0,0,0,0,0,0,0,0,0,
0,0,0,0,0,0,0,0,0,0,0,0,0,0,0,0,0,0,0,0,0,0,0,0,0,
0,0,0,0,0,0,0,0,0,0,0,0,0,0,0,0,0,0,0,0,0,0,0,0,0
</data>
 </layer>
 <layer name="BunnyExtCollision" width="25" height="23">
  <data encoding="csv">
0,0,0,0,0,0,0,0,0,0,0,0,0,0,0,0,0,0,0,0,0,0,0,0,0,
0,0,0,0,0,0,0,0,0,0,0,0,0,0,0,0,0,0,0,0,0,0,0,0,0,
0,0,0,0,0,0,0,0,0,0,0,0,0,0,0,0,0,0,0,0,0,0,0,0,0,
0,0,0,0,0,0,0,0,0,0,0,0,0,0,0,0,0,0,0,0,0,0,0,0,0,
0,0,0,0,0,0,0,0,0,0,0,0,0,0,0,0,0,0,0,0,0,0,0,0,0,
0,0,0,0,0,0,0,0,0,0,0,0,0,0,0,0,0,0,0,0,0,0,0,0,0,
0,0,0,0,0,0,0,0,0,0,0,0,0,0,0,0,0,0,0,0,0,0,0,0,0,
0,0,0,0,0,0,0,0,0,0,0,0,0,0,0,0,0,0,0,0,0,0,0,0,0,
0,0,0,0,0,0,0,0,0,0,0,0,0,0,0,0,0,0,0,0,0,0,0,0,0,
0,0,0,0,0,0,0,0,0,0,0,0,0,0,0,0,0,0,0,0,0,0,0,0,0,
0,0,0,0,0,0,0,0,0,0,0,0,0,0,0,0,0,0,0,0,0,0,0,0,0,
0,0,0,0,0,0,0,0,0,0,0,0,0,0,0,0,0,0,0,0,0,0,0,0,0,
0,0,0,0,0,0,0,0,0,0,0,0,0,0,0,0,0,0,0,0,0,0,0,0,0,
0,0,0,0,0,0,0,0,0,0,0,0,0,0,0,0,0,0,0,0,0,0,0,0,0,
0,0,0,0,0,0,0,0,0,0,0,0,0,0,0,0,0,0,0,0,0,0,0,0,0,
0,0,0,0,0,0,0,0,0,0,0,0,0,0,0,0,0,0,0,0,0,0,0,0,0,
0,0,0,0,0,0,0,0,0,0,0,0,0,0,0,0,0,0,0,0,0,0,0,0,0,
0,0,0,0,0,0,0,0,0,0,0,0,0,0,0,0,0,0,0,0,0,0,0,0,0,
0,0,0,0,0,0,0,0,0,0,0,0,0,0,0,0,0,0,0,0,0,0,0,0,0,
0,0,0,0,0,0,0,0,0,0,0,0,0,0,0,0,0,0,0,0,0,0,0,0,0,
0,0,0,0,0,0,0,0,0,0,0,0,0,0,0,0,0,0,0,0,0,0,0,0,0,
0,0,0,0,0,0,0,0,0,0,0,0,0,0,0,0,0,0,0,0,0,0,0,0,0,
0,0,0,0,0,0,0,0,0,0,0,0,0,0,0,0,0,0,0,0,0,0,0,0,0
</data>
 </layer>
</map>
