<?xml version="1.0" encoding="UTF-8"?>
<map version="1.0" tiledversion="1.1.5" orientation="orthogonal" renderorder="right-down" width="39" height="57" tilewidth="32" tileheight="32" infinite="0" nextobjectid="55">
 <properties>
  <property name="battlebg" type="file" value="../art/backgrounds/deatheggbattle.png"/>
  <property name="onload" type="file" value="actions/dream_mountain_cave5.lua"/>
 </properties>
 <tileset firstgid="1" name="knotholehut" tilewidth="32" tileheight="32" tilecount="1044" columns="29">
  <image source="../art/tiles/knotholehutinterior.png" trans="000000" width="950" height="1170"/>
 </tileset>
 <tileset firstgid="1045" source="knothole.tsx"/>
 <tileset firstgid="4529" source="robotropolis.tsx"/>
 <tileset firstgid="8029" source="cave.tsx"/>
 <tileset firstgid="10374" source="forest2.tsx"/>
 <tileset firstgid="15549" source="knotholeindoors.tsx"/>
 <layer name="floor" width="39" height="57">
  <data encoding="csv">
0,0,0,0,0,8174,8175,8174,8209,8209,8210,8174,8175,8174,8209,8209,8210,8209,8174,8174,8175,8174,8175,8174,8174,8135,8136,8209,8210,8174,8175,8174,8175,8174,8136,8175,8174,8175,8174,
0,0,8174,8175,8174,8175,8174,8175,8174,8175,8174,8175,8174,8175,8174,8175,8174,8209,8209,8171,8210,8170,8171,8209,8209,8210,8209,8210,8209,8209,8209,8209,8210,8209,8101,8210,8209,8210,8209,
0,0,8209,8210,8209,8210,8209,8210,8209,8210,8209,8210,8209,8210,8209,8175,8174,8209,8175,8174,8209,8175,8174,8209,8209,8210,8209,8210,0,0,0,0,0,0,0,0,0,0,0,
0,0,8174,8175,8174,8175,8174,8174,8175,8174,8209,8210,8174,8175,8174,8175,8174,8174,8175,8174,8175,8174,8175,8174,8175,8174,8174,0,0,0,0,0,0,0,0,0,0,0,0,
0,0,8209,8210,8209,8210,8209,8209,8100,8101,8174,8175,8209,8210,8209,8210,8209,8101,8210,8209,8210,8209,8210,8209,8210,8209,8209,0,0,0,0,0,0,0,0,0,0,0,0,
0,0,8174,8175,8174,8175,8174,8174,8135,8136,8209,8210,8174,8175,8174,8175,8174,8136,8175,8174,8175,8174,8175,8175,8174,8209,8209,0,0,0,0,0,0,0,0,0,0,0,0,
0,0,8171,8210,8170,8171,8209,8209,8210,8209,8210,8209,8209,8209,8209,8210,8209,8101,8210,8209,8210,8209,8210,8209,8210,8209,8174,0,0,0,0,0,0,0,0,0,0,0,0,
0,0,8136,8175,8174,8175,8174,8175,8175,8174,8209,8209,8175,8174,8175,8174,8174,8209,8175,8174,8209,8174,8175,8174,0,0,0,0,0,0,0,0,0,0,0,0,0,0,0,
0,0,8101,8210,8209,8210,8209,8210,8209,8210,8209,8174,8210,8209,8210,8209,8209,8175,8174,8175,8174,8175,8174,8174,8175,8174,8209,8175,8174,8209,8174,8175,8174,0,0,0,0,0,0,
0,0,8101,8210,8174,8175,8174,8175,8175,8174,8209,8175,8175,8175,8174,8209,8209,8210,8209,8210,8209,8210,8209,8209,8175,8174,8175,8174,8175,8174,8175,8174,8174,0,0,0,0,0,0,
0,0,8101,8210,8209,8210,8209,8210,8174,8175,8209,8210,8210,8209,8210,8209,8174,8175,8174,8175,8175,8174,8209,8209,8210,8209,8210,8209,8210,8209,8210,8209,8209,0,0,0,0,0,0,
0,0,8170,8171,8209,8210,8174,8175,8209,8210,8175,8174,8175,8175,8174,8209,8175,8210,8209,8210,8209,8210,8209,8174,8175,8174,8175,8174,8175,8175,8174,8209,8209,0,0,0,0,0,0,
0,0,8205,8206,8174,8175,8209,8210,8175,8174,8209,8174,8210,8174,8175,8209,8210,8175,8174,8175,8175,8174,8209,8175,8210,8209,8210,8209,8210,8209,8210,8209,8174,0,0,0,0,0,0,
0,0,8209,8210,8209,8210,8174,8175,8209,8210,8209,8209,8175,8209,8210,8175,8174,8210,8209,8210,8174,8175,8209,8210,8210,8174,8175,8174,8175,8175,8174,8209,8175,0,0,0,0,0,0,
0,0,8210,8174,8209,8210,8209,8210,8175,8174,8209,8209,8210,8175,8175,8174,8175,8174,8175,8175,8209,8210,8175,8174,8210,8209,8210,8209,8210,8174,8175,8209,8210,0,0,0,0,0,0,
0,0,8210,8209,8174,8175,8174,8210,8209,8210,8210,8175,8175,8209,8210,8209,8100,8101,8210,8210,8175,8174,8209,8174,8210,8174,8175,8174,8175,8209,8210,8175,8174,0,0,0,0,0,0,
0,0,8174,8174,8175,8174,8209,8175,8175,8174,8175,8174,8210,8175,8175,8174,8135,8136,8175,8175,8209,8210,8209,8209,8210,8100,8101,8209,8210,8175,8174,8209,8174,0,0,0,0,0,0,
8210,8209,8210,8210,8175,8175,8174,8175,8174,8209,8210,8209,8175,8174,8210,8209,8210,8209,8210,8210,8175,8174,8209,8209,8210,8174,8175,8174,8175,8209,8210,8209,8209,0,0,0,0,0,0,
8209,8210,8210,8175,8175,8174,8175,8210,8209,8174,8175,8175,8210,8209,8210,8209,8175,8175,8174,8175,8174,8175,8174,8209,8174,8209,8210,8209,8210,8175,8174,8209,8209,0,0,0,0,0,0,
8175,8174,8175,8174,8174,8209,8174,8175,8209,8210,8209,8210,8209,8210,8210,8175,8175,8174,8209,8210,8209,8210,8209,8175,8209,8174,8175,8174,8175,8174,8175,8174,8209,0,0,0,0,0,0,
8174,8209,8210,8210,8209,8210,8210,8175,8175,8175,8175,8175,8175,8174,8175,8174,8210,8209,8174,8175,8175,8174,8209,8174,8174,8175,8174,8209,8210,8209,8210,8209,8175,8175,8174,0,0,0,0,
8209,8174,8175,8175,8175,8174,8175,8174,8174,8174,8174,8175,8174,8209,8210,8209,8174,8209,8209,8210,8174,8175,8174,8209,8209,8210,8209,8174,8175,8175,8174,8209,8174,8170,8171,8209,8210,0,0,
0,0,8210,8175,8174,8209,8210,8209,8209,8209,8209,8210,8209,8174,8175,8175,8175,8174,8175,8174,8175,8174,8175,8174,8175,8174,8209,8209,8210,8174,8175,8174,8209,8205,8206,8174,8175,0,0,
0,0,8210,8210,8209,8174,8175,8175,8175,8175,8175,8175,8175,8175,8175,8209,8210,8209,8210,8209,8210,8209,8210,8209,8175,8174,8209,8175,8174,8209,8175,8174,8209,8209,8210,8209,8210,0,0,
0,0,8175,8174,8175,8174,8175,8174,8175,8174,8175,8174,8175,8174,8175,8174,8174,8175,8174,8209,8210,8174,8175,8174,8175,8174,8174,8175,8174,8175,8174,8175,8174,8175,8174,8174,0,0,0,
0,0,8210,8209,8210,8209,8210,8209,8210,8209,8210,8209,8210,8209,8210,8209,8209,8100,8101,8174,8175,8209,8210,8209,8210,8209,8101,8210,8209,8210,8209,8210,8209,8210,8209,8209,0,0,0,
0,0,8175,8174,8175,8174,8175,8174,8175,8174,8175,8174,8175,8174,8175,8174,8174,8135,8136,8209,8210,8174,8175,8174,8175,8174,8136,8175,8174,8175,8174,8175,8175,8174,8209,8209,0,0,0,
0,0,8210,8209,8210,8209,8210,8209,8210,8209,8170,8171,8210,8170,8171,8209,8209,8210,8209,8210,8209,8209,8209,8209,8210,8209,8101,8210,8209,8210,8209,8210,8209,8210,8209,8174,0,0,0,
0,0,8175,8174,8175,8174,8175,8174,8175,8174,8205,8206,8175,8205,8206,8174,8174,8175,8174,8175,8209,8209,8209,8209,8210,8209,8101,8210,8174,8175,8174,8175,8175,8174,8209,8175,8174,0,0,
0,0,8210,8209,8210,8209,8210,8209,8100,8101,8210,8209,8210,8209,8210,8209,8170,8171,8209,8210,8209,8174,8174,8209,8210,8209,8101,8175,8174,8175,8174,8175,8174,8175,8209,8210,8209,0,0,
0,0,8175,8174,8175,8174,8175,8174,8135,8136,8175,8174,8175,8174,8175,8174,8205,8206,8174,8175,8174,8209,8209,8209,8210,8209,8101,8210,8209,8100,8101,8210,8209,8210,8175,8174,8209,0,0,
0,0,8210,8209,8210,8209,8210,8209,8210,8209,8210,8209,8210,8209,8210,8209,8209,8210,8209,8210,8209,8210,8174,8209,8210,8209,8101,8175,8174,8135,8136,8175,8175,8174,8209,8174,0,0,0,
0,0,8175,8174,8175,8174,8175,8174,8175,8174,8175,8174,8175,8174,8175,8174,8174,8175,8174,8175,8209,8210,8209,8210,8209,8101,8210,8210,8209,8210,8209,8210,8209,8210,8209,8209,0,0,0,
0,0,8210,8209,8100,8101,8210,8170,8171,8209,8210,8209,8210,8209,8210,8209,8209,8210,8209,8170,8171,8175,8174,8210,8209,8101,8210,8174,8209,8210,8209,8210,8175,8174,8209,8209,8175,8174,0,
0,0,8175,8174,8135,8136,8175,8205,8206,8174,8175,8174,8175,8174,8175,8174,8174,8175,8174,8205,8206,8210,8209,8209,8101,8210,8210,8209,8174,8175,8174,8175,8174,8175,8174,8209,8210,8209,0,
0,0,8210,8209,8210,8209,8210,8209,8210,8209,8210,8209,8210,8209,8210,8209,8209,8174,8175,8210,8174,8175,8174,8209,8101,8210,8174,8174,8175,8174,8175,8174,8175,8174,8175,8175,8174,8209,0,
0,0,8175,8174,8170,8171,8175,8174,8175,8174,8175,8174,8175,8174,8175,8174,8174,8175,8174,8209,8209,8209,8210,8174,8175,8174,8209,8209,8210,8209,8210,8209,8100,8101,8210,0,0,0,0,
0,0,8210,8209,8205,8206,8210,8209,8210,8209,8174,8175,8174,8175,8174,8175,8174,8209,8209,8209,8209,8174,8175,8209,8210,8209,8174,8175,8174,8209,8175,8174,8135,8136,8175,0,0,0,0,
0,0,8175,8174,8175,8174,8175,8174,8175,8174,8209,8210,8174,8175,8209,8175,8174,8175,8174,8175,8174,8209,8210,8174,8174,8175,8174,8174,8174,8175,8210,8209,8210,8209,8210,0,0,0,0,
0,0,0,0,8210,8209,8210,8209,8174,8175,8174,8175,8174,8175,8175,8174,8175,8174,8175,8174,8175,8174,8209,8209,8209,8210,8209,8174,8175,8174,8210,8209,8174,8175,8174,0,0,0,0,
0,0,0,0,8175,8174,8175,8174,8175,8174,8175,8174,8175,8174,8174,8175,8174,8175,8174,8175,8174,8209,8209,8209,8175,8174,8209,8209,8210,8209,8174,8175,8209,8210,8209,0,0,0,0,
0,0,0,0,8210,8209,8210,11839,11561,12107,12107,12107,12107,12107,12107,12107,12107,12107,12107,11561,11839,8210,8209,8209,8210,8174,8175,8175,8174,8209,8209,8210,8175,8174,8209,0,0,0,0,
0,0,0,0,8175,8174,11839,12385,12386,12385,12386,12385,12386,12385,12386,12385,12386,12385,12386,12385,12386,11839,8174,8209,8210,8174,8175,8174,8174,8175,8174,8175,0,0,0,0,0,0,0,
0,0,0,0,8100,8101,12107,11759,12319,12319,12319,12319,12319,12319,12319,12319,12319,12319,12319,12319,11760,12107,8209,8209,8210,8209,8210,8209,8210,8210,8209,8210,0,0,0,0,0,0,0,
0,0,0,0,8135,8136,12107,11622,11690,11690,11690,11690,11690,11690,11691,11691,11691,11691,11691,11691,11760,12107,8174,8209,8209,8175,8174,8209,8174,8174,8175,8174,0,0,0,0,0,0,0,
0,0,0,0,8210,12319,12319,12460,12460,12460,12460,12460,12460,12460,12460,12460,12460,12460,12460,12460,12460,12319,8174,8174,8174,8174,8209,8209,8209,8209,8210,8209,0,0,0,0,0,0,0,
0,0,0,0,8175,12319,12319,12319,12319,12319,12319,12319,12319,12319,12319,12319,12319,12319,12319,12319,12319,12319,8209,8210,8175,8174,8174,8174,8174,8174,8175,8174,0,0,0,0,0,0,0,
0,0,0,0,8210,8209,8210,8209,8210,8209,8209,8210,8209,8209,8210,8209,8210,8209,8210,8209,8210,8209,8210,8209,8210,8209,8210,8209,8210,8209,8210,8209,0,0,0,0,0,0,0,
0,0,0,0,8175,8174,8175,8174,8175,8174,8174,8175,8174,8174,8175,8174,8175,8174,8175,8174,8209,8210,8175,8174,8175,8174,8174,8209,8210,8174,8175,8174,0,0,0,0,0,0,0,
0,0,0,0,8210,8209,8210,8174,8209,8210,8210,8209,8210,8209,8210,8209,8100,8101,8210,8209,8210,8209,8210,8209,8210,8209,8209,8210,8174,8209,8210,8209,0,0,0,0,0,0,0,
0,0,0,0,8175,8174,8175,8209,8210,8209,8175,8174,8175,8174,8175,8174,8135,8136,8175,8174,8175,8174,8175,8174,8175,8174,8174,8175,8209,8210,8209,8174,0,0,0,0,0,0,0,
0,0,0,0,8210,8209,8210,8174,8175,8174,8210,8209,8210,8209,8210,8209,8210,8209,8210,8209,8210,8209,8210,8209,8100,8101,8210,8209,8174,8175,8174,8209,0,0,0,0,0,0,0,
0,0,0,0,8175,8174,8175,8174,8175,8174,8175,8174,8175,8174,8175,8174,8175,8174,8175,8174,8175,8174,8175,8174,8135,8136,8175,8174,8175,8174,8175,8174,0,0,0,0,0,0,0,
0,0,0,0,8100,8101,8210,8170,8171,8209,8210,8209,8210,8209,8210,8209,8210,8174,8209,8210,8210,8209,8210,8209,8210,8209,8210,8209,8210,8209,8210,8209,0,0,0,0,0,0,0,
0,0,0,0,8135,8136,8175,8205,8206,8174,8175,8174,8175,8174,8175,8174,8175,8209,8210,8209,8175,8174,8175,8174,8175,8174,8175,8174,8175,8174,8175,8174,0,0,0,0,0,0,0,
0,0,0,0,8210,8209,8210,8209,8210,8209,8210,8209,8210,8209,8210,8209,8100,8174,8175,8174,8101,8209,8210,0,0,0,0,0,0,0,0,0,0,0,0,0,0,0,0,
0,0,0,0,8175,8174,8175,8174,8175,8174,8175,8174,8175,8174,8175,8174,8135,8136,8175,8135,8136,8174,8175,0,0,0,0,0,0,0,0,0,0,0,0,0,0,0,0
</data>
 </layer>
 <layer name="shadowfloor" width="39" height="57" opacity="0.5">
  <data encoding="csv">
0,0,0,0,0,0,0,0,0,0,0,0,0,0,0,0,0,0,0,0,0,0,0,0,0,0,0,0,0,0,0,0,0,0,0,0,0,0,0,
0,0,0,0,0,0,0,0,0,0,0,0,0,0,0,0,0,0,0,0,0,0,0,0,0,0,0,0,0,0,0,0,0,0,0,0,0,0,0,
0,0,0,0,0,0,0,0,0,0,0,0,0,0,0,0,0,0,0,0,0,0,0,0,0,0,0,0,0,0,0,0,0,0,0,0,0,0,0,
0,0,0,0,0,0,0,0,0,0,0,0,0,0,0,0,0,0,0,0,0,0,0,0,0,0,0,0,0,0,0,0,0,0,0,0,0,0,0,
0,0,0,0,0,0,0,0,0,0,0,0,0,0,0,0,0,0,0,0,0,0,0,0,0,0,0,0,0,0,0,0,0,0,0,0,0,0,0,
0,0,0,0,0,0,0,0,0,0,0,0,0,0,0,0,0,0,0,0,0,0,0,0,0,0,0,0,0,0,0,0,0,0,0,0,0,0,0,
0,0,0,0,0,0,0,0,0,0,0,0,0,0,0,0,0,0,0,0,0,0,0,0,0,0,0,0,0,0,0,0,0,0,0,0,0,0,0,
0,0,0,0,0,0,0,0,0,0,0,0,0,0,0,0,0,0,0,0,0,0,0,0,0,0,0,0,0,0,0,0,0,0,0,0,0,0,0,
0,0,0,0,0,0,0,0,0,0,0,0,0,0,0,0,0,0,0,0,0,0,0,0,0,0,0,0,0,0,0,0,0,0,0,0,0,0,0,
0,0,0,0,0,0,0,0,0,0,0,0,0,0,0,0,0,0,0,0,0,0,0,0,0,0,0,0,0,0,0,0,0,0,0,0,0,0,0,
0,0,0,0,0,0,0,0,0,0,0,0,0,0,0,0,0,0,0,0,0,0,0,0,0,0,0,0,0,0,0,0,0,0,0,0,0,0,0,
0,0,0,0,0,0,0,0,0,0,0,0,0,0,0,0,0,0,0,0,0,0,0,0,0,0,0,0,0,0,0,0,0,0,0,0,0,0,0,
0,0,0,0,0,0,0,0,0,0,0,0,0,0,0,0,0,0,0,0,0,0,0,0,0,0,0,0,0,0,0,0,0,0,0,0,0,0,0,
0,0,0,0,0,0,0,0,0,0,0,0,0,0,0,0,0,0,0,0,0,0,0,0,0,0,0,0,0,0,0,0,0,0,0,0,0,0,0,
0,0,0,0,0,0,0,0,0,0,0,0,0,0,0,0,0,0,0,0,0,0,0,0,0,0,0,0,0,0,0,0,0,0,0,0,0,0,0,
0,0,0,0,0,0,0,0,0,0,0,0,0,0,0,0,0,0,0,0,0,0,0,0,0,0,0,0,0,0,0,0,0,0,0,0,0,0,0,
0,0,0,0,0,0,0,0,0,0,0,0,0,0,0,0,0,0,0,0,0,0,0,0,0,0,0,0,0,0,0,0,0,0,0,0,0,0,0,
0,0,0,0,0,0,0,0,0,0,0,0,0,0,0,0,0,0,0,0,0,0,0,0,0,0,0,0,0,0,0,0,0,0,0,0,0,0,0,
0,0,0,0,0,0,0,0,0,0,0,0,0,0,0,0,0,0,0,0,0,0,0,0,0,0,0,0,0,0,0,0,0,0,0,0,0,0,0,
0,0,0,0,0,0,0,0,0,0,0,0,0,0,0,0,0,0,0,0,0,0,0,0,0,0,0,0,0,0,0,0,0,0,0,0,0,0,0,
0,0,0,0,0,0,0,0,0,0,0,0,0,0,0,0,0,0,0,0,0,0,0,0,0,0,0,0,0,0,0,0,0,0,0,0,0,0,0,
0,0,0,0,0,0,0,0,0,0,0,0,0,0,0,0,0,0,0,0,0,0,0,0,0,0,0,0,0,0,0,0,0,0,0,0,0,0,0,
0,0,0,0,0,0,0,0,0,0,0,0,0,0,0,0,0,0,0,0,0,0,0,0,0,0,0,0,0,0,0,0,0,0,0,0,0,0,0,
0,0,0,0,0,0,0,0,0,0,0,0,0,0,0,0,0,0,0,0,0,0,0,0,0,0,0,0,0,0,0,0,0,0,0,0,0,0,0,
0,0,0,0,0,0,0,0,0,0,0,0,0,0,0,0,0,0,0,0,0,0,0,0,0,0,0,0,0,0,0,0,0,0,0,0,0,0,0,
0,0,0,0,0,0,0,0,0,0,0,0,0,0,0,0,0,0,0,0,0,0,0,0,0,0,0,0,0,0,0,0,0,0,0,0,0,0,0,
0,0,0,0,0,0,0,0,0,0,0,0,0,0,0,0,0,0,0,0,0,0,0,0,0,0,0,0,0,0,0,0,0,0,0,0,0,0,0,
0,0,0,0,0,0,0,0,0,0,0,0,0,0,0,0,0,0,0,0,0,0,0,0,0,0,0,0,0,0,0,0,0,0,0,0,0,0,0,
0,0,0,0,0,0,0,0,0,0,0,0,0,0,0,0,0,0,0,0,0,0,0,0,0,0,0,0,0,0,0,0,0,0,0,0,0,0,0,
0,0,0,0,0,0,0,0,0,0,0,0,0,0,0,0,0,0,0,0,0,0,0,0,0,0,0,0,0,0,0,0,0,0,0,0,0,0,0,
0,0,0,0,0,0,0,0,0,0,0,0,0,0,0,0,0,0,0,0,0,0,0,0,0,0,0,0,0,0,0,0,0,0,0,0,0,0,0,
0,0,0,0,0,0,0,0,0,0,0,0,0,0,0,0,0,0,0,0,0,0,0,0,0,0,0,0,0,0,0,0,0,0,0,0,0,0,0,
0,0,0,0,0,0,0,0,0,0,0,0,0,0,0,0,0,0,0,0,0,0,0,0,0,0,0,0,0,0,0,0,0,0,0,0,0,0,0,
0,0,0,0,0,0,0,0,0,0,0,0,0,0,0,0,0,0,0,0,0,0,0,0,0,0,0,0,0,0,0,0,0,0,0,0,0,0,0,
0,0,0,0,0,0,0,0,0,0,0,0,0,0,0,0,0,0,0,0,0,0,0,0,0,0,0,0,0,0,0,0,0,0,0,0,0,0,0,
0,0,0,0,0,0,0,0,0,0,0,0,0,0,0,0,0,0,0,0,0,0,0,0,0,0,0,0,0,0,0,0,0,0,0,0,0,0,0,
0,0,0,0,0,0,0,0,0,0,0,0,0,0,0,0,0,0,0,0,0,0,0,0,0,0,0,0,0,0,0,0,0,0,0,0,0,0,0,
0,0,0,0,0,0,0,0,0,0,0,0,0,0,0,0,0,0,0,0,0,0,0,0,0,0,0,0,0,0,0,0,0,0,0,0,0,0,0,
0,0,0,0,0,0,0,0,0,0,0,0,0,0,0,0,0,0,0,0,0,0,0,0,0,0,0,0,0,0,0,0,0,0,0,0,0,0,0,
0,0,0,0,0,0,0,0,0,0,0,0,0,0,0,0,0,0,0,0,0,0,0,0,0,0,0,0,0,0,0,0,0,0,0,0,0,0,0,
0,0,0,0,0,0,0,0,8626,0,0,0,0,0,0,0,0,0,0,8628,0,0,0,0,0,0,0,0,0,0,0,0,0,0,0,0,0,0,0,
0,0,0,0,0,0,0,8626,8627,8627,8627,8627,8627,8627,8627,8627,8627,8627,8627,8627,8628,0,0,0,0,0,0,0,0,0,0,0,0,0,0,0,0,0,0,
0,0,0,0,0,0,8626,0,0,0,0,0,0,0,0,0,0,0,0,0,0,8628,0,0,0,0,0,0,0,0,0,0,0,0,0,0,0,0,0,
0,0,0,0,0,0,0,0,0,0,0,0,0,0,0,0,0,0,0,0,0,0,0,0,0,0,0,0,0,0,0,0,0,0,0,0,0,0,0,
0,0,0,0,0,0,0,0,0,0,0,0,0,0,0,0,0,0,0,0,0,0,8663,0,0,0,0,0,0,0,0,0,0,0,0,0,0,0,0,
0,0,0,0,0,0,0,0,0,0,0,0,0,0,0,0,0,0,0,0,0,0,0,0,0,0,0,0,0,0,0,0,0,0,0,0,0,0,0,
0,0,0,0,0,0,8661,8664,0,0,0,0,0,0,0,0,0,0,0,0,8665,8663,0,0,0,0,0,0,0,0,0,0,0,0,0,0,0,0,0,
0,0,0,0,0,0,0,8629,8630,8630,8629,8630,8629,8630,8629,8630,8630,8629,8630,8630,0,0,0,0,0,0,0,0,0,0,0,0,0,0,0,0,0,0,0,
0,0,0,0,0,0,0,0,0,0,0,0,0,0,0,0,0,0,0,0,0,0,0,0,0,0,0,0,0,0,0,0,0,0,0,0,0,0,0,
0,0,0,0,0,0,0,0,0,0,0,0,0,0,0,0,0,0,0,0,0,0,0,0,0,0,0,0,0,0,0,0,0,0,0,0,0,0,0,
0,0,0,0,0,0,0,0,0,0,0,0,0,0,0,0,0,0,0,0,0,0,0,0,0,0,0,0,0,0,0,0,0,0,0,0,0,0,0,
0,0,0,0,0,0,0,0,0,0,0,0,0,0,0,0,0,0,0,0,0,0,0,0,0,0,0,0,0,0,0,0,0,0,0,0,0,0,0,
0,0,0,0,0,0,0,0,0,0,0,0,0,0,0,0,0,0,0,0,0,0,0,0,0,0,0,0,0,0,0,0,0,0,0,0,0,0,0,
0,0,0,0,0,0,0,0,0,0,0,0,0,0,0,0,0,0,0,0,0,0,0,0,0,0,0,0,0,0,0,0,0,0,0,0,0,0,0,
0,0,0,0,0,0,0,0,0,0,0,0,0,0,0,0,0,0,0,0,0,0,0,0,0,0,0,0,0,0,0,0,0,0,0,0,0,0,0,
0,0,0,0,0,0,0,0,0,0,0,0,0,0,0,0,0,0,0,0,0,0,0,0,0,0,0,0,0,0,0,0,0,0,0,0,0,0,0,
0,0,0,0,0,0,0,0,0,0,0,0,0,0,0,0,0,0,0,0,0,0,0,0,0,0,0,0,0,0,0,0,0,0,0,0,0,0,0
</data>
 </layer>
 <layer name="above" width="39" height="57">
  <data encoding="csv">
0,0,0,8359,8360,0,0,0,0,0,0,0,0,0,0,0,0,0,0,0,0,0,0,0,0,0,0,0,0,0,0,0,0,0,0,0,0,0,0,
0,0,0,8394,8395,0,0,0,0,0,0,0,0,0,0,0,0,0,0,0,0,0,0,0,0,0,0,0,0,0,0,0,0,0,0,0,0,0,0,
0,0,0,8429,8430,0,0,0,0,0,8215,8216,0,0,0,8733,0,0,0,8734,0,0,0,0,0,0,0,0,0,0,0,0,0,0,0,0,0,0,0,
0,0,0,0,0,0,0,0,0,0,8250,8251,8252,8253,8252,8873,8874,8874,8874,8875,8252,8253,8254,0,0,0,0,0,0,0,0,0,0,0,0,0,0,0,0,
0,0,0,0,0,0,0,0,0,0,8254,8255,8287,8288,8287,8908,8909,8909,8909,8910,8287,8288,8289,8215,0,0,0,0,0,0,0,0,0,0,0,0,0,0,0,
0,0,0,0,0,0,0,0,0,8220,8289,8290,8322,8323,8322,8943,8944,8944,8944,8945,8322,8323,8324,8250,8251,8252,8253,0,0,0,0,0,0,0,0,0,0,0,0,
0,0,0,0,0,0,0,0,8254,8255,8324,8325,8357,8358,8357,8873,8874,8874,8874,8875,8357,8358,8359,8285,8286,8287,8288,0,0,0,0,0,0,0,0,0,0,0,0,
0,0,0,0,0,0,0,8220,8289,8290,8359,8360,8392,8393,8392,8908,8909,8909,8909,8910,8392,8393,8394,8320,8321,8322,8323,0,0,0,0,0,0,0,0,0,0,0,0,
0,0,0,0,0,8220,8254,8255,8324,8325,8394,8395,8427,8428,8427,8943,8944,8944,8944,8945,8427,8428,8429,8355,8356,8357,8358,8251,8252,8253,0,0,0,0,0,0,0,0,0,
0,0,0,0,8254,8255,8289,8290,8359,8360,8429,8430,0,0,0,0,0,0,0,0,0,0,0,8390,8391,8392,8393,8286,8287,8288,0,0,0,0,0,0,0,0,0,
0,0,0,0,8289,8290,8324,8325,8394,8395,0,0,0,0,0,0,0,0,0,0,0,0,0,8425,8426,8427,8428,8321,8322,8323,0,0,0,0,0,0,0,0,0,
0,0,0,0,8324,8325,8359,8360,8429,8430,0,0,0,0,0,0,0,0,0,0,0,0,0,0,0,0,8355,8356,8357,8358,8251,8252,8253,0,0,0,0,0,0,
0,0,0,0,8359,8360,8394,8395,0,0,0,0,0,0,0,0,0,0,0,0,0,0,0,0,0,0,8390,8391,8392,8393,8286,8287,8288,0,0,0,0,0,0,
0,0,0,0,8394,8395,8429,8430,0,0,0,0,0,0,0,0,0,0,0,0,0,0,0,0,0,0,8425,8426,8427,8428,8321,8322,8323,0,0,0,0,0,0,
0,0,0,0,8429,8430,0,0,0,0,0,0,0,0,0,0,0,0,0,0,0,0,0,0,0,0,0,0,0,8355,8356,8357,8358,8215,8216,0,0,0,0,
0,0,0,0,0,0,0,0,0,0,0,0,0,0,0,0,0,0,0,0,0,0,0,0,0,0,0,0,0,8390,8391,8392,8393,8250,8251,0,0,0,0,
0,0,0,0,0,0,0,0,0,0,0,0,0,0,0,0,0,0,0,0,0,0,0,0,0,0,0,0,0,8425,8426,8427,8428,8285,8286,0,0,0,0,
0,0,0,0,0,0,0,0,0,0,0,0,0,0,0,0,0,0,0,0,0,0,0,0,0,0,0,0,0,0,0,0,8355,8320,8321,8215,8216,0,0,
0,0,0,0,0,0,0,0,0,0,0,0,0,0,0,0,0,0,0,0,0,0,0,0,0,0,0,0,0,0,0,0,0,8355,8356,8250,8251,0,0,
0,0,0,0,0,0,0,0,0,0,0,0,0,0,0,0,0,0,0,0,0,0,0,0,0,0,0,0,0,0,0,0,0,8390,8391,8285,8286,0,0,
0,0,0,0,0,0,0,0,0,0,0,0,0,0,0,0,0,0,0,0,0,0,0,0,0,0,0,0,0,0,0,0,0,8425,8426,8320,8321,0,0,
0,0,0,0,0,0,0,0,0,0,0,0,0,0,0,0,0,0,0,0,0,0,0,0,0,0,0,0,0,0,0,0,0,0,0,8355,8356,0,0,
0,0,8066,8066,0,0,0,0,0,0,0,0,0,0,0,0,0,0,0,0,0,0,0,0,0,0,0,0,0,0,0,0,0,0,0,8390,8391,0,0,
0,0,8066,8066,0,8254,0,0,0,0,0,0,0,0,0,0,0,0,0,0,0,8220,0,0,0,0,0,0,0,0,0,0,0,0,0,8425,8426,0,0,
0,0,8066,8066,0,8289,8254,8251,8252,8253,8252,8253,8253,8252,8253,8252,8253,8253,8252,8253,8254,8215,8216,0,0,0,0,0,0,0,0,0,0,0,0,0,8351,8352,0,
0,0,8066,8254,8255,8324,8255,8286,8287,8288,8287,8288,8288,8287,8288,8287,8288,8288,8287,8288,8289,8250,8251,0,0,0,0,0,0,0,0,0,0,0,0,0,8386,8387,0,
0,0,8066,8289,8290,8359,8290,8321,8322,8323,8322,8323,8323,8322,8323,8322,8323,8323,8322,8323,8324,8285,8286,8215,8216,0,0,8873,8874,8874,8874,8874,8874,8874,8874,8875,8421,8422,0,
0,0,8066,8324,8325,8394,8325,8356,8357,8358,8357,8358,8358,8357,8358,8357,8358,8358,8357,8358,8359,8320,8321,8250,8251,8252,8253,8908,8909,8909,8909,8909,8909,8909,8909,8910,8456,8457,0,
0,0,8066,8359,8360,8429,8360,8391,8392,8393,8392,8393,8393,8392,8393,8392,8393,8393,8392,8393,8394,8355,8356,8285,8286,8287,8288,8943,8944,8944,8944,8944,8944,8944,8944,8945,8491,8492,0,
0,0,8066,8394,8395,0,8395,8426,8427,8428,8427,8428,8428,8427,8428,8427,8428,8428,8427,8428,8429,8390,8391,8320,8321,8322,8323,8873,8874,8874,8874,8874,8874,8874,8874,8875,8526,8527,0,
0,0,8066,8429,8430,0,8430,0,0,0,0,0,0,0,0,0,0,0,0,0,0,8425,8426,8355,8356,8357,8358,8908,8909,8909,8909,8909,8909,8909,8909,8910,8351,8352,0,
0,0,8066,8066,8430,0,0,0,0,0,0,0,0,0,0,0,0,0,0,0,0,0,0,8390,8391,8392,8393,8943,8944,8944,8944,8944,8944,8944,8944,8945,8386,8387,0,
0,0,8066,8066,0,0,0,0,0,0,0,0,0,0,0,0,0,0,0,0,0,0,0,8425,8426,8427,8428,0,0,0,0,0,0,0,0,0,8421,8422,0,
0,0,8066,8066,0,0,0,0,0,0,0,0,0,0,0,0,0,0,0,0,0,0,0,0,0,0,0,0,0,0,0,0,0,0,0,0,8456,8457,0,
0,0,8066,8066,0,0,0,0,0,0,0,0,0,0,0,0,0,0,0,0,0,0,0,0,0,0,0,0,0,0,0,0,0,0,0,0,8491,8492,0,
0,0,8066,8066,0,0,0,0,0,0,0,0,0,0,0,0,0,0,0,0,0,0,0,0,0,0,0,0,0,0,0,0,0,0,0,0,8526,8527,0,
0,0,8066,8066,0,0,0,0,0,0,0,0,0,0,0,8174,0,0,0,0,0,0,0,0,0,0,0,0,0,0,0,0,0,0,0,0,0,0,0,
0,0,8066,8066,0,0,0,0,0,0,0,0,0,0,0,0,0,0,0,0,0,0,0,0,0,0,0,0,0,0,0,0,0,0,0,0,0,0,0,
0,0,8066,8066,0,0,0,0,0,0,0,0,0,0,0,0,0,0,0,0,0,0,0,0,0,0,0,0,0,0,0,0,0,0,0,0,0,0,0,
0,0,8066,8066,0,0,0,0,0,0,0,0,0,0,0,0,0,0,0,0,0,0,0,0,0,0,0,0,0,0,0,0,0,0,0,0,0,0,0,
0,0,8066,8066,0,0,0,0,0,0,0,0,0,0,0,0,0,0,0,0,0,0,0,0,0,0,0,0,0,0,0,0,0,0,0,0,0,0,0,
0,0,8066,8066,0,0,0,0,0,0,0,0,0,0,0,0,0,0,0,0,0,0,0,0,0,0,0,0,0,0,0,0,0,0,0,0,0,0,0,
0,0,8066,8066,0,0,0,0,0,0,0,0,0,0,0,0,0,0,0,0,0,0,0,0,0,0,0,0,0,0,0,0,0,0,0,0,0,0,0,
0,0,8066,8066,0,0,0,0,0,0,0,0,0,0,0,0,0,0,0,0,0,0,0,0,0,0,0,0,0,0,0,0,0,0,0,0,0,0,0,
0,0,8066,8066,0,0,0,0,0,0,0,0,0,0,0,0,0,0,0,0,0,0,0,0,0,0,0,0,0,0,0,0,0,0,0,0,0,0,0,
0,0,8066,8066,0,0,0,0,0,0,0,0,0,0,0,0,0,0,0,0,0,0,0,0,0,0,0,0,0,0,0,0,0,0,0,0,0,0,0,
0,0,8066,8066,0,0,0,0,0,0,0,0,0,0,0,0,0,0,0,0,0,0,0,0,0,0,0,0,0,0,0,0,0,0,0,0,0,0,0,
0,0,8066,8066,0,0,0,0,0,0,0,0,0,0,0,0,0,0,0,0,0,0,0,0,0,0,0,0,0,0,0,0,0,0,0,0,0,0,0,
0,0,8066,8066,0,0,0,0,0,0,0,0,0,0,0,0,0,0,0,0,0,0,0,8066,8066,0,0,0,0,0,0,0,0,0,0,0,0,0,0,
0,0,8066,8066,0,0,0,0,0,0,0,0,0,0,0,0,0,0,0,0,0,0,0,8066,8066,0,0,0,0,0,0,0,0,0,0,0,0,0,0,
0,0,8066,8066,0,0,0,0,0,0,0,0,0,0,0,0,0,0,0,0,0,0,0,8066,8066,0,0,0,0,0,0,0,0,0,0,0,0,0,0,
0,0,8066,8066,9219,0,0,0,0,0,0,0,0,0,0,0,0,0,0,0,0,0,9220,8066,8066,0,0,0,0,0,0,0,0,0,0,0,0,0,0,
0,0,8066,8066,8066,0,0,0,0,0,0,0,0,0,0,0,0,0,0,0,0,0,8066,8066,8066,0,0,0,0,0,0,0,0,0,0,0,0,0,0,
0,0,8066,8066,8066,9219,0,0,0,0,0,0,0,0,0,0,0,0,0,0,0,9220,8066,8066,8066,0,0,0,0,0,0,0,0,0,0,0,0,0,0,
0,0,8066,8066,8066,8066,9219,0,0,0,0,0,0,0,0,0,0,0,0,0,9220,8066,8066,8066,8066,0,0,0,0,0,0,0,0,0,0,0,0,0,0,
0,0,8066,8066,8066,8066,8066,8066,8066,8066,8066,8066,0,0,0,8066,8066,8066,8066,8066,8066,8066,8066,8066,8066,0,0,0,0,0,0,0,0,0,0,0,0,0,0,
0,0,8066,8066,8066,8066,8066,8066,8066,8066,8066,8066,0,0,0,8066,8066,8066,8066,8066,8066,8066,8066,8066,8066,0,0,0,0,0,0,0,0,0,0,0,0,0,0
</data>
 </layer>
 <layer name="above2" width="39" height="57">
  <data encoding="csv">
0,0,0,0,0,0,0,0,0,0,0,0,0,0,0,0,0,0,0,0,0,0,0,0,0,0,0,0,0,0,0,0,0,0,0,0,0,0,0,
0,0,0,0,0,0,0,0,0,0,0,0,0,0,0,0,0,0,0,0,0,0,0,0,0,0,0,0,0,0,0,0,0,0,0,0,0,0,0,
0,0,0,0,0,0,0,0,0,0,0,0,0,0,0,0,0,0,0,0,0,0,0,0,0,0,0,0,0,0,0,0,0,0,0,0,0,0,0,
0,0,0,0,0,0,0,0,0,0,0,0,0,0,0,0,0,0,0,0,0,0,0,0,0,0,0,0,0,0,0,0,0,0,0,0,0,0,0,
0,0,0,0,0,0,0,0,0,0,0,0,0,0,0,0,0,0,0,0,0,0,0,0,0,0,0,0,0,0,0,0,0,0,0,0,0,0,0,
0,0,0,0,0,0,0,0,0,0,0,0,0,0,0,0,0,0,0,0,0,0,0,0,0,0,0,0,0,0,0,0,0,0,0,0,0,0,0,
0,0,0,0,0,0,0,0,0,0,0,0,0,0,0,0,0,0,0,0,0,0,0,0,0,0,0,0,0,0,0,0,0,0,0,0,0,0,0,
0,0,0,0,0,0,0,0,0,0,0,0,0,0,0,0,0,0,0,0,0,0,0,0,0,0,0,0,0,0,0,0,0,0,0,0,0,0,0,
0,0,0,0,0,0,0,0,0,0,0,0,0,0,0,0,0,0,0,0,0,0,0,0,0,0,0,0,0,0,0,0,0,0,0,0,0,0,0,
0,0,0,0,0,0,0,0,0,0,0,0,0,0,0,0,0,0,0,0,0,0,0,0,0,0,0,0,0,0,0,0,0,0,0,0,0,0,0,
0,0,0,0,0,0,0,0,0,0,0,0,0,0,0,0,0,0,0,0,0,0,0,0,0,0,0,0,0,0,0,0,0,0,0,0,0,0,0,
0,0,0,0,0,0,0,0,0,0,0,0,0,0,0,0,0,0,0,0,0,0,0,0,0,0,0,0,0,0,0,0,0,0,0,0,0,0,0,
0,0,0,0,0,0,0,0,0,0,0,0,0,0,0,0,0,0,0,0,0,0,0,0,0,0,0,0,0,0,0,0,0,0,0,0,0,0,0,
0,0,0,0,0,0,0,0,0,0,0,0,0,0,0,0,0,0,0,0,0,0,0,0,0,0,0,0,0,0,0,0,0,0,0,0,0,0,0,
0,0,0,0,0,0,0,0,0,0,0,0,0,0,0,0,0,0,0,0,0,0,0,0,0,0,0,0,0,0,0,0,0,0,0,0,0,0,0,
0,0,0,0,0,0,0,0,0,0,0,0,0,0,0,0,0,0,0,0,0,0,0,0,0,0,0,0,0,0,0,0,0,0,0,0,0,0,0,
0,0,0,0,0,0,0,0,0,0,0,0,0,0,0,0,0,0,0,0,0,0,0,0,0,0,0,0,0,0,0,0,0,0,0,0,0,0,0,
0,0,0,0,0,0,0,0,0,0,0,0,0,0,0,0,0,0,0,0,0,0,0,0,0,0,0,0,0,0,0,0,0,0,0,0,0,0,0,
0,0,0,0,0,0,0,0,0,0,0,0,0,0,0,0,0,0,0,0,0,0,0,0,0,0,0,0,0,0,0,0,0,0,0,0,0,0,0,
0,0,0,0,0,0,0,0,0,0,0,0,0,0,0,0,0,0,0,0,0,0,0,0,0,0,0,0,0,0,0,0,0,0,0,0,0,0,0,
0,0,0,0,0,0,0,0,0,0,0,0,0,0,0,0,0,0,0,0,0,0,0,0,0,0,0,0,0,0,0,0,0,0,0,0,0,0,0,
0,0,0,0,0,0,0,0,0,0,0,0,0,0,0,0,0,0,0,0,0,0,0,0,0,0,0,0,0,0,0,0,0,0,0,0,0,0,0,
0,0,0,0,0,0,0,0,0,0,0,0,0,0,0,0,0,0,0,0,0,0,0,0,0,0,0,0,0,0,0,0,0,0,0,0,0,0,0,
0,0,0,0,0,0,0,0,0,0,0,0,0,0,0,0,0,0,0,0,0,0,0,0,0,0,0,0,0,0,0,0,0,0,0,0,0,0,0,
0,0,0,0,0,0,0,0,0,0,0,0,0,0,0,0,0,0,0,0,0,0,0,0,0,0,0,0,0,0,0,0,0,0,0,0,0,0,0,
0,0,0,0,0,0,0,0,0,0,0,0,0,0,0,0,0,0,0,0,0,0,0,0,0,0,0,0,0,0,0,0,0,0,0,0,0,0,0,
0,0,0,0,0,0,0,0,0,0,0,0,0,0,0,0,0,0,0,0,0,0,0,0,0,0,0,0,0,0,0,0,0,0,0,0,0,0,0,
0,0,0,0,0,0,0,0,0,0,0,0,0,0,0,0,0,0,0,0,0,0,0,0,0,0,0,0,0,0,0,0,0,0,0,0,0,0,0,
0,0,0,0,0,0,0,0,0,0,0,0,0,0,0,0,0,0,0,0,0,0,0,0,0,0,0,0,0,0,0,0,0,0,0,0,0,0,0,
0,0,0,0,0,0,0,0,0,0,0,0,0,0,0,0,0,0,0,0,0,0,0,0,0,0,0,0,0,0,0,0,0,0,0,0,0,0,0,
0,0,0,0,0,0,0,0,0,0,0,0,0,0,0,0,0,0,0,0,0,0,0,0,0,0,0,0,0,0,0,0,0,0,0,0,0,0,0,
0,0,0,0,0,0,0,0,0,0,0,0,0,0,0,0,0,0,0,0,0,0,0,0,0,0,0,0,0,0,0,0,0,0,0,0,0,0,0,
0,0,0,0,0,0,0,0,0,0,0,0,0,0,0,0,0,0,0,0,0,0,0,0,0,0,0,0,0,0,0,0,0,0,0,0,0,0,0,
0,0,0,0,0,0,0,0,0,0,0,0,0,0,0,0,0,0,0,0,0,0,0,0,0,0,0,0,0,0,0,0,0,0,0,0,0,0,0,
0,0,0,0,0,0,0,0,0,0,0,0,0,0,0,0,0,0,0,0,0,0,0,0,0,0,0,0,0,0,0,0,0,0,0,0,0,0,0,
0,0,0,0,0,0,0,0,0,0,0,0,0,0,0,0,0,0,0,0,0,0,0,0,0,0,0,0,0,0,0,0,0,0,0,0,0,0,0,
0,0,0,0,0,0,0,0,0,0,0,0,0,0,0,0,0,0,0,0,0,0,0,0,0,0,0,0,0,0,0,0,0,0,0,0,0,0,0,
0,0,0,0,0,0,0,0,0,0,0,0,0,0,0,0,0,0,0,0,0,0,0,0,0,0,0,0,0,0,0,0,0,0,0,0,0,0,0,
0,0,0,0,0,0,0,0,0,0,0,0,0,0,0,0,0,0,0,0,0,0,0,0,0,0,0,0,0,0,0,0,0,0,0,0,0,0,0,
0,0,0,0,0,0,0,0,0,0,0,0,0,0,0,0,0,0,0,0,0,0,0,0,0,0,0,0,0,0,0,0,0,0,0,0,0,0,0,
0,0,0,0,0,0,0,0,0,0,0,0,0,0,0,0,0,0,0,0,0,0,0,0,0,0,0,0,0,0,0,0,0,0,0,0,0,0,0,
0,0,0,0,0,0,0,0,0,0,0,0,0,0,0,0,0,0,0,0,0,0,0,0,0,0,0,0,0,0,0,0,0,0,0,0,0,0,0,
0,0,0,0,0,0,0,0,0,0,0,0,0,0,0,0,0,0,0,0,0,0,0,0,0,0,0,0,0,0,0,0,0,0,0,0,0,0,0,
0,0,0,0,0,0,0,0,0,0,0,0,0,0,0,0,0,0,0,0,0,0,0,0,0,0,0,0,0,0,0,0,0,0,0,0,0,0,0,
0,0,0,0,0,0,0,0,0,0,0,0,0,0,0,0,0,0,0,0,0,0,0,0,0,0,0,0,0,0,0,0,0,0,0,0,0,0,0,
0,0,0,0,0,0,0,0,0,0,0,0,0,0,0,0,0,0,0,0,0,0,0,0,0,0,0,0,0,0,0,0,0,0,0,0,0,0,0,
0,0,0,0,0,0,0,0,0,0,0,0,0,0,0,0,0,0,0,0,0,0,0,0,0,0,0,0,0,0,0,0,0,0,0,0,0,0,0,
0,0,0,0,0,0,0,0,0,0,0,0,0,0,0,0,0,0,0,0,0,0,0,0,0,0,0,0,0,0,0,0,0,0,0,0,0,0,0,
0,0,0,0,0,0,0,0,0,0,0,0,0,0,0,0,0,0,0,0,0,0,0,0,0,0,0,0,0,0,0,0,0,0,0,0,0,0,0,
0,0,0,0,0,0,0,0,0,0,0,0,0,0,0,0,0,0,0,0,0,0,0,0,0,0,0,0,0,0,0,0,0,0,0,0,0,0,0,
0,0,0,0,0,0,0,0,0,0,0,0,0,0,0,0,0,0,0,0,0,0,0,0,0,0,0,0,0,0,0,0,0,0,0,0,0,0,0,
0,0,0,0,0,0,0,0,0,0,0,0,0,0,0,0,0,0,0,0,0,0,0,0,0,0,0,0,0,0,0,0,0,0,0,0,0,0,0,
0,0,0,0,0,0,0,0,0,0,0,0,0,0,0,0,0,0,0,0,0,0,0,0,0,0,0,0,0,0,0,0,0,0,0,0,0,0,0,
0,0,0,0,0,0,0,0,0,0,0,0,0,0,0,0,0,0,0,0,0,0,0,0,0,0,0,0,0,0,0,0,0,0,0,0,0,0,0,
0,0,0,0,0,0,0,0,0,0,0,0,0,0,0,0,0,0,0,0,0,0,0,0,0,0,0,0,0,0,0,0,0,0,0,0,0,0,0,
0,0,0,0,0,0,0,0,0,0,0,0,0,0,0,0,0,0,0,0,0,0,0,0,0,0,0,0,0,0,0,0,0,0,0,0,0,0,0,
0,0,0,0,0,0,0,0,0,0,0,0,0,0,0,0,0,0,0,0,0,0,0,0,0,0,0,0,0,0,0,0,0,0,0,0,0,0,0
</data>
 </layer>
 <objectgroup name="objects">
  <object id="35" name="Entrance1" type="SceneEdge" gid="6902" x="352" y="1824" width="160" height="32">
   <properties>
    <property name="ghost" type="bool" value="true"/>
    <property name="key" value="down"/>
    <property name="no_run" type="bool" value="true"/>
    <property name="orientation" value="up"/>
    <property name="scene" type="file" value="dream_mountain_cave4.lua"/>
    <property name="spawn_point" value="Entrance2"/>
   </properties>
  </object>
  <object id="36" name="Spawn 1" type="Player" gid="4565" x="416" y="1792" width="32" height="32">
   <properties>
    <property name="orientation" value="up"/>
   </properties>
  </object>
  <object id="50" name="Entrance2" type="SceneEdge" gid="6902" x="480" y="192" width="160" height="32">
   <properties>
    <property name="ghost" type="bool" value="true"/>
    <property name="key" value="up"/>
    <property name="no_run" type="bool" value="true"/>
    <property name="orientation" value="down"/>
    <property name="scene" type="file" value="dream_mountain_cave3.lua"/>
    <property name="spawn_point" value="Entrance1"/>
   </properties>
  </object>
  <object id="51" name="Reflection" type="Reflection" gid="6839" x="384" y="1024" width="64" height="64">
   <properties>
    <property name="defaultAnim" value="idledown"/>
    <property name="disappearOnFlag" type="bool" value="true"/>
    <property name="sprite" type="file" value="../art/sprites/tails.png"/>
    <property name="swapLayers" value="objects:objects7, objects2:objects7, objects3:objects7, objects4:objects4, objects5:objects5, objects6:objects7, objects7:objects7"/>
   </properties>
  </object>
  <object id="54" name="Trigger" type="BasicNPC" gid="6839" x="384" y="1503" width="96" height="64">
   <properties>
    <property name="ghost" type="bool" value="true"/>
    <property name="onInteract">local BlockPlayer = require &quot;actions/BlockPlayer&quot;
local MessageBox = require &quot;actions/MessageBox&quot;
local Animate = require &quot;actions/Animate&quot;
local Do = require &quot;actions/Do&quot;
local Serial = require &quot;actions/Serial&quot;
local Parallel = require &quot;actions/Parallel&quot;
local Ease = require &quot;actions/Ease&quot;
local Wait = require &quot;actions/Wait&quot;

return function(self)
    walkout, walkin, sprites = self.scene.player:split(nil, true)
    for k in pairs(GameState.party) do
        sprites[k].x = self.scene.player.x - 60
        sprites[k].y = self.scene.player.y - 60
    end

    return BlockPlayer {
        walkout,
        Animate(sprites.b.sprite, &quot;idleup&quot;),
        Animate(sprites.babyt.sprite, &quot;idleup&quot;),
        Animate(sprites.tails.sprite, &quot;idleup&quot;),
        MessageBox{message=&quot;Tails Reflection: Who are you?&quot;},
        Do(function()
            self.scene.player.sprite:setFadeWhite(2)
            self.scene.objectLookup.Reflection.sprite:setFadeWhite(2)
        end),
        walkin
    }
end</property>
   </properties>
  </object>
 </objectgroup>
 <objectgroup name="all"/>
 <layer name="clipwaterfall" width="39" height="57">
  <data encoding="csv">
0,0,0,0,0,0,0,0,0,0,0,0,0,0,0,0,0,0,0,0,0,0,0,0,0,0,0,0,0,0,0,0,0,0,0,0,0,0,0,
0,0,0,0,0,0,0,0,0,0,0,0,0,0,0,0,0,0,0,0,0,0,0,0,0,0,0,0,0,0,0,0,0,0,0,0,0,0,0,
0,0,0,0,0,0,0,0,0,0,0,0,0,0,0,0,0,0,0,0,0,0,0,0,0,0,0,0,0,0,0,0,0,0,0,0,0,0,0,
0,0,0,0,0,0,0,0,0,0,0,0,0,0,0,0,0,0,0,0,0,0,0,0,0,0,0,0,0,0,0,0,0,0,0,0,0,0,0,
0,0,0,0,0,0,0,0,0,0,0,0,0,0,0,0,0,0,0,0,0,0,0,0,0,0,0,0,0,0,0,0,0,0,0,0,0,0,0,
0,0,0,0,0,0,0,0,0,0,0,0,0,0,0,0,0,0,0,0,0,0,0,0,0,0,0,0,0,0,0,0,0,0,0,0,0,0,0,
0,0,0,0,0,0,0,0,0,0,0,0,0,0,0,0,0,0,0,0,0,0,0,0,0,0,0,0,0,0,0,0,0,0,0,0,0,0,0,
0,0,0,0,0,0,0,0,0,0,0,0,0,0,0,0,0,0,0,0,0,0,0,0,0,0,0,0,0,0,0,0,0,0,0,0,0,0,0,
0,0,0,0,0,0,0,0,0,0,0,0,0,0,0,0,0,0,0,0,0,0,0,0,0,0,0,0,0,0,0,0,0,0,0,0,0,0,0,
0,0,0,0,0,0,0,0,0,0,0,0,0,0,0,0,0,0,0,0,0,0,0,0,0,0,0,0,0,0,0,0,0,0,0,0,0,0,0,
0,0,0,0,0,0,0,0,0,0,0,0,0,0,0,0,0,0,0,0,0,0,0,0,0,0,0,0,0,0,0,0,0,0,0,0,0,0,0,
0,0,0,0,0,0,0,0,0,0,0,0,0,0,0,0,0,0,0,0,0,0,0,0,0,0,0,0,0,0,0,0,0,0,0,0,0,0,0,
0,0,0,0,0,0,0,0,0,0,0,0,0,0,0,0,0,0,0,0,0,0,0,0,0,0,0,0,0,0,0,0,0,0,0,0,0,0,0,
0,0,0,0,0,0,0,0,0,0,0,0,0,0,0,0,0,0,0,0,0,0,0,0,0,0,0,0,0,0,0,0,0,0,0,0,0,0,0,
0,0,0,0,0,0,0,0,0,0,0,0,0,0,0,0,0,0,0,0,0,0,0,0,0,0,0,0,0,0,0,0,0,0,0,0,0,0,0,
0,0,0,0,0,0,0,0,0,0,0,0,0,0,0,0,0,0,0,0,0,0,0,0,0,0,0,0,0,0,0,0,0,0,0,0,0,0,0,
0,0,0,0,0,0,0,0,0,0,0,0,0,0,0,0,0,0,0,0,0,0,0,0,0,0,0,0,0,0,0,0,0,0,0,0,0,0,0,
0,0,0,0,0,0,0,0,0,0,0,0,0,0,0,0,0,0,0,0,0,0,0,0,0,0,0,0,0,0,0,0,0,0,0,0,0,0,0,
0,0,0,0,0,0,0,0,0,0,0,0,0,0,0,0,0,0,0,0,0,0,0,0,0,0,0,0,0,0,0,0,0,0,0,0,0,0,0,
0,0,0,0,0,0,0,0,0,0,0,0,0,0,0,0,0,0,0,0,0,0,0,0,0,0,0,0,0,0,0,0,0,0,0,0,0,0,0,
0,0,0,0,0,0,0,0,0,0,0,0,0,0,0,0,0,0,0,0,0,0,0,0,0,0,0,0,0,0,0,0,0,0,0,0,0,0,0,
0,0,0,0,0,0,0,0,0,0,0,0,0,0,0,0,0,0,0,0,0,0,0,0,0,0,0,0,0,0,0,0,0,0,0,0,0,0,0,
0,0,0,0,0,0,0,0,0,0,0,0,0,0,0,0,0,0,0,0,0,0,0,0,0,0,0,0,0,0,0,0,0,0,0,0,0,0,0,
0,0,0,0,0,0,0,0,0,0,0,0,0,0,0,0,0,0,0,0,0,0,0,0,0,0,0,0,0,0,0,0,0,0,0,0,0,0,0,
0,0,0,0,0,0,0,0,0,0,0,0,0,0,0,0,0,0,0,0,0,0,0,0,0,0,0,0,0,0,0,0,0,0,0,0,0,0,0,
0,0,0,0,0,0,0,0,0,0,0,0,0,0,0,0,0,0,0,0,0,0,0,0,0,0,0,0,0,0,0,0,0,0,0,0,0,0,0,
0,0,0,0,0,0,0,0,0,0,0,0,0,0,0,0,0,0,0,0,0,0,0,0,0,0,0,0,0,0,0,0,0,0,0,0,0,0,0,
0,0,0,0,0,0,0,0,0,0,0,0,0,0,0,0,0,0,0,0,0,0,0,0,0,0,0,0,0,0,0,0,0,0,0,0,0,0,0,
0,0,0,0,0,0,0,0,0,0,0,0,0,0,0,0,0,0,0,0,0,0,0,0,0,0,0,0,0,0,0,0,0,0,0,0,0,0,0,
0,0,0,0,0,0,0,0,0,0,0,0,0,0,0,0,0,0,0,0,0,0,0,0,0,0,0,0,0,0,0,0,0,0,0,0,0,0,0,
0,0,0,0,0,0,0,0,0,0,0,0,0,0,0,0,0,0,0,0,0,0,0,0,0,0,0,0,0,0,0,0,0,0,0,0,0,0,0,
0,0,0,0,0,0,0,0,0,0,0,0,0,0,0,0,0,0,0,0,0,0,0,0,0,0,0,0,0,0,0,0,0,0,0,0,0,0,0,
0,0,0,0,0,0,0,0,0,0,0,0,0,0,0,0,0,0,0,0,0,8210,8209,0,0,0,0,0,0,0,0,0,0,0,0,0,0,0,0,
0,0,0,0,0,0,8210,0,0,0,0,0,0,0,0,0,0,0,0,0,0,8210,8209,0,0,0,0,0,0,0,0,0,0,0,0,0,0,0,0,
0,0,0,0,0,0,8175,0,0,0,0,0,0,0,0,0,0,0,0,0,0,8209,8210,0,0,0,0,0,0,0,0,0,0,0,0,0,0,0,0,
0,0,0,0,0,0,8210,0,0,0,0,0,0,0,0,0,0,0,0,0,0,8209,8210,0,0,0,0,0,0,0,0,0,0,0,0,0,0,0,0,
0,0,0,0,0,0,8175,0,0,0,0,0,0,0,0,0,0,0,0,0,0,8209,8210,0,0,0,0,0,0,0,0,0,0,0,0,0,0,0,0,
0,0,0,0,0,0,8210,0,0,0,0,0,0,0,0,0,0,0,0,0,0,8174,8175,0,0,0,0,0,0,0,0,0,0,0,0,0,0,0,0,
0,0,0,0,0,0,8175,0,0,0,0,0,0,0,0,0,0,0,0,0,0,8209,8210,0,0,0,0,0,0,0,0,0,0,0,0,0,0,0,0,
0,0,0,0,0,0,8210,0,0,0,0,0,0,0,0,0,0,0,0,0,0,8174,8209,0,0,0,0,0,0,0,0,0,0,0,0,0,0,0,0,
0,0,0,0,0,0,8175,0,0,0,0,0,0,0,0,0,0,0,0,0,0,8209,8209,0,0,0,0,0,0,0,0,0,0,0,0,0,0,0,0,
0,0,0,0,0,0,8210,0,0,0,0,0,0,0,0,0,0,0,0,0,0,8210,8209,0,0,0,0,0,0,0,0,0,0,0,0,0,0,0,0,
0,0,0,0,0,0,0,0,0,0,0,0,0,0,0,0,0,0,0,0,0,0,0,0,0,0,0,0,0,0,0,0,0,0,0,0,0,0,0,
0,0,0,0,0,0,0,0,0,0,0,0,0,0,0,0,0,0,0,0,0,0,0,0,0,0,0,0,0,0,0,0,0,0,0,0,0,0,0,
0,0,0,0,0,0,0,0,0,0,0,0,0,0,0,0,0,0,0,0,0,0,0,0,0,0,0,0,0,0,0,0,0,0,0,0,0,0,0,
0,0,0,0,0,0,0,0,0,0,0,0,0,0,0,0,0,0,0,0,0,0,0,0,0,0,0,0,0,0,0,0,0,0,0,0,0,0,0,
0,0,0,0,0,0,0,0,0,0,0,0,0,0,0,0,0,0,0,0,0,0,0,0,0,0,0,0,0,0,0,0,0,0,0,0,0,0,0,
0,0,0,0,0,0,0,0,0,0,0,0,0,0,0,0,0,0,0,0,0,0,0,0,0,0,0,0,0,0,0,0,0,0,0,0,0,0,0,
0,0,0,0,0,0,0,0,0,0,0,0,0,0,0,0,0,0,0,0,0,0,0,0,0,0,0,0,0,0,0,0,0,0,0,0,0,0,0,
0,0,0,0,0,0,0,0,0,0,0,0,0,0,0,0,0,0,0,0,0,0,0,0,0,0,0,0,0,0,0,0,0,0,0,0,0,0,0,
0,0,0,0,0,0,0,0,0,0,0,0,0,0,0,0,0,0,0,0,0,0,0,0,0,0,0,0,0,0,0,0,0,0,0,0,0,0,0,
0,0,0,0,0,0,0,0,0,0,0,0,0,0,0,0,0,0,0,0,0,0,0,0,0,0,0,0,0,0,0,0,0,0,0,0,0,0,0,
0,0,0,0,0,0,0,0,0,0,0,0,0,0,0,0,0,0,0,0,0,0,0,0,0,0,0,0,0,0,0,0,0,0,0,0,0,0,0,
0,0,0,0,0,0,0,0,0,0,0,0,0,0,0,0,0,0,0,0,0,0,0,0,0,0,0,0,0,0,0,0,0,0,0,0,0,0,0,
0,0,0,0,0,0,0,0,0,0,0,0,0,0,0,0,0,0,0,0,0,0,0,0,0,0,0,0,0,0,0,0,0,0,0,0,0,0,0,
0,0,0,0,0,0,0,0,0,0,0,0,0,0,0,0,0,0,0,0,0,0,0,0,0,0,0,0,0,0,0,0,0,0,0,0,0,0,0,
0,0,0,0,0,0,0,0,0,0,0,0,0,0,0,0,0,0,0,0,0,0,0,0,0,0,0,0,0,0,0,0,0,0,0,0,0,0,0
</data>
 </layer>
 <layer name="top" width="39" height="57">
  <data encoding="csv">
8066,8066,8066,8066,8066,8066,8066,8066,8066,8066,8066,8066,8066,8066,8066,8066,8066,8066,8066,8066,8066,8066,8066,8066,8066,8066,8066,8066,8066,8066,8066,8066,8066,8066,8066,8066,8066,8066,8066,
8066,8066,8066,8066,8066,8066,8066,8066,8066,8066,8066,8066,8066,8066,8066,8066,8066,8066,8066,8066,8066,8066,8066,8066,8066,8066,8066,8066,8066,8066,8066,8066,8066,8066,8066,8066,8066,8066,8066,
8066,8066,8066,8066,8066,8066,8066,8066,8066,8066,8066,8066,8066,8066,8066,8066,8066,8066,8066,8066,8066,8066,8066,8066,8066,8066,8066,8066,8066,8066,8066,8066,8066,8066,8066,8066,8066,8066,8066,
8066,8066,8066,8066,8066,8066,8066,8066,8066,8066,8066,8066,8066,8066,8066,8066,8066,8066,8066,8066,8066,8066,8066,8066,8066,8066,8066,8066,8066,8066,8066,8066,8066,8066,8066,8066,8066,8066,8066,
8066,8066,8066,8066,8066,8066,8066,8066,8066,8066,0,0,0,0,0,0,0,0,0,0,0,0,0,0,8066,8066,8066,8066,8066,8066,8066,8066,8066,8066,8066,8066,8066,8066,8066,
8066,8066,8066,8066,8066,8066,8066,8066,8066,0,0,0,0,0,0,0,0,0,0,0,0,0,0,0,0,8066,8066,8066,8066,8066,8066,8066,8066,8066,8066,8066,8066,8066,8066,
8066,8066,8066,8066,8066,8066,8066,8066,0,0,0,0,0,0,0,0,0,0,0,0,0,0,0,0,0,0,8066,8066,8066,8066,8066,8066,8066,8066,8066,8066,8066,8066,8066,
8066,8066,8066,8066,8066,8066,8066,0,0,0,0,0,0,0,0,0,0,0,0,0,0,0,0,0,0,0,0,8066,8066,8066,8066,8066,8066,8066,8066,8066,8066,8066,8066,
8066,8066,8066,8066,8066,8066,0,0,0,0,0,0,0,0,0,0,0,0,0,0,0,0,0,0,0,0,0,0,8066,8066,8066,8066,8066,8066,8066,8066,8066,8066,8066,
8066,8066,8066,8066,0,0,0,0,0,0,0,0,0,0,0,0,0,0,0,0,0,0,0,0,0,0,0,0,0,0,8066,8066,8066,8066,8066,8066,8066,8066,8066,
8066,8066,8066,8066,0,0,0,0,0,0,0,0,0,0,0,0,0,0,0,0,0,0,0,0,0,0,0,0,0,0,0,8066,8066,8066,8066,8066,8066,8066,8066,
8066,8066,8066,8066,0,0,0,0,0,0,0,0,0,0,0,0,0,0,0,0,0,0,0,0,0,0,0,0,0,0,0,0,8066,8066,8066,8066,8066,8066,8066,
8066,8066,8066,8066,0,0,0,0,0,0,0,0,0,0,0,0,0,0,0,0,0,0,0,0,0,0,0,0,0,0,0,0,0,8066,8066,8066,8066,8066,8066,
8066,8066,8066,8066,0,0,0,0,0,0,0,0,0,0,0,0,0,0,0,0,0,0,0,0,0,0,0,0,0,0,0,0,0,8066,8066,8066,8066,8066,8066,
8066,8066,8066,8066,9219,0,0,0,0,0,0,0,0,0,0,0,0,0,0,0,0,0,0,0,0,0,0,0,0,0,0,0,0,0,8066,8066,8066,8066,8066,
8066,8066,8066,8066,8066,9219,0,0,0,0,0,0,0,0,0,0,0,0,0,0,0,0,0,0,0,0,0,0,0,0,0,0,0,0,0,8066,8066,8066,8066,
8066,8066,8066,8066,8066,8066,9219,0,0,0,0,0,0,0,0,0,0,0,0,0,0,0,0,0,0,0,0,0,0,0,0,0,0,0,0,8066,8066,8066,8066,
8066,8066,8066,8066,8066,8066,8066,9219,0,0,0,0,0,0,0,0,0,0,0,0,0,0,0,0,0,0,0,0,0,0,0,0,0,0,0,0,8066,8066,8066,
8066,8066,8066,8066,8066,8066,8066,8066,8066,9219,0,0,0,0,0,0,0,0,0,0,0,0,0,0,0,0,0,0,0,0,0,0,0,0,0,0,0,8066,8066,
8066,8066,8066,8066,8066,8066,8066,8066,8066,8066,8066,8066,8066,8066,8066,8066,8066,8066,8066,8066,9219,0,0,0,0,0,0,0,0,0,0,0,0,0,0,0,0,8066,8066,
8066,8066,8066,8066,8066,8066,8066,8066,8066,8066,8066,8066,8066,8066,8066,8066,8066,8066,8066,8066,8066,8066,8066,9219,0,0,0,0,0,0,0,0,0,0,0,0,0,8066,8066,
8066,8066,8066,8066,8066,8066,8066,8066,8066,8066,8066,8066,8066,8066,8066,8066,8066,8066,8240,8240,8240,8066,8066,8066,8066,9219,0,0,0,0,0,0,0,0,0,0,0,8066,8066,
8066,8066,8066,8066,8240,8240,8240,8240,8240,8240,8240,8240,8240,8240,8240,8240,8240,8240,8240,8240,8240,8240,8240,8240,8066,8066,9219,0,0,0,0,0,0,0,0,0,0,8066,8066,
8066,8066,8066,8066,8066,8240,8240,8240,8240,8240,8240,8240,8240,8240,8240,8240,8240,8240,8240,8240,8240,8240,8240,8066,8066,8066,8066,0,0,0,0,0,0,0,0,0,0,8066,8066,
8066,8066,8066,8066,8066,8066,0,0,0,0,0,0,0,0,0,0,0,0,0,0,0,0,0,8240,8066,8066,8066,0,0,0,0,0,0,0,0,0,0,8066,8066,
8066,8066,8066,8066,8066,8066,0,0,0,0,0,0,0,0,0,0,0,0,0,0,0,0,0,8240,8240,8240,8240,0,0,0,0,0,0,0,0,0,0,8066,8066,
8066,8066,8066,8066,8066,8066,0,0,0,0,0,0,0,0,0,0,0,0,0,0,0,0,0,0,0,8240,8240,0,0,0,0,0,0,0,0,0,0,8066,8066,
8066,8066,8066,8066,8066,8066,0,0,0,0,0,0,0,0,0,0,0,0,0,0,0,0,0,0,0,0,0,0,0,0,0,0,0,0,0,0,0,8066,8066,
8066,8066,8066,8066,8066,8066,0,0,0,0,0,0,0,0,0,0,0,0,0,0,0,0,0,0,0,0,0,0,0,0,0,0,0,0,0,0,0,8066,8066,
8066,8066,8066,8066,8066,8066,0,0,0,0,0,0,0,0,0,0,0,0,0,0,0,0,0,0,0,0,0,0,0,0,0,0,0,0,0,0,0,8066,8066,
8066,8066,8066,8066,8066,8066,0,0,0,0,0,0,0,0,0,0,0,0,0,0,0,0,0,0,0,0,0,0,0,0,0,0,0,0,0,0,0,8066,8066,
8066,8066,8066,8066,8066,8066,0,0,0,0,0,0,0,0,0,0,0,0,0,0,0,0,0,0,0,0,0,0,0,0,0,0,0,0,0,0,0,8066,8066,
8066,8066,8066,8066,8066,8066,0,0,0,0,0,0,0,0,0,0,0,0,0,0,0,0,0,0,0,0,0,0,0,0,0,0,0,0,0,0,9220,8066,8066,
8066,8066,8066,8066,8066,8066,0,0,0,0,0,0,0,0,0,0,0,0,0,0,0,0,0,0,0,0,0,0,0,0,0,0,0,0,0,0,8066,8066,8066,
8066,8066,8066,8066,8066,8066,0,0,0,0,0,0,0,0,0,0,0,0,0,0,0,0,0,0,0,0,0,0,0,0,0,0,0,0,0,9220,8066,8066,8066,
8066,8066,8066,8066,8066,8066,0,0,0,0,0,0,0,0,0,0,0,0,0,0,0,0,0,0,0,0,0,0,0,0,0,0,0,0,0,8066,8066,8066,8066,
8066,8066,8066,8066,8066,8066,0,0,0,0,0,0,0,0,0,0,0,0,0,0,0,0,0,0,0,0,0,0,0,0,0,0,0,0,9220,8066,8066,8066,8066,
8066,8066,8066,8066,8066,8066,0,0,0,0,0,0,0,0,0,0,0,0,0,0,0,0,0,0,0,0,0,0,0,0,0,0,0,9220,8066,8066,8066,8066,8066,
8066,8066,8066,8066,8066,8066,0,0,0,0,0,0,0,0,0,0,0,0,0,0,0,0,0,0,9220,8066,8066,8066,8066,8066,8066,8066,8066,8066,8066,8066,8066,8066,8066,
8066,8066,8066,8066,8066,8066,0,0,0,0,0,0,0,0,0,0,0,0,0,0,0,0,0,9220,8066,8066,8066,8066,8066,8066,8066,8066,8066,8066,8066,8066,8066,8066,8066,
8066,8066,8066,8066,8066,8066,0,0,0,0,0,0,0,0,0,0,0,0,0,0,0,0,9220,8066,8066,8066,8066,8066,8066,8066,8066,8066,8066,8066,8066,8066,8066,8066,8066,
8066,8066,8066,8066,8066,8066,0,0,0,0,0,0,0,0,0,0,0,0,0,0,0,0,8066,8066,8066,8066,8066,8066,8066,8066,8066,8066,8066,8066,8066,8066,8066,8066,8066,
8066,8066,8066,8066,8066,8066,0,0,0,0,0,0,0,0,0,0,0,0,0,0,0,0,8066,8066,8066,8066,8066,8066,8066,8066,8066,8066,8066,8066,8066,8066,8066,8066,8066,
8066,8066,8066,8066,8066,8066,0,0,0,0,0,0,0,0,0,0,0,0,0,0,0,0,8066,8066,8066,8066,8066,8066,8066,8066,8066,8066,8066,8066,8066,8066,8066,8066,8066,
8066,8066,8066,8066,8066,8066,0,0,0,0,0,0,0,0,0,0,0,0,0,0,0,0,8066,8066,8066,8066,8066,8066,8066,8066,8066,8066,8066,8066,8066,8066,8066,8066,8066,
8066,8066,8066,8066,8066,8066,0,0,0,0,0,0,0,0,0,0,0,0,0,0,0,0,8066,8066,8066,8066,8066,8066,8066,8066,8066,8066,8066,8066,8066,8066,8066,8066,8066,
8066,8066,8066,8066,8066,8066,0,0,0,0,0,0,0,0,0,0,0,0,0,0,0,0,8066,8066,8066,8066,8066,8066,8066,8066,8066,8066,8066,8066,8066,8066,8066,8066,8066,
8066,8066,8066,8066,8066,8066,0,0,0,0,0,0,0,0,0,0,0,0,0,0,0,0,8066,8066,8066,8066,8066,8066,8066,8066,8066,8066,8066,8066,8066,8066,8066,8066,8066,
8066,8066,8066,8066,8066,8066,0,0,0,0,0,0,0,0,0,0,0,0,0,0,0,0,8066,8066,8066,8066,8066,8066,8066,8066,8066,8066,8066,8066,8066,8066,8066,8066,8066,
8066,8066,8066,8066,8066,8066,0,0,0,0,0,0,0,0,0,0,0,0,0,0,0,0,8066,8066,8066,8066,8066,8066,8066,8066,8066,8066,8066,8066,8066,8066,8066,8066,8066,
8066,8066,8066,8066,8066,8066,0,0,0,0,0,0,0,0,0,0,0,0,0,0,0,0,8066,8066,8066,8066,8066,8066,8066,8066,8066,8066,8066,8066,8066,8066,8066,8066,8066,
8066,8066,8066,8066,8066,8066,0,0,0,0,0,0,0,0,0,0,0,0,0,0,0,0,8066,8066,8066,8066,8066,8066,8066,8066,8066,8066,8066,8066,8066,8066,8066,8066,8066,
8066,8066,8066,8066,8066,8066,0,0,0,0,0,0,0,0,0,0,0,0,0,0,0,0,8066,8066,8066,8066,8066,8066,8066,8066,8066,8066,8066,8066,8066,8066,8066,8066,8066,
8066,8066,8066,8066,8066,8066,0,0,0,0,0,0,0,0,0,0,0,0,0,0,0,9220,8066,8066,8066,8066,8066,8066,8066,8066,8066,8066,8066,8066,8066,8066,8066,8066,8066,
8066,8066,8066,8066,8066,8066,9219,0,0,0,0,0,0,0,0,0,0,0,0,0,9220,8066,8066,8066,8066,8066,8066,8066,8066,8066,8066,8066,8066,8066,8066,8066,8066,8066,8066,
8066,8066,8066,8066,8066,8066,8066,8066,8066,8066,8066,8066,0,0,0,8066,8066,8066,8066,8066,8066,8066,8066,8066,8066,8066,8066,8066,8066,8066,8066,8066,8066,8066,8066,8066,8066,8066,8066,
8066,8066,8066,8066,8066,8066,8066,8066,8066,8066,8066,8066,0,0,0,8066,8066,8066,8066,8066,8066,8066,8066,8066,8066,8066,8066,8066,8066,8066,8066,8066,8066,8066,8066,8066,8066,8066,8066
</data>
 </layer>
 <layer name="waterfall1" width="39" height="57">
  <data encoding="csv">
0,0,0,0,0,0,0,0,0,0,0,0,0,0,0,0,0,0,0,0,0,0,0,0,0,0,0,0,0,0,0,0,0,0,0,0,0,0,0,
0,0,0,0,0,0,0,0,0,0,0,0,0,0,0,0,0,0,0,0,0,0,0,0,0,0,0,0,0,0,0,0,0,0,0,0,0,0,0,
0,0,0,0,0,0,0,0,0,0,0,0,0,0,0,0,0,0,0,0,0,0,0,0,0,0,0,0,0,0,0,0,0,0,0,0,0,0,0,
0,0,0,0,0,0,0,0,0,0,0,0,0,0,0,0,0,0,0,0,0,0,0,0,0,0,0,0,0,0,0,0,0,0,0,0,0,0,0,
0,0,0,0,0,0,0,0,0,0,0,0,0,0,0,0,0,0,0,0,0,0,0,0,0,0,0,0,0,0,0,0,0,0,0,0,0,0,0,
0,0,0,0,0,0,0,0,0,0,0,0,0,0,0,0,0,0,0,0,0,0,0,0,0,0,0,0,0,0,0,0,0,0,0,0,0,0,0,
0,0,0,0,0,0,0,0,0,0,0,0,0,0,0,0,0,0,0,0,0,0,0,0,0,0,0,0,0,0,0,0,0,0,0,0,0,0,0,
0,0,0,0,0,0,0,0,0,0,0,0,0,0,0,0,0,0,0,0,0,0,0,0,0,0,0,0,0,0,0,0,0,0,0,0,0,0,0,
0,0,0,0,0,0,0,0,0,0,0,0,0,0,0,0,0,0,0,0,0,0,0,0,0,0,0,0,0,0,0,0,0,0,0,0,0,0,0,
0,0,0,0,0,0,0,0,0,0,0,0,0,0,0,0,0,0,0,0,0,0,0,0,0,0,0,0,0,0,0,0,0,0,0,0,0,0,0,
0,0,0,0,0,0,0,0,0,0,0,0,0,0,0,0,0,0,0,0,0,0,0,0,0,0,0,0,0,0,0,0,0,0,0,0,0,0,0,
0,0,0,0,0,0,0,0,0,0,0,0,0,0,0,0,0,0,0,0,0,0,0,0,0,0,0,0,0,0,0,0,0,0,0,0,0,0,0,
0,0,0,0,0,0,0,0,0,0,0,0,0,0,0,0,0,0,0,0,0,0,0,0,0,0,0,0,0,0,0,0,0,0,0,0,0,0,0,
0,0,0,0,0,0,0,0,0,0,0,0,0,0,0,0,0,0,0,0,0,0,0,0,0,0,0,0,0,0,0,0,0,0,0,0,0,0,0,
0,0,0,0,0,0,0,0,0,0,0,0,0,0,0,0,0,0,0,0,0,0,0,0,0,0,0,0,0,0,0,0,0,0,0,0,0,0,0,
0,0,0,0,0,0,0,0,0,0,0,0,0,0,0,0,0,0,0,0,0,0,0,0,0,0,0,0,0,0,0,0,0,0,0,0,0,0,0,
0,0,0,0,0,0,0,0,0,0,0,0,0,0,0,0,0,0,0,0,0,0,0,0,0,0,0,0,0,0,0,0,0,0,0,0,0,0,0,
0,0,0,0,0,0,0,0,0,0,0,0,0,0,0,0,0,0,0,0,0,0,0,0,0,0,0,0,0,0,0,0,0,0,0,0,0,0,0,
0,0,0,0,0,0,0,0,0,0,0,0,0,0,0,0,0,0,0,0,0,0,0,0,0,0,0,0,0,0,0,0,0,0,0,0,0,0,0,
0,0,0,0,0,0,0,0,0,0,0,0,0,0,0,0,0,0,0,0,0,0,0,0,0,0,0,0,0,0,0,0,0,0,0,0,0,0,0,
0,0,0,0,0,0,0,0,0,0,0,0,0,0,0,0,0,0,0,0,0,0,0,0,0,0,0,0,0,0,0,0,0,0,0,0,0,0,0,
0,0,0,0,0,0,0,0,0,0,0,0,0,0,0,0,0,0,0,0,0,0,0,0,0,0,0,0,0,0,0,0,0,0,0,0,0,0,0,
0,0,0,0,0,0,0,12179,12180,12180,12180,12180,12180,12180,12180,12180,12180,12180,12180,12180,12181,0,0,0,0,0,0,0,0,0,0,0,0,0,0,0,0,0,0,
0,0,0,0,0,0,0,12385,12386,12385,12386,12385,12386,12385,12386,12385,12386,12385,12386,12385,12386,0,0,0,0,0,0,0,0,0,0,0,0,0,0,0,0,0,0,
0,0,0,0,0,0,0,12316,12317,12316,12317,12316,12317,12316,12317,12316,12317,12316,12317,12316,12317,0,0,0,0,0,0,0,0,0,0,0,0,0,0,0,0,0,0,
0,0,0,0,0,0,0,12385,12386,12385,12386,12385,12386,12385,12386,12385,12386,12385,12386,12385,12386,0,0,0,0,0,0,0,0,0,0,0,0,0,0,0,0,0,0,
0,0,0,0,0,0,0,12385,12386,12385,12386,12385,12386,12385,12386,12385,12386,12385,12386,12385,12386,0,0,0,0,0,0,0,0,0,0,0,0,0,0,0,0,0,0,
0,0,0,0,0,0,0,12316,12317,12316,12317,12316,12317,12316,12317,12316,12317,12316,12317,12316,12317,0,0,0,0,0,0,0,0,0,0,0,0,0,0,0,0,0,0,
0,0,0,0,0,0,0,12316,12317,12316,12317,12316,12317,12316,12317,12316,12317,12316,12317,12316,12317,0,0,0,0,0,0,0,0,0,0,0,0,0,0,0,0,0,0,
0,0,0,0,0,0,0,12385,12386,12385,12386,12385,12386,12385,12386,12385,12386,12385,12386,12385,12386,0,0,0,0,0,0,0,0,0,0,0,0,0,0,0,0,0,0,
0,0,0,0,0,0,0,12385,12386,12385,12386,12385,12386,12385,12386,12385,12386,12385,12386,12385,12386,0,0,0,0,0,0,0,0,0,0,0,0,0,0,0,0,0,0,
0,0,0,0,0,0,0,12316,12317,12316,12317,12316,12317,12316,12317,12316,12317,12316,12317,12316,12317,0,0,0,0,0,0,0,0,0,0,0,0,0,0,0,0,0,0,
0,0,0,0,0,0,0,12385,12386,12385,12386,12385,12386,12385,12386,12385,12386,12385,12386,12385,12386,0,0,0,0,0,0,0,0,0,0,0,0,0,0,0,0,0,0,
0,0,0,0,0,0,0,12385,12386,12385,12386,12385,12386,12385,12386,12385,12386,12385,12386,12385,12386,0,0,0,0,0,0,0,0,0,0,0,0,0,0,0,0,0,0,
0,0,0,0,0,0,0,12316,12317,12316,12317,12316,12317,12316,12317,12316,12317,12316,12317,12316,12317,0,0,0,0,0,0,0,0,0,0,0,0,0,0,0,0,0,0,
0,0,0,0,0,0,0,12385,12386,12385,12386,12385,12386,12385,12386,12385,12386,12385,12386,12385,12386,0,0,0,0,0,0,0,0,0,0,0,0,0,0,0,0,0,0,
0,0,0,0,0,0,0,12385,12386,12385,12386,12385,12386,12385,12386,12385,12386,12385,12386,12385,12386,0,0,0,0,0,0,0,0,0,0,0,0,0,0,0,0,0,0,
0,0,0,0,0,0,0,12316,12317,12316,12317,12316,12317,12316,12317,12316,12317,12316,12317,12316,12317,0,0,0,0,0,0,0,0,0,0,0,0,0,0,0,0,0,0,
0,0,0,0,0,0,0,12385,12386,12385,12386,12385,12386,12385,12386,12385,12386,12385,12386,12385,12386,0,0,0,0,0,0,0,0,0,0,0,0,0,0,0,0,0,0,
0,0,0,0,0,0,0,12385,12386,12385,12386,12385,12386,12385,12386,12385,12386,12385,12386,12385,12386,0,0,0,0,0,0,0,0,0,0,0,0,0,0,0,0,0,0,
0,0,0,0,0,0,0,12316,12317,12316,12317,12316,12317,12316,12317,12316,12317,12316,12317,12316,12317,0,0,0,0,0,0,0,0,0,0,0,0,0,0,0,0,0,0,
0,0,0,0,0,0,0,12385,12386,12385,12386,12385,12386,12385,12386,12385,12386,12385,12386,12385,12386,0,0,0,0,0,0,0,0,0,0,0,0,0,0,0,0,0,0,
0,0,0,0,0,0,12179,12180,12180,12180,12180,12180,12180,12180,12180,12180,12180,12180,12180,12180,12180,12181,0,0,0,0,0,0,0,0,0,0,0,0,0,0,0,0,0,
0,0,0,0,0,0,12392,12392,12392,12392,12392,12392,12392,12392,12392,12392,12392,12392,12392,12392,12392,12392,0,0,0,0,0,0,0,0,0,0,0,0,0,0,0,0,0,
0,0,0,0,0,0,0,0,0,0,0,0,0,0,0,0,0,0,0,0,0,0,0,0,0,0,0,0,0,0,0,0,0,0,0,0,0,0,0,
0,0,0,0,0,0,0,0,0,0,0,0,0,0,0,0,0,0,0,0,0,0,0,0,0,0,0,0,0,0,0,0,0,0,0,0,0,0,0,
0,0,0,0,0,0,0,0,0,0,0,0,0,0,0,0,0,0,0,0,0,0,0,0,0,0,0,0,0,0,0,0,0,0,0,0,0,0,0,
0,0,0,0,0,0,0,0,0,0,0,0,0,0,0,0,0,0,0,0,0,0,0,0,0,0,0,0,0,0,0,0,0,0,0,0,0,0,0,
0,0,0,0,0,0,0,0,0,0,0,0,0,0,0,0,0,0,0,0,0,0,0,0,0,0,0,0,0,0,0,0,0,0,0,0,0,0,0,
0,0,0,0,0,0,0,0,0,0,0,0,0,0,0,0,0,0,0,0,0,0,0,0,0,0,0,0,0,0,0,0,0,0,0,0,0,0,0,
0,0,0,0,0,0,0,0,0,0,0,0,0,0,0,0,0,0,0,0,0,0,0,0,0,0,0,0,0,0,0,0,0,0,0,0,0,0,0,
0,0,0,0,0,0,0,0,0,0,0,0,0,0,0,0,0,0,0,0,0,0,0,0,0,0,0,0,0,0,0,0,0,0,0,0,0,0,0,
0,0,0,0,0,0,0,0,0,0,0,0,0,0,0,0,0,0,0,0,0,0,0,0,0,0,0,0,0,0,0,0,0,0,0,0,0,0,0,
0,0,0,0,0,0,0,0,0,0,0,0,0,0,0,0,0,0,0,0,0,0,0,0,0,0,0,0,0,0,0,0,0,0,0,0,0,0,0,
0,0,0,0,0,0,0,0,0,0,0,0,0,0,0,0,0,0,0,0,0,0,0,0,0,0,0,0,0,0,0,0,0,0,0,0,0,0,0,
0,0,0,0,0,0,0,0,0,0,0,0,0,0,0,0,0,0,0,0,0,0,0,0,0,0,0,0,0,0,0,0,0,0,0,0,0,0,0,
0,0,0,0,0,0,0,0,0,0,0,0,0,0,0,0,0,0,0,0,0,0,0,0,0,0,0,0,0,0,0,0,0,0,0,0,0,0,0
</data>
 </layer>
 <layer name="waterfall2" width="39" height="57">
  <data encoding="csv">
0,0,0,0,0,0,0,0,0,0,0,0,0,0,0,0,0,0,0,0,0,0,0,0,0,0,0,0,0,0,0,0,0,0,0,0,0,0,0,
0,0,0,0,0,0,0,0,0,0,0,0,0,0,0,0,0,0,0,0,0,0,0,0,0,0,0,0,0,0,0,0,0,0,0,0,0,0,0,
0,0,0,0,0,0,0,0,0,0,0,0,0,0,0,0,0,0,0,0,0,0,0,0,0,0,0,0,0,0,0,0,0,0,0,0,0,0,0,
0,0,0,0,0,0,0,0,0,0,0,0,0,0,0,0,0,0,0,0,0,0,0,0,0,0,0,0,0,0,0,0,0,0,0,0,0,0,0,
0,0,0,0,0,0,0,0,0,0,0,0,0,0,0,0,0,0,0,0,0,0,0,0,0,0,0,0,0,0,0,0,0,0,0,0,0,0,0,
0,0,0,0,0,0,0,0,0,0,0,0,0,0,0,0,0,0,0,0,0,0,0,0,0,0,0,0,0,0,0,0,0,0,0,0,0,0,0,
0,0,0,0,0,0,0,0,0,0,0,0,0,0,0,0,0,0,0,0,0,0,0,0,0,0,0,0,0,0,0,0,0,0,0,0,0,0,0,
0,0,0,0,0,0,0,0,0,0,0,0,0,0,0,0,0,0,0,0,0,0,0,0,0,0,0,0,0,0,0,0,0,0,0,0,0,0,0,
0,0,0,0,0,0,0,0,0,0,0,0,0,0,0,0,0,0,0,0,0,0,0,0,0,0,0,0,0,0,0,0,0,0,0,0,0,0,0,
0,0,0,0,0,0,0,0,0,0,0,0,0,0,0,0,0,0,0,0,0,0,0,0,0,0,0,0,0,0,0,0,0,0,0,0,0,0,0,
0,0,0,0,0,0,0,0,0,0,0,0,0,0,0,0,0,0,0,0,0,0,0,0,0,0,0,0,0,0,0,0,0,0,0,0,0,0,0,
0,0,0,0,0,0,0,0,0,0,0,0,0,0,0,0,0,0,0,0,0,0,0,0,0,0,0,0,0,0,0,0,0,0,0,0,0,0,0,
0,0,0,0,0,0,0,0,0,0,0,0,0,0,0,0,0,0,0,0,0,0,0,0,0,0,0,0,0,0,0,0,0,0,0,0,0,0,0,
0,0,0,0,0,0,0,0,0,0,0,0,0,0,0,0,0,0,0,0,0,0,0,0,0,0,0,0,0,0,0,0,0,0,0,0,0,0,0,
0,0,0,0,0,0,0,0,0,0,0,0,0,0,0,0,0,0,0,0,0,0,0,0,0,0,0,0,0,0,0,0,0,0,0,0,0,0,0,
0,0,0,0,0,0,0,0,0,0,0,0,0,0,0,0,0,0,0,0,0,0,0,0,0,0,0,0,0,0,0,0,0,0,0,0,0,0,0,
0,0,0,0,0,0,0,0,0,0,0,0,0,0,0,0,0,0,0,0,0,0,0,0,0,0,0,0,0,0,0,0,0,0,0,0,0,0,0,
0,0,0,0,0,0,0,0,0,0,0,0,0,0,0,0,0,0,0,0,0,0,0,0,0,0,0,0,0,0,0,0,0,0,0,0,0,0,0,
0,0,0,0,0,0,0,0,0,0,0,0,0,0,0,0,0,0,0,0,0,0,0,0,0,0,0,0,0,0,0,0,0,0,0,0,0,0,0,
0,0,0,0,0,0,0,0,0,0,0,0,0,0,0,0,0,0,0,0,0,0,0,0,0,0,0,0,0,0,0,0,0,0,0,0,0,0,0,
0,0,0,0,0,0,0,0,0,0,0,0,0,0,0,0,0,0,0,0,0,0,0,0,0,0,0,0,0,0,0,0,0,0,0,0,0,0,0,
0,0,0,0,0,0,0,0,0,0,0,0,0,0,0,0,0,0,0,0,0,0,0,0,0,0,0,0,0,0,0,0,0,0,0,0,0,0,0,
0,0,0,0,0,0,0,12178,12252,12252,12252,12252,12252,12252,12252,12252,12252,12252,12252,12252,12253,0,0,0,0,0,0,0,0,0,0,0,0,0,0,0,0,0,0,
0,0,0,0,0,0,0,12316,12317,12316,12316,12316,12316,12316,12317,12316,12317,12316,12317,12316,12317,0,0,0,0,0,0,0,0,0,0,0,0,0,0,0,0,0,0,
0,0,0,0,0,0,0,12385,12386,12385,12385,12385,12385,12385,12386,12385,12386,12385,12386,12385,12386,0,0,0,0,0,0,0,0,0,0,0,0,0,0,0,0,0,0,
0,0,0,0,0,0,0,12316,12317,12316,12316,12316,12316,12316,12317,12316,12317,12316,12317,12316,12317,0,0,0,0,0,0,0,0,0,0,0,0,0,0,0,0,0,0,
0,0,0,0,0,0,0,12316,12317,12316,12316,12316,12316,12316,12317,12316,12317,12316,12317,12316,12317,0,0,0,0,0,0,0,0,0,0,0,0,0,0,0,0,0,0,
0,0,0,0,0,0,0,12316,12317,12316,12316,12316,12316,12316,12317,12316,12317,12316,12317,12316,12317,0,0,0,0,0,0,0,0,0,0,0,0,0,0,0,0,0,0,
0,0,0,0,0,0,0,12385,12386,12385,12385,12385,12385,12385,12386,12385,12386,12385,12386,12385,12386,0,0,0,0,0,0,0,0,0,0,0,0,0,0,0,0,0,0,
0,0,0,0,0,0,0,12316,12317,12316,12316,12316,12316,12316,12317,12316,12317,12316,12317,12316,12317,0,0,0,0,0,0,0,0,0,0,0,0,0,0,0,0,0,0,
0,0,0,0,0,0,0,12316,12317,12316,12316,12316,12316,12316,12317,12316,12317,12316,12317,12316,12317,0,0,0,0,0,0,0,0,0,0,0,0,0,0,0,0,0,0,
0,0,0,0,0,0,0,12385,12386,12385,12385,12385,12385,12385,12386,12385,12386,12385,12386,12385,12386,0,0,0,0,0,0,0,0,0,0,0,0,0,0,0,0,0,0,
0,0,0,0,0,0,0,12316,12317,12316,12316,12316,12316,12316,12317,12316,12317,12316,12317,12316,12317,0,0,0,0,0,0,0,0,0,0,0,0,0,0,0,0,0,0,
0,0,0,0,0,0,0,12316,12317,12316,12316,12316,12316,12316,12317,12316,12317,12316,12317,12316,12317,0,0,0,0,0,0,0,0,0,0,0,0,0,0,0,0,0,0,
0,0,0,0,0,0,0,12385,12386,12385,12385,12385,12385,12385,12386,12385,12386,12385,12386,12385,12386,0,0,0,0,0,0,0,0,0,0,0,0,0,0,0,0,0,0,
0,0,0,0,0,0,0,12316,12317,12316,12316,12316,12316,12316,12317,12316,12317,12316,12317,12316,12317,0,0,0,0,0,0,0,0,0,0,0,0,0,0,0,0,0,0,
0,0,0,0,0,0,0,12316,12317,12316,12316,12316,12316,12316,12317,12316,12317,12316,12317,12316,12317,0,0,0,0,0,0,0,0,0,0,0,0,0,0,0,0,0,0,
0,0,0,0,0,0,0,12385,12386,12385,12385,12385,12385,12385,12386,12385,12386,12385,12386,12385,12386,0,0,0,0,0,0,0,0,0,0,0,0,0,0,0,0,0,0,
0,0,0,0,0,0,0,12316,12317,12316,12316,12316,12316,12316,12317,12316,12317,12316,12317,12316,12317,0,0,0,0,0,0,0,0,0,0,0,0,0,0,0,0,0,0,
0,0,0,0,0,0,0,12316,12317,12316,12316,12316,12316,12316,12317,12316,12317,12316,12317,12316,12317,0,0,0,0,0,0,0,0,0,0,0,0,0,0,0,0,0,0,
0,0,0,0,0,0,0,12385,12386,12385,12385,12385,12385,12385,12386,12385,12386,12385,12386,12385,12386,0,0,0,0,0,0,0,0,0,0,0,0,0,0,0,0,0,0,
0,0,0,0,0,0,0,12316,12317,12316,12316,12316,12316,12316,12317,12316,12317,12316,12317,12316,12317,0,0,0,0,0,0,0,0,0,0,0,0,0,0,0,0,0,0,
0,0,0,0,0,0,12185,12183,12183,12183,12183,12183,12183,12183,12183,12183,12183,12183,12183,12183,12183,12184,0,0,0,0,0,0,0,0,0,0,0,0,0,0,0,0,0,
0,0,0,0,0,0,12389,12389,12389,12389,12389,12389,12389,12389,12389,12389,12389,12389,12389,12389,12389,12389,0,0,0,0,0,0,0,0,0,0,0,0,0,0,0,0,0,
0,0,0,0,0,0,0,0,0,0,0,0,0,0,0,0,0,0,0,0,0,0,0,0,0,0,0,0,0,0,0,0,0,0,0,0,0,0,0,
0,0,0,0,0,0,0,0,0,0,0,0,0,0,0,0,0,0,0,0,0,0,0,0,0,0,0,0,0,0,0,0,0,0,0,0,0,0,0,
0,0,0,0,0,0,0,0,0,0,0,0,0,0,0,0,0,0,0,0,0,0,0,0,0,0,0,0,0,0,0,0,0,0,0,0,0,0,0,
0,0,0,0,0,0,0,0,0,0,0,0,0,0,0,0,0,0,0,0,0,0,0,0,0,0,0,0,0,0,0,0,0,0,0,0,0,0,0,
0,0,0,0,0,0,0,0,0,0,0,0,0,0,0,0,0,0,0,0,0,0,0,0,0,0,0,0,0,0,0,0,0,0,0,0,0,0,0,
0,0,0,0,0,0,0,0,0,0,0,0,0,0,0,0,0,0,0,0,0,0,0,0,0,0,0,0,0,0,0,0,0,0,0,0,0,0,0,
0,0,0,0,0,0,0,0,0,0,0,0,0,0,0,0,0,0,0,0,0,0,0,0,0,0,0,0,0,0,0,0,0,0,0,0,0,0,0,
0,0,0,0,0,0,0,0,0,0,0,0,0,0,0,0,0,0,0,0,0,0,0,0,0,0,0,0,0,0,0,0,0,0,0,0,0,0,0,
0,0,0,0,0,0,0,0,0,0,0,0,0,0,0,0,0,0,0,0,0,0,0,0,0,0,0,0,0,0,0,0,0,0,0,0,0,0,0,
0,0,0,0,0,0,0,0,0,0,0,0,0,0,0,0,0,0,0,0,0,0,0,0,0,0,0,0,0,0,0,0,0,0,0,0,0,0,0,
0,0,0,0,0,0,0,0,0,0,0,0,0,0,0,0,0,0,0,0,0,0,0,0,0,0,0,0,0,0,0,0,0,0,0,0,0,0,0,
0,0,0,0,0,0,0,0,0,0,0,0,0,0,0,0,0,0,0,0,0,0,0,0,0,0,0,0,0,0,0,0,0,0,0,0,0,0,0,
0,0,0,0,0,0,0,0,0,0,0,0,0,0,0,0,0,0,0,0,0,0,0,0,0,0,0,0,0,0,0,0,0,0,0,0,0,0,0
</data>
 </layer>
 <objectgroup name="upper"/>
 <layer name="Collision" width="39" height="57" visible="0">
  <data encoding="csv">
0,0,0,0,8941,0,0,0,0,0,0,0,0,0,0,0,0,0,0,0,0,0,0,0,0,0,0,0,0,0,0,0,0,0,0,0,0,0,0,
0,0,0,8941,8941,0,0,0,0,0,8941,8941,8941,8941,8941,8941,8941,8941,8941,8941,8941,8941,8941,8941,8941,8941,8941,8941,8941,8941,8941,8941,8941,8941,8941,8941,8941,8941,8941,
0,8941,8941,8941,8941,0,0,0,0,0,8941,0,0,0,0,0,0,8941,8941,8941,8941,8941,8941,8941,8941,8941,0,0,0,8941,8941,8941,8941,8941,8941,8941,8941,8941,8941,
0,8941,0,0,0,0,0,0,0,0,8941,0,0,0,0,0,0,0,0,0,0,0,0,0,0,0,0,0,0,0,0,0,0,0,0,0,0,8941,8941,
0,8941,0,0,0,0,0,0,0,0,8941,0,0,0,0,0,0,0,0,0,0,0,0,0,0,0,0,0,0,0,0,0,0,0,0,0,0,0,0,
0,8941,0,0,0,0,0,0,0,0,8941,0,0,0,0,0,0,0,0,0,0,0,0,0,0,0,0,0,0,0,0,0,0,0,0,0,0,0,0,
0,8941,0,0,0,0,0,0,0,0,8941,0,0,0,0,0,0,0,0,0,0,0,0,0,0,0,0,0,0,0,0,0,0,0,0,0,0,0,0,
0,8941,0,0,0,0,0,0,0,0,8941,0,8941,8941,8941,8941,0,0,0,0,0,0,0,0,0,0,0,0,0,0,0,0,0,0,0,0,0,0,0,
0,8941,0,0,0,0,0,0,0,0,8941,8941,8941,8941,8941,8941,8941,8941,8941,8941,8941,8941,8941,8941,0,0,0,0,0,0,0,0,0,0,0,0,0,0,0,
0,8941,0,0,0,0,0,0,0,0,0,0,0,0,0,0,0,0,0,0,0,0,0,8941,8941,8941,0,0,0,0,0,0,0,0,0,0,0,0,0,
0,8941,0,0,0,0,0,0,0,0,0,0,0,0,0,0,0,0,0,0,0,0,0,8941,8941,8941,8941,0,0,0,0,0,0,0,0,0,0,0,0,
0,8941,0,0,0,0,0,0,0,0,0,0,0,0,0,0,0,0,0,0,0,0,0,0,0,0,8941,0,0,0,0,0,0,0,0,0,0,0,0,
0,8941,0,0,0,0,0,0,0,0,0,0,0,0,0,0,0,0,0,0,0,0,0,0,0,0,8941,0,0,0,0,0,0,0,0,0,0,0,0,
0,8941,0,0,0,0,0,0,0,0,0,0,0,0,0,0,0,0,0,0,0,0,0,0,0,0,8941,8941,8941,8941,0,0,0,0,0,0,0,0,0,
0,8941,0,0,0,0,0,0,0,0,0,0,0,0,0,0,0,0,0,0,0,0,0,0,0,0,0,0,0,8941,0,0,0,0,0,0,0,0,0,
0,8941,0,0,0,0,0,0,0,0,0,0,0,0,0,0,0,0,0,0,0,0,0,0,0,0,0,0,0,8941,8941,0,0,0,0,0,0,0,0,
0,8941,0,0,0,0,0,0,0,0,0,0,0,0,0,0,0,0,0,0,0,0,0,0,0,0,0,0,0,8941,8941,8941,8941,0,0,0,0,0,0,
0,8941,8941,8941,0,0,0,0,0,0,0,0,0,0,0,0,0,0,0,0,0,0,0,0,0,0,0,0,0,0,0,0,8941,8941,0,0,0,0,0,
0,0,0,8941,0,0,0,0,0,0,0,0,0,0,0,0,0,0,0,0,0,0,0,0,0,0,0,0,0,0,0,0,0,8941,0,0,0,0,0,
0,0,0,8941,8941,8941,8941,8941,0,0,0,0,0,0,0,0,0,0,0,0,0,0,0,0,0,0,0,0,0,0,0,0,0,8941,8941,8941,8941,0,0,
0,0,0,0,0,0,0,8941,8941,8941,0,0,0,0,0,0,0,0,0,0,0,0,0,0,0,0,0,0,0,0,0,0,0,8941,8941,8941,8941,0,0,
0,0,0,0,0,0,0,0,0,8941,8941,8941,8941,0,0,0,0,0,0,0,0,0,0,0,0,0,0,0,0,0,0,0,0,0,0,8941,8941,0,0,
0,0,0,0,0,0,0,0,0,0,0,0,8941,8941,8941,8941,8941,8941,8941,8941,8941,8941,0,0,0,0,0,0,0,0,0,0,0,0,0,8941,8941,0,0,
0,0,0,0,0,0,0,0,0,0,0,0,0,0,0,0,0,0,0,0,8941,8941,8941,8941,0,0,0,0,0,0,0,0,0,0,0,8941,8941,0,0,
0,0,0,0,0,0,0,0,0,0,0,0,0,0,0,0,0,0,0,0,0,0,0,8941,8941,8941,0,0,0,0,0,0,0,0,0,0,8941,0,0,
0,0,0,0,0,0,0,0,0,0,0,0,0,0,0,0,0,0,0,0,0,0,0,0,0,8941,8941,0,0,0,0,0,0,0,0,0,8941,0,0,
0,0,0,0,0,0,0,0,0,0,0,0,0,0,0,0,0,0,0,0,0,0,0,0,0,0,8941,8941,0,0,0,0,0,0,0,0,8941,0,0,
0,0,0,0,0,0,0,0,0,0,0,0,0,0,0,0,0,0,0,0,0,0,0,0,0,0,0,8941,0,0,0,0,0,0,0,0,8941,0,0,
0,0,0,0,0,0,0,0,0,0,0,0,0,0,0,0,0,0,0,0,8941,8941,0,0,0,0,0,8941,0,0,0,0,0,0,0,0,8941,0,0,
0,0,0,0,0,8941,8941,8941,8941,8941,8941,8941,8941,8941,8941,8941,8941,8941,8941,8941,8941,8941,8941,8941,0,0,0,8941,0,0,0,0,0,0,0,0,8941,8941,0,
0,0,0,0,0,8941,0,0,0,0,0,0,0,0,0,0,0,0,0,0,0,8941,8941,8941,0,0,8941,8941,0,0,0,0,0,0,0,0,8941,8941,0,
0,0,0,0,0,8941,0,0,0,0,0,0,0,0,0,0,0,0,0,0,0,0,0,8941,0,0,8941,0,0,0,0,0,0,0,0,0,8941,8941,0,
0,0,0,0,0,8941,0,0,0,0,0,0,0,0,0,0,0,0,0,0,0,0,0,8941,8941,0,8941,0,0,0,0,0,0,0,0,0,0,8941,8941,
0,0,0,0,0,8941,0,0,0,0,0,0,0,0,0,0,0,0,0,0,0,0,0,0,8941,8941,8941,0,0,0,0,0,0,0,0,0,0,8941,0,
0,0,0,0,0,8941,0,0,0,0,0,0,0,0,0,0,0,0,0,0,0,0,0,0,0,0,0,0,0,0,0,0,0,0,0,0,0,8941,0,
0,0,0,0,0,8941,0,0,0,0,0,0,0,0,0,0,0,0,0,0,0,0,0,0,0,0,0,0,0,0,0,0,0,0,0,0,8941,8941,0,
0,0,0,0,0,8941,0,0,0,0,0,0,0,0,0,0,0,0,0,0,0,0,0,0,0,0,0,0,0,0,0,0,0,0,0,8941,8941,0,0,
0,0,0,0,0,8941,0,0,0,0,0,0,0,0,0,0,0,0,0,0,0,0,0,0,0,0,0,0,0,0,0,0,0,0,0,8941,8941,0,0,
0,0,0,0,0,8941,0,0,0,0,0,0,0,0,0,0,0,0,0,0,0,0,0,0,0,0,0,0,0,0,0,0,0,0,8941,8941,0,0,0,
0,0,0,0,0,8941,0,0,0,0,0,0,0,0,0,0,0,0,0,0,0,0,0,0,0,8941,8941,8941,8941,8941,8941,8941,8941,8941,8941,0,0,0,0,
0,0,0,0,0,8941,0,0,0,0,0,0,0,0,0,0,0,0,0,0,0,0,0,0,8941,8941,0,0,0,0,0,8941,8941,8941,0,0,0,0,0,
0,0,0,0,8941,8941,0,0,8941,8941,8941,8941,8941,8941,8941,8941,8941,8941,8941,8941,0,0,0,8941,8941,0,0,0,8941,8941,8941,8941,0,8941,0,0,0,0,0,
0,0,8941,8941,8941,8941,0,8941,8941,8941,0,0,0,0,0,0,0,0,0,8941,8941,0,8941,8941,0,0,0,8941,8941,0,0,0,0,0,8941,0,0,0,0,
0,8941,8941,8941,0,8941,8941,8941,0,0,0,0,0,0,0,0,0,0,0,0,8941,8941,8941,0,0,0,0,8941,0,0,0,0,0,0,8941,8941,0,0,0,
0,8941,8941,0,0,8941,8941,8941,0,0,0,0,0,0,0,0,0,0,0,8941,8941,0,8941,0,0,0,0,8941,0,0,0,0,0,0,0,0,8941,8941,0,
0,8941,8941,0,0,8941,0,0,0,0,0,0,0,0,0,0,0,0,0,0,0,0,8941,0,0,0,8941,8941,0,0,0,0,0,0,0,0,0,8941,8941,
0,8941,8941,0,0,8941,8941,8941,8941,8941,8941,8941,8941,8941,8941,8941,8941,8941,8941,8941,8941,8941,8941,0,0,0,8941,0,0,0,0,0,0,0,0,0,0,0,8941,
0,0,8941,0,0,8941,0,0,0,0,0,0,0,0,0,0,0,0,0,0,0,0,8941,0,0,8941,8941,0,0,0,0,0,0,0,0,0,0,0,0,
0,0,8941,0,0,8941,0,0,0,0,0,0,0,0,0,0,0,0,0,0,0,0,8941,0,0,8941,0,0,0,0,0,0,0,0,0,0,0,0,0,
0,0,8941,0,0,8941,0,0,0,0,0,0,0,0,0,0,0,0,0,0,0,0,8941,0,8941,8941,0,0,0,0,0,0,0,0,0,0,0,0,0,
0,0,8941,0,0,8941,0,0,0,0,0,0,0,0,0,0,0,0,0,0,0,0,8941,0,8941,0,0,0,0,0,0,0,0,0,0,0,0,0,0,
0,0,8941,0,0,8941,0,0,0,0,0,0,0,0,0,0,0,0,0,0,0,0,8941,0,8941,0,0,0,0,0,0,0,0,0,0,0,0,0,0,
0,0,8941,0,0,8941,0,0,0,0,0,0,0,0,0,0,0,0,0,0,0,0,8941,0,8941,0,0,0,0,0,0,0,0,0,0,0,0,0,0,
0,0,8941,8941,0,8941,0,0,0,0,0,0,0,0,0,0,0,0,0,0,0,0,8941,8941,8941,0,0,0,0,0,0,0,0,0,0,0,0,0,0,
0,0,0,8941,8941,8941,0,0,0,0,0,0,0,0,0,0,0,0,0,0,0,0,8941,8941,0,0,0,0,0,0,0,0,0,0,0,0,0,0,0,
0,0,0,0,8941,8941,8941,8941,8941,8941,8941,8941,0,0,0,8941,8941,8941,8941,8941,8941,8941,8941,8941,0,0,0,0,0,0,0,0,0,0,0,0,0,0,0,
0,0,0,8941,8941,8941,8941,8941,8941,8941,8941,8941,0,0,0,8941,8941,8941,8941,8941,8941,8941,0,0,0,0,0,0,0,0,0,0,0,0,0,0,0,0,0
</data>
 </layer>
 <layer name="BunnyExtCollision" width="39" height="57" visible="0">
  <data encoding="csv">
0,0,0,0,0,0,0,0,0,0,0,0,0,0,0,0,0,0,0,0,0,0,0,0,0,0,0,0,0,0,0,0,0,0,0,0,0,0,0,
0,0,0,0,0,0,0,0,0,0,0,0,0,0,0,0,0,0,0,0,0,0,0,0,0,0,0,0,0,0,0,0,0,0,0,0,0,0,0,
0,0,0,0,0,0,0,0,0,0,0,0,0,0,0,0,0,0,0,0,0,0,0,0,0,0,0,0,0,0,0,0,0,0,0,0,0,0,0,
0,0,0,0,0,0,0,0,0,0,0,0,0,0,0,0,0,0,0,0,0,0,0,0,0,0,0,0,0,0,0,0,0,0,0,0,0,0,0,
0,0,0,0,0,0,0,0,0,0,0,0,0,0,0,0,0,0,0,0,0,0,0,0,0,0,0,0,0,0,0,0,0,0,0,0,0,0,0,
0,0,0,0,0,0,0,0,0,0,0,0,0,0,0,0,0,0,0,0,0,0,0,0,0,0,0,0,0,0,0,0,0,0,0,0,0,0,0,
0,0,0,0,0,0,0,0,0,0,0,0,0,0,0,0,0,0,0,0,0,0,0,0,0,0,0,0,0,0,0,0,0,0,0,0,0,0,0,
0,0,0,0,0,0,0,0,0,0,0,0,0,0,0,0,0,0,0,0,0,0,0,0,0,0,0,0,0,0,0,0,0,0,0,0,0,0,0,
0,0,0,0,0,0,0,0,0,0,0,0,0,0,0,0,0,0,0,0,0,0,0,0,0,0,0,0,0,0,0,0,0,0,0,0,0,0,0,
0,0,0,0,0,0,0,0,0,0,0,0,0,0,0,0,0,0,0,0,0,0,0,0,0,0,0,0,0,0,0,0,0,0,0,0,0,0,0,
0,0,0,0,0,0,0,0,0,0,0,0,0,0,0,0,0,0,0,0,0,0,0,0,0,0,0,0,0,0,0,0,0,0,0,0,0,0,0,
0,0,0,0,0,0,0,0,0,0,0,0,0,0,0,0,0,0,0,0,0,0,0,0,0,0,0,0,0,0,0,0,0,0,0,0,0,0,0,
0,0,0,0,0,0,0,0,0,0,0,0,0,0,0,0,0,0,0,0,0,0,0,0,0,0,0,0,0,0,0,0,0,0,0,0,0,0,0,
0,0,0,0,0,0,0,0,0,0,0,0,0,0,0,0,0,0,0,0,0,0,0,0,0,0,0,0,0,0,0,0,0,0,0,0,0,0,0,
0,0,0,0,0,0,0,0,0,0,0,0,0,0,0,0,0,0,0,0,0,0,0,0,0,0,0,0,0,0,0,0,0,0,0,0,0,0,0,
0,0,0,0,0,0,0,0,0,0,0,0,0,0,0,0,0,0,0,0,0,0,0,0,0,0,0,0,0,0,0,0,0,0,0,0,0,0,0,
0,0,0,0,0,0,0,0,0,0,0,0,0,0,0,0,0,0,0,0,0,0,0,0,0,0,0,0,0,0,0,0,0,0,0,0,0,0,0,
0,0,0,0,0,0,0,0,0,0,0,0,0,0,0,0,0,0,0,0,0,0,0,0,0,0,0,0,0,0,0,0,0,0,0,0,0,0,0,
0,0,0,0,0,0,0,0,0,0,0,0,0,0,0,0,0,0,0,0,0,0,0,0,0,0,0,0,0,0,0,0,0,0,0,0,0,0,0,
0,0,0,0,0,0,0,0,0,0,0,0,0,0,0,0,0,0,0,0,0,0,0,0,0,0,0,0,0,0,0,0,0,0,0,0,0,0,0,
0,0,0,0,0,0,0,0,0,0,0,0,0,0,0,0,0,0,0,0,0,0,0,0,0,0,0,0,0,0,0,0,0,0,0,0,0,0,0,
0,0,0,0,0,0,0,0,0,0,0,0,0,0,0,0,0,0,0,0,0,0,0,0,0,0,0,0,0,0,0,0,0,0,0,0,0,0,0,
0,0,0,0,0,0,0,0,0,0,0,0,0,0,0,0,0,0,0,0,0,0,0,0,0,0,0,0,0,0,0,0,0,0,0,0,0,0,0,
0,0,0,0,0,0,0,0,0,0,0,0,0,0,0,0,0,0,0,0,0,0,0,0,0,0,0,0,0,0,0,0,0,0,0,0,0,0,0,
0,0,0,0,0,0,0,0,0,0,0,0,0,0,0,0,0,0,0,0,0,0,0,0,0,0,0,0,0,0,0,0,0,0,0,0,0,0,0,
0,0,0,0,0,0,0,0,0,0,0,0,0,0,0,0,0,0,0,0,0,0,0,0,0,0,0,0,0,0,0,0,0,0,0,0,0,0,0,
0,0,0,0,0,0,0,0,0,0,0,0,0,0,0,0,0,0,0,0,0,0,0,0,0,0,0,0,0,0,0,0,0,0,0,0,0,0,0,
0,0,0,0,0,0,0,0,0,0,0,0,0,0,0,0,0,0,0,0,0,0,0,0,0,0,0,0,0,0,0,0,0,0,0,0,0,0,0,
0,0,0,0,0,0,0,0,0,0,0,0,0,0,0,0,0,0,0,0,0,0,0,0,0,0,0,0,0,0,0,0,0,0,0,0,0,0,0,
0,0,0,0,0,0,0,0,0,0,0,0,0,0,0,0,0,0,0,0,0,0,0,0,0,0,0,0,0,0,0,0,0,0,0,0,0,0,0,
0,0,0,0,0,0,0,0,0,0,0,0,0,0,0,0,0,0,0,0,0,0,0,0,0,0,0,0,0,0,0,0,0,0,0,0,0,0,0,
0,0,0,0,0,0,0,0,0,0,0,0,0,0,0,0,0,0,0,0,0,0,0,0,0,0,0,0,0,0,0,0,0,0,0,0,0,0,0,
0,0,0,0,0,0,0,0,0,0,0,0,0,0,0,0,0,0,0,0,0,0,0,0,0,0,0,0,0,0,0,0,0,0,0,0,0,0,0,
0,0,0,0,0,0,0,0,0,0,0,0,0,0,0,0,0,0,0,0,0,0,0,0,0,0,0,0,0,0,0,0,0,0,0,0,0,0,0,
0,0,0,0,0,0,0,0,0,0,0,0,0,0,0,0,0,0,0,0,0,0,0,0,0,0,0,0,0,0,0,0,0,0,0,0,0,0,0,
0,0,0,0,0,0,0,0,0,0,0,0,0,0,0,0,0,0,0,0,0,0,0,0,0,0,0,0,0,0,0,0,0,0,0,0,0,0,0,
0,0,0,0,0,0,0,0,0,0,0,0,0,0,0,0,0,0,0,0,0,0,0,0,0,0,0,0,0,0,0,0,0,0,0,0,0,0,0,
0,0,0,0,0,0,0,0,0,0,0,0,0,0,0,0,0,0,0,0,0,0,0,0,0,0,0,0,0,0,0,0,0,0,0,0,0,0,0,
0,0,0,0,0,0,0,0,0,0,0,0,0,0,0,0,0,0,0,0,0,0,0,0,0,0,0,0,0,0,0,0,0,0,0,0,0,0,0,
0,0,0,0,0,0,0,0,0,0,0,0,0,0,0,0,0,0,0,0,0,0,0,0,0,0,0,0,0,0,0,0,0,0,0,0,0,0,0,
0,0,0,0,0,0,0,0,0,0,0,0,0,0,0,0,0,0,0,0,0,0,0,0,0,0,0,0,0,0,0,0,0,0,0,0,0,0,0,
0,0,0,0,0,0,0,0,0,0,0,0,0,0,0,0,0,0,0,0,0,0,0,0,0,0,0,0,0,0,0,0,0,0,0,0,0,0,0,
0,0,0,0,0,0,0,0,0,0,0,0,0,0,0,0,0,0,0,0,0,0,0,0,0,0,0,0,0,0,0,0,0,0,0,0,0,0,0,
0,0,0,0,0,0,0,0,0,0,0,0,0,0,0,0,0,0,0,0,0,0,0,0,0,0,0,0,0,0,0,0,0,0,0,0,0,0,0,
0,0,0,0,0,0,0,0,0,0,0,0,0,0,0,0,0,0,0,0,0,0,0,0,0,0,0,0,0,0,0,0,0,0,0,0,0,0,0,
0,0,0,0,0,0,0,0,0,0,0,0,0,0,0,0,0,0,0,0,0,0,0,0,0,0,0,0,0,0,0,0,0,0,0,0,0,0,0,
0,0,0,0,0,0,0,0,0,0,0,0,0,0,0,0,0,0,0,0,0,0,0,0,0,0,0,0,0,0,0,0,0,0,0,0,0,0,0,
0,0,0,0,0,0,0,0,0,0,0,0,0,0,0,0,0,0,0,0,0,0,0,0,0,0,0,0,0,0,0,0,0,0,0,0,0,0,0,
0,0,0,0,0,0,0,0,0,0,0,0,0,0,0,0,0,0,0,0,0,0,0,0,0,0,0,0,0,0,0,0,0,0,0,0,0,0,0,
0,0,0,0,0,0,0,0,0,0,0,0,0,0,0,0,0,0,0,0,0,0,0,0,0,0,0,0,0,0,0,0,0,0,0,0,0,0,0,
0,0,0,0,0,0,0,0,0,0,0,0,0,0,0,0,0,0,0,0,0,0,0,0,0,0,0,0,0,0,0,0,0,0,0,0,0,0,0,
0,0,0,0,0,0,0,0,0,0,0,0,0,0,0,0,0,0,0,0,0,0,0,0,0,0,0,0,0,0,0,0,0,0,0,0,0,0,0,
0,0,0,0,0,0,0,0,0,0,0,0,0,0,0,0,0,0,0,0,0,0,0,0,0,0,0,0,0,0,0,0,0,0,0,0,0,0,0,
0,0,0,0,0,0,0,0,0,0,0,0,0,0,0,0,0,0,0,0,0,0,0,0,0,0,0,0,0,0,0,0,0,0,0,0,0,0,0,
0,0,0,0,0,0,0,0,0,0,0,0,0,0,0,0,0,0,0,0,0,0,0,0,0,0,0,0,0,0,0,0,0,0,0,0,0,0,0,
0,0,0,0,0,0,0,0,0,0,0,0,0,0,0,0,0,0,0,0,0,0,0,0,0,0,0,0,0,0,0,0,0,0,0,0,0,0,0,
0,0,0,0,0,0,0,0,0,0,0,0,0,0,0,0,0,0,0,0,0,0,0,0,0,0,0,0,0,0,0,0,0,0,0,0,0,0,0
</data>
 </layer>
</map>
