<?xml version="1.0" encoding="UTF-8"?>
<map version="1.0" tiledversion="1.1.5" orientation="orthogonal" renderorder="right-down" width="28" height="30" tilewidth="32" tileheight="32" infinite="0" nextobjectid="258">
 <properties>
  <property name="battlebg" type="file" value="../art/backgrounds/datacenter1f.png"/>
  <property name="onload" type="file" value="actions/forgotten_b_leaves.lua"/>
  <property name="regionName" value="Robotropolis"/>
  <property name="sectorName" value="???"/>
 </properties>
 <tileset firstgid="1" source="datacenter_interior.tsx"/>
 <tileset firstgid="1191" source="robotropolis.tsx"/>
 <tileset firstgid="4691" source="forest2.tsx"/>
 <tileset firstgid="9866" source="knotholeindoors.tsx"/>
 <layer name="backwall" width="28" height="30">
  <data encoding="csv">
1522,1521,1522,1521,1522,1521,1522,1521,1522,1521,1522,1521,1522,1521,1522,1521,1522,1521,1522,1521,1522,1521,1522,1521,1522,1521,1522,1521,
1522,1521,1522,1521,1522,1521,1522,1521,1522,1521,1522,1521,1522,1521,1522,1521,1522,1521,1522,1521,1522,1521,1522,1521,1522,1521,1522,1521,
1522,1521,1522,1521,1522,1521,1522,1521,1522,1521,1522,1521,1522,1521,1522,1521,1522,1521,1522,1521,1522,1521,1522,1521,1522,1521,1522,1521,
1522,1521,1522,1521,1522,1521,1522,1521,1522,1521,1522,1521,1522,1521,1522,1521,1522,1521,1522,1521,1522,1521,1522,1521,1522,1521,1522,1521,
1522,1521,1522,1521,1522,1521,1522,1521,1522,1521,1522,1521,1522,1521,1522,1521,1522,1521,1522,1521,1522,1521,1522,1521,1522,1521,1522,1521,
1522,1521,1522,1521,1522,1521,1522,1521,1522,1521,1522,1521,1522,1521,1522,1521,1522,1521,1522,1521,1522,1521,1522,1521,1522,1521,1522,1521,
1522,1521,1522,1521,1522,1521,1522,1521,1522,1521,1522,1521,1522,1521,1522,1521,1522,1521,1522,1521,1522,1521,1522,1521,1522,1521,1522,1521,
1522,1521,1522,1521,1522,1521,1522,1521,1522,1521,1522,1521,1522,1521,1522,1521,1522,1521,1522,1521,1522,1521,1522,1521,1522,1521,1522,1521,
1522,1521,1522,1521,1522,1521,1522,1521,1522,1521,1522,1521,1522,1521,1522,1521,1522,1521,1522,1521,1522,1521,1522,1521,1522,1521,1522,1521,
1522,1521,1522,1521,1522,1521,1522,1521,1522,1521,1522,1521,1522,1521,1522,1521,1522,1521,1522,1521,1522,1521,1522,1521,1522,1521,1522,1521,
1522,1521,1522,1521,1522,1521,1522,1521,1522,1521,1522,1521,1522,1521,1522,1521,1522,1521,1522,1521,1522,1521,1522,1521,1522,1521,1522,1521,
1522,1521,1522,1521,1522,1521,1522,1521,1522,1521,1522,1521,1522,1521,1522,1521,1522,1521,1522,1521,1522,1521,1522,1521,1522,1521,1522,1521,
1522,1521,1522,1521,1522,1521,1522,1521,1522,1521,1522,1521,1522,1521,1522,1521,1522,1521,1522,1521,1522,1521,1522,1521,1522,1521,1522,1521,
1522,1521,1522,1521,1522,1521,1522,1521,1522,1521,1522,1521,1522,1521,1522,1521,1522,1521,1522,1521,1522,1521,1522,1521,1522,1521,1522,1521,
1522,1521,1522,1521,1522,1521,1522,1521,1522,1521,1522,1521,1522,1521,1522,1521,1522,1521,1522,1521,1522,1521,1522,1521,1522,1521,1522,1521,
1522,1521,1522,1521,1522,1521,1522,1521,1522,1521,1522,1521,1522,1521,1522,1521,1522,1521,1522,1521,1522,1521,1522,1521,1522,1521,1522,1521,
1522,1521,1522,1521,1522,1521,1522,1521,1522,1521,1522,1521,1522,1521,1522,1521,1522,1521,1522,1521,1522,1521,1522,1521,1522,1521,1522,1521,
1522,1521,1522,1521,1522,1521,1522,1521,1522,1521,1522,1521,1522,1521,1522,1521,1522,1521,1522,1521,1522,1521,1522,1521,1522,1521,1522,1521,
1522,1521,1522,1521,1522,1521,1522,1521,1522,1521,1522,1521,1522,1521,1522,1521,1522,1521,1522,1521,1522,1521,1522,1521,1522,1521,1522,1521,
1522,1521,1522,1521,1522,1521,1522,1521,1522,1521,1522,1521,1522,1521,1522,1521,1522,1521,1522,1521,1522,1521,1522,1521,1522,1521,1522,1521,
1522,1521,1522,1521,1522,1521,1522,1521,1522,1521,1522,1521,1522,1521,1522,1521,1522,1521,1522,1521,1522,1521,1522,1521,1522,1521,1522,1521,
1522,1521,1522,1521,1522,1521,1522,1521,1522,1521,1522,1521,1522,1521,1522,1521,1522,1521,1522,1521,1522,1521,1522,1521,1522,1521,1522,1521,
0,0,0,0,0,0,0,0,0,0,0,0,0,0,0,0,0,0,0,0,0,0,0,0,0,0,0,0,
0,0,0,0,0,0,0,0,0,0,0,0,0,0,0,0,0,0,0,0,0,0,0,0,0,0,0,0,
0,0,0,0,0,0,0,0,0,0,0,0,0,0,0,0,0,0,0,0,0,0,0,0,0,0,0,0,
0,0,0,0,0,0,0,0,0,0,0,0,0,0,0,0,0,0,0,0,0,0,0,0,0,0,0,0,
0,0,0,0,0,0,0,0,0,0,0,0,0,0,0,0,0,0,0,0,0,0,0,0,0,0,0,0,
0,0,0,0,0,0,0,0,0,0,0,0,0,0,0,0,0,0,0,0,0,0,0,0,0,0,0,0,
0,0,0,0,0,0,0,0,0,0,0,0,0,0,0,0,0,0,0,0,0,0,0,0,0,0,0,0,
0,0,0,0,0,0,0,0,0,0,0,0,0,0,0,0,0,0,0,0,0,0,0,0,0,0,0,0
</data>
 </layer>
 <layer name="backwallshadow" width="28" height="30">
  <data encoding="csv">
3597,3597,3597,3597,3597,3597,3597,3597,3597,3597,3597,3597,3597,3597,3597,3597,3597,3597,3597,3597,3597,3597,3597,3597,3597,3597,3597,3597,
3597,3597,3597,3597,3597,3597,3597,3597,3597,3597,3597,3597,3597,3597,3597,3597,3597,3597,3597,3597,3597,3597,3597,3597,3597,3597,3597,3597,
3597,3597,3597,3597,3597,3597,3597,3597,3597,3597,3597,3597,3597,3597,3597,3597,3597,3597,3597,3597,3597,3597,3597,3597,3597,3597,3597,3597,
3597,3597,3597,3597,3597,3597,3597,3597,3597,3597,3597,3597,3597,3597,3597,3597,3597,3597,3597,3597,3597,3597,3597,3597,3597,3597,3597,3597,
3597,3597,3597,3597,3597,3597,3597,3597,3597,3597,3597,3597,3597,3597,3597,3597,3597,3597,3597,3597,3597,3597,3597,3597,3597,3597,3597,3597,
3597,3597,3597,3597,3597,3597,3597,3597,3597,3597,3597,3597,3597,3597,3597,3597,3597,3597,3597,3597,3597,3597,3597,3597,3597,3597,3597,3597,
3597,3597,3597,3597,3597,3597,3597,3597,3597,3597,3597,3597,3597,3597,3597,3597,3597,3597,3597,3597,3597,3597,3597,3597,3597,3597,3597,3597,
3597,3597,3597,3597,3597,3597,3597,3597,3597,3597,3597,3597,3597,3597,3597,3597,3597,3597,3597,3597,3597,3597,3597,3597,3597,3597,3597,3597,
3597,3597,3597,3597,3597,3597,3597,3597,3597,3597,3597,3597,3597,3597,3597,3597,3597,3597,3597,3597,3597,3597,3597,3597,3597,3597,3597,3597,
3597,3597,3597,3597,3597,3597,3597,3597,3597,3597,3597,3597,3597,3597,3597,3597,3597,3597,3597,3597,3597,3597,3597,3597,3597,3597,3597,3597,
3597,3597,3597,3597,3597,3597,3597,3597,3597,3597,3597,3597,3597,3597,3597,3597,3597,3597,3597,3597,3597,3597,3597,3597,3597,3597,3597,3597,
3597,3597,3597,3597,3597,3597,3597,3597,3597,3597,3597,3597,3597,3597,3597,3597,3597,3597,3597,3597,3597,3597,3597,3597,3597,3597,3597,3597,
3597,3597,3597,3597,3597,3597,3597,3597,3597,3597,3597,3597,3597,3597,3597,3597,3597,3597,3597,3597,3597,3597,3597,3597,3597,3597,3597,3597,
3597,3597,3597,3597,3597,3597,3597,3597,3597,3597,3597,3597,3597,3597,3597,3597,3597,3597,3597,3597,3597,3597,3597,3597,3597,3597,3597,3597,
3597,3597,3597,3597,3597,3597,3597,3597,3597,3597,3597,3597,3597,3597,3597,3597,3597,3597,3597,3597,3597,3597,3597,3597,3597,3597,3597,3597,
3597,3597,3597,3597,3597,3597,3597,3597,3597,3597,3597,3597,3597,3597,3597,3597,3597,3597,3597,3597,3597,3597,3597,3597,3597,3597,3597,3597,
3597,3597,3597,3597,3597,3597,3597,3597,3597,3597,3597,3597,3597,3597,3597,3597,3597,3597,3597,3597,3597,3597,3597,3597,3597,3597,3597,3597,
3597,3597,3597,3597,3597,3597,3597,3597,3597,3597,3597,3597,3597,3597,3597,3597,3597,3597,3597,3597,3597,3597,3597,3597,3597,3597,3597,3597,
3597,3597,3597,3597,3597,3597,3597,3597,3597,3597,3597,3597,3597,3597,3597,3597,3597,3597,3597,3597,3597,3597,3597,3597,3597,3597,3597,3597,
3597,3597,3597,3597,3597,3597,3597,3597,3597,3597,3597,3597,3597,3597,3597,3597,3597,3597,3597,3597,3597,3597,3597,3597,3597,3597,3597,3597,
3597,3597,3597,3597,3597,3597,3597,3597,3597,3597,3597,3597,3597,3597,3597,3597,3597,3597,3597,3597,3597,3597,3597,3597,3597,3597,3597,3597,
3597,3597,3597,3597,3597,3597,3597,3597,3597,3597,3597,3597,3597,3597,3597,3597,3597,3597,3597,3597,3597,3597,3597,3597,3597,3597,3597,3597,
0,0,0,0,0,0,0,0,0,0,0,0,0,0,0,0,0,0,0,0,0,0,0,0,0,0,0,0,
0,0,0,0,0,0,0,0,0,0,0,0,0,0,0,0,0,0,0,0,0,0,0,0,0,0,0,0,
0,0,0,0,0,0,0,0,0,0,0,0,0,0,0,0,0,0,0,0,0,0,0,0,0,0,0,0,
0,0,0,0,0,0,0,0,0,0,0,0,0,0,0,0,0,0,0,0,0,0,0,0,0,0,0,0,
0,0,0,0,0,0,0,0,0,0,0,0,0,0,0,0,0,0,0,0,0,0,0,0,0,0,0,0,
0,0,0,0,0,0,0,0,0,0,0,0,0,0,0,0,0,0,0,0,0,0,0,0,0,0,0,0,
0,0,0,0,0,0,0,0,0,0,0,0,0,0,0,0,0,0,0,0,0,0,0,0,0,0,0,0,
0,0,0,0,0,0,0,0,0,0,0,0,0,0,0,0,0,0,0,0,0,0,0,0,0,0,0,0
</data>
 </layer>
 <layer name="above" width="28" height="30">
  <data encoding="csv">
0,0,0,0,0,0,0,0,0,0,0,0,4204,4205,4205,4206,0,0,0,0,0,0,0,0,0,0,0,0,
0,0,0,0,0,0,0,0,0,0,0,0,4204,4205,4205,4206,0,0,0,0,0,0,0,0,0,0,0,0,
0,0,0,0,0,0,0,0,0,0,0,0,4204,4205,4205,4206,0,0,0,0,0,0,0,0,0,0,0,0,
0,0,0,0,0,0,0,0,0,0,0,0,4204,4205,4205,4206,0,0,0,0,0,0,0,0,0,0,0,0,
0,0,0,0,0,0,0,0,4102,4103,4103,4103,4103,4103,4103,4103,4103,4103,4103,4104,0,0,0,0,0,0,0,0,
0,0,0,0,0,0,0,0,4137,4138,4138,4138,4138,4138,4138,4138,4138,4138,4138,4139,0,0,0,0,0,0,0,0,
0,0,0,0,0,0,0,0,4137,4138,4138,4138,4138,4138,4138,4138,4138,4138,4138,4139,0,0,0,0,0,0,0,0,
0,0,0,0,0,0,0,0,4137,4138,4138,4138,4138,4138,4138,4138,4138,4138,4138,4139,0,0,0,0,0,0,0,0,
0,0,0,0,0,0,0,0,4137,4138,4138,4138,4138,4138,4138,4138,4138,4138,4138,4139,0,0,0,0,0,0,0,0,
0,0,0,0,0,0,0,0,4137,4138,4138,4138,4138,4138,4138,4138,4138,4138,4138,4139,0,0,0,0,0,0,0,0,
0,0,0,0,0,0,0,0,4137,4138,4138,4138,4138,4138,4138,4138,4138,4138,4138,4139,0,0,0,0,0,0,0,0,
0,0,0,0,0,0,0,0,4137,4138,4138,4138,4138,4138,4138,4138,4138,4138,4138,4139,0,0,0,0,0,0,0,0,
0,0,0,0,0,0,0,0,4137,4138,4138,4138,4138,4138,4138,4138,4138,4138,4138,4139,0,0,0,0,0,0,0,0,
0,0,0,0,0,0,0,0,4172,4173,4173,4173,4173,4173,4173,4173,4173,4173,4173,4174,0,0,0,0,0,0,0,0,
0,0,0,0,0,0,0,0,3540,3540,3540,3540,3540,3540,3540,3540,3540,3540,3540,3540,0,0,0,0,0,0,0,0,
0,0,0,0,0,0,0,0,3575,3575,3575,3575,3575,3575,3575,3575,3575,3575,3575,3575,0,0,0,0,0,0,0,0,
0,0,0,0,0,0,0,0,3575,3575,3575,3575,3575,3575,3575,3575,3575,3575,3575,3575,0,0,0,0,0,0,0,0,
0,0,0,0,0,0,0,0,3575,3575,3575,3575,3575,3575,3575,3575,3575,3575,3575,3575,0,0,0,0,0,0,0,0,
0,0,0,0,0,0,0,0,3575,3575,3575,3575,3575,3575,3575,3575,3575,3575,3575,3575,0,0,0,0,0,0,0,0,
0,0,0,0,0,0,0,0,3575,3575,3575,3575,3575,3575,3575,3575,3575,3575,3575,3575,0,0,0,0,0,0,0,0,
0,0,0,0,0,0,0,0,3575,3575,3575,3575,3575,3575,3575,3575,3575,3575,3575,3575,0,0,0,0,0,0,0,0,
0,0,0,0,0,0,0,0,3575,3575,3575,3575,3575,3575,3575,3575,3575,3575,3575,3575,0,0,0,0,0,0,0,0,
0,0,0,0,0,0,0,0,0,0,0,0,0,0,0,0,0,0,0,0,0,0,0,0,0,0,0,0,
0,0,0,0,0,0,0,0,0,0,0,0,0,0,0,0,0,0,0,0,0,0,0,0,0,0,0,0,
0,0,0,0,0,0,0,0,0,0,0,0,0,0,0,0,0,0,0,0,0,0,0,0,0,0,0,0,
0,0,0,0,0,0,0,0,0,0,0,0,0,0,0,0,0,0,0,0,0,0,0,0,0,0,0,0,
0,0,0,0,0,0,0,0,0,0,0,0,0,0,0,0,0,0,0,0,0,0,0,0,0,0,0,0,
0,0,0,0,0,0,0,0,0,0,0,0,0,0,0,0,0,0,0,0,0,0,0,0,0,0,0,0,
0,0,0,0,0,0,0,0,0,0,0,0,0,0,0,0,0,0,0,0,0,0,0,0,0,0,0,0,
0,0,0,0,0,0,0,0,0,0,0,0,0,0,0,0,0,0,0,0,0,0,0,0,0,0,0,0
</data>
 </layer>
 <layer name="above2" width="28" height="30">
  <data encoding="csv">
0,0,0,0,0,0,0,0,0,0,0,0,0,0,0,0,0,0,0,0,0,0,0,0,0,0,0,0,
4087,4088,4089,0,0,0,0,0,0,0,0,0,0,0,0,0,0,0,0,0,0,0,0,0,0,4082,4083,4084,
4122,4123,4124,0,0,0,0,0,0,0,0,0,0,0,0,0,0,0,0,0,0,0,0,0,0,4117,4118,4119,
4157,4158,4159,4087,4088,4089,0,0,0,0,0,0,0,0,0,0,0,0,0,0,0,0,4082,4083,4084,4152,4153,4154,
4192,4193,4194,4122,4123,4124,0,0,0,0,0,0,0,0,0,0,0,0,0,0,0,0,4117,4118,4119,4187,4188,4189,
4227,4228,4229,4157,4158,4159,4087,4088,4089,0,0,0,0,0,0,0,0,0,0,4082,4083,4084,4152,4153,4154,4222,4223,4224,
4262,4263,4264,4192,4193,4194,4122,4123,4124,0,0,0,0,0,0,0,0,0,0,4117,4118,4119,4187,4188,4189,4257,0,0,
0,0,0,4227,4228,4229,4157,4158,4159,0,0,0,0,0,0,0,0,0,0,4152,4153,4154,4222,4223,4224,0,0,0,
0,0,0,4262,4263,4264,4192,4193,4194,0,0,0,0,0,0,0,0,0,0,4187,4188,4189,4257,0,0,0,0,0,
0,0,0,0,0,0,4227,4228,4229,0,0,0,0,0,0,0,0,0,0,4222,4223,4224,0,0,0,0,0,0,
0,0,0,0,0,0,4262,4263,4264,0,0,0,0,0,0,0,0,0,0,0,0,0,0,0,0,0,0,0,
0,0,0,0,0,0,0,0,0,0,0,0,0,0,0,0,0,0,0,0,0,0,0,0,0,0,0,0,
0,0,0,0,0,0,0,0,0,0,0,0,0,0,0,0,0,0,0,0,0,0,0,0,0,0,0,0,
0,0,0,0,0,0,0,0,0,0,0,0,0,0,0,0,0,0,0,0,0,0,0,0,0,0,0,0,
0,0,0,0,0,0,0,0,0,0,0,4293,4294,4295,4296,4296,4297,0,0,0,0,0,0,0,0,0,0,0,
0,0,0,0,0,0,0,0,0,0,0,4328,4329,4330,4331,4331,4332,0,0,0,0,0,0,0,0,0,0,0,
0,0,0,0,0,0,0,0,0,0,0,4363,4364,4365,4366,4366,4367,0,0,0,0,0,0,0,0,0,0,0,
0,0,0,0,0,0,0,0,0,0,0,4398,4399,4400,4401,4401,4402,0,0,0,0,0,0,0,0,0,0,0,
0,0,0,0,0,0,0,0,0,0,0,4433,4434,4435,4436,4436,4437,0,0,0,0,0,0,0,0,0,0,0,
0,0,0,0,0,0,0,0,0,0,0,4468,4469,4470,4471,4471,4472,0,0,0,0,0,0,0,0,0,0,0,
0,0,0,0,0,0,0,0,0,0,0,4503,4504,4505,4506,4506,4507,0,0,0,0,0,0,0,0,0,0,0,
0,0,0,0,0,0,0,0,0,0,0,4363,4364,4365,4366,4366,4367,0,0,0,0,0,0,0,0,0,0,0,
0,0,0,0,0,0,0,0,0,0,0,0,0,0,0,0,0,0,0,0,0,0,0,0,0,0,0,0,
0,0,0,0,0,0,0,0,0,0,0,0,0,0,0,0,0,0,0,0,0,0,0,0,0,0,0,0,
0,0,0,0,0,0,0,0,0,0,0,0,0,0,0,0,0,0,0,0,0,0,0,0,0,0,0,0,
0,0,0,0,0,0,0,0,0,0,0,0,0,0,0,0,0,0,0,0,0,0,0,0,0,0,0,0,
0,0,0,0,0,0,0,0,0,0,0,0,0,0,0,0,0,0,0,0,0,0,0,0,0,0,0,0,
0,0,0,0,0,0,0,0,0,0,0,0,0,0,0,0,0,0,0,0,0,0,0,0,0,0,0,0,
0,0,0,0,0,0,0,0,0,0,0,0,0,0,0,0,0,0,0,0,0,0,0,0,0,0,0,0,
0,0,0,0,0,0,0,0,0,0,0,0,0,0,0,0,0,0,0,0,0,0,0,0,0,0,0,0
</data>
 </layer>
 <layer name="above3" width="28" height="30">
  <data encoding="csv">
0,0,0,0,0,0,0,0,3575,3575,3575,0,0,0,0,0,0,3575,3575,3575,0,0,0,0,0,0,0,0,
0,0,0,0,0,0,0,0,3575,3575,3575,0,0,0,0,0,0,3575,3575,3575,0,0,0,0,0,0,0,0,
0,0,0,0,0,0,0,0,3575,3575,3575,0,0,0,0,0,0,3575,3575,3575,0,0,0,0,0,0,0,0,
0,0,0,0,0,0,0,0,3575,3575,3575,0,0,0,0,0,0,3575,3575,3575,0,0,0,0,0,0,0,0,
0,0,0,0,0,0,0,0,0,0,0,0,0,0,0,0,0,0,0,0,0,0,0,0,0,0,0,0,
0,0,0,0,0,0,0,0,0,0,0,0,0,0,0,0,0,0,0,0,0,0,0,0,0,0,0,0,
0,0,0,0,0,0,0,0,0,0,0,0,0,0,0,0,0,0,0,0,0,0,0,0,0,0,0,0,
0,0,0,0,0,0,0,0,0,0,0,0,0,0,0,0,0,0,0,0,0,0,0,0,0,0,0,0,
0,0,0,0,0,0,0,0,0,0,0,0,0,0,0,0,0,0,0,0,0,0,0,0,0,0,0,0,
0,0,0,0,0,0,0,0,0,0,0,0,0,0,0,0,0,0,0,0,0,0,0,0,0,0,0,0,
0,0,0,0,0,0,0,0,0,0,0,0,0,0,0,0,0,0,0,0,0,0,0,0,0,0,0,0,
0,0,0,0,0,0,0,0,0,0,0,0,0,0,0,0,0,0,0,0,0,0,0,0,0,0,0,0,
0,0,0,0,0,0,0,0,0,0,0,0,0,0,0,0,0,0,0,0,0,0,0,0,0,0,0,0,
0,0,0,0,0,0,0,0,0,0,0,0,0,0,0,0,0,0,0,0,0,0,0,0,0,0,0,0,
0,0,0,0,0,0,0,0,0,0,0,0,0,0,0,0,0,0,0,0,0,0,0,0,0,0,0,0,
0,0,0,0,0,0,0,0,0,0,0,0,0,0,0,0,0,0,0,0,0,0,0,0,0,0,0,0,
0,0,0,0,0,0,0,0,0,0,0,0,0,0,0,0,0,0,0,0,0,0,0,0,0,0,0,0,
0,0,0,0,0,0,0,0,0,0,0,0,0,0,0,0,0,0,0,0,0,0,0,0,0,0,0,0,
0,0,0,0,0,0,0,0,0,0,0,0,0,0,0,0,0,0,0,0,0,0,0,0,0,0,0,0,
0,0,0,0,0,0,0,0,0,0,0,0,0,0,0,0,0,0,0,0,0,0,0,0,0,0,0,0,
0,0,0,0,0,0,0,0,0,0,0,0,0,0,0,0,0,0,0,0,0,0,0,0,0,0,0,0,
0,0,0,0,0,0,0,0,0,0,0,0,0,0,0,0,0,0,0,0,0,0,0,0,0,0,0,0,
0,0,0,0,0,0,0,0,0,0,0,0,0,0,0,0,0,0,0,0,0,0,0,0,0,0,0,0,
0,0,0,0,0,0,0,0,0,0,0,0,0,0,0,0,0,0,0,0,0,0,0,0,0,0,0,0,
0,0,0,0,0,0,0,0,0,0,0,0,0,0,0,0,0,0,0,0,0,0,0,0,0,0,0,0,
0,0,0,0,0,0,0,0,0,0,0,0,0,0,0,0,0,0,0,0,0,0,0,0,0,0,0,0,
0,0,0,0,0,0,0,0,0,0,0,0,0,0,0,0,0,0,0,0,0,0,0,0,0,0,0,0,
0,0,0,0,0,0,0,0,0,0,0,0,0,0,0,0,0,0,0,0,0,0,0,0,0,0,0,0,
0,0,0,0,0,0,0,0,0,0,0,0,0,0,0,0,0,0,0,0,0,0,0,0,0,0,0,0,
0,0,0,0,0,0,0,0,0,0,0,0,0,0,0,0,0,0,0,0,0,0,0,0,0,0,0,0
</data>
 </layer>
 <layer name="shadow" width="28" height="30" opacity="0.8">
  <data encoding="csv">
0,0,0,0,0,0,0,0,0,0,0,0,0,0,0,0,0,0,0,0,0,0,0,0,0,0,0,0,
0,0,0,0,0,0,0,0,0,0,0,0,0,0,0,0,0,0,0,0,0,0,0,0,0,0,0,0,
0,0,0,0,0,0,0,0,0,0,0,0,0,0,0,0,0,0,0,0,0,0,0,0,0,0,0,0,
0,0,0,0,0,0,0,0,0,0,0,0,0,0,0,0,0,0,0,0,0,0,0,0,0,0,0,0,
0,0,0,0,0,0,0,0,0,0,0,0,0,0,0,0,0,0,0,0,0,0,0,0,0,0,0,0,
0,0,0,0,0,0,0,0,0,0,0,0,0,0,0,0,0,0,0,0,0,0,0,0,0,0,0,0,
0,0,0,0,0,0,0,0,0,0,0,0,0,0,0,0,0,0,0,0,0,0,0,0,0,0,0,0,
0,0,0,0,0,0,0,0,0,0,0,0,0,0,0,0,0,0,0,0,0,0,0,0,0,0,0,0,
0,0,0,0,0,0,0,0,0,0,0,0,0,0,0,0,0,0,0,0,0,0,0,0,0,0,0,0,
0,0,0,0,0,0,0,0,0,0,0,0,0,0,0,0,0,0,0,0,0,0,0,0,0,0,0,0,
0,0,0,0,0,0,0,0,0,0,0,0,0,0,0,0,0,0,0,0,0,0,0,0,0,0,0,0,
0,0,0,0,0,0,0,0,0,0,0,0,0,0,0,0,0,0,0,0,0,0,0,0,0,0,0,0,
0,0,0,0,0,0,0,0,0,0,0,0,0,0,0,0,0,0,0,0,0,0,0,0,0,0,0,0,
0,0,0,0,0,0,0,0,0,0,0,0,0,0,0,0,0,0,0,0,0,0,0,0,0,0,0,0,
0,0,0,0,0,0,0,0,0,0,0,0,0,0,0,0,0,0,0,0,0,0,0,0,0,0,0,0,
0,0,0,0,0,0,0,0,0,0,0,0,0,0,0,0,0,0,0,0,0,0,0,0,0,0,0,0,
0,0,0,0,0,0,0,0,0,0,0,0,0,0,0,0,0,0,0,0,0,0,0,0,0,0,0,0,
0,0,0,0,0,0,0,0,0,0,0,0,0,0,0,0,0,0,0,0,0,0,0,0,0,0,0,0,
0,0,0,0,0,0,0,0,0,0,0,0,0,0,0,0,0,0,0,0,0,0,0,0,0,0,0,0,
0,0,0,0,0,0,0,0,0,0,0,0,0,0,0,0,0,0,0,0,0,0,0,0,0,0,0,0,
0,0,0,0,0,0,0,0,0,0,0,3632,3632,3632,3632,3632,3632,0,0,0,0,0,0,0,0,0,0,0,
0,0,0,0,0,0,0,0,3632,3632,3632,3632,3632,3632,3632,3632,3632,3632,3632,3632,0,0,0,0,0,0,0,0,
0,0,0,0,0,0,0,0,0,0,0,0,0,0,0,0,0,0,0,0,0,0,0,0,0,0,0,0,
0,0,0,0,0,0,0,0,0,0,0,0,0,0,0,0,0,0,0,0,0,0,0,0,0,0,0,0,
0,0,0,0,0,0,0,0,0,0,0,0,0,0,0,0,0,0,0,0,0,0,0,0,0,0,0,0,
0,0,0,0,0,0,0,0,0,0,0,0,0,0,0,0,0,0,0,0,0,0,0,0,0,0,0,0,
0,0,0,0,0,0,0,0,0,0,0,0,0,0,0,0,0,0,0,0,0,0,0,0,0,0,0,0,
0,0,0,0,0,0,0,0,0,0,0,0,0,0,0,0,0,0,0,0,0,0,0,0,0,0,0,0,
0,0,0,0,0,0,0,0,0,0,0,0,0,0,0,0,0,0,0,0,0,0,0,0,0,0,0,0,
0,0,0,0,0,0,0,0,0,0,0,0,0,0,0,0,0,0,0,0,0,0,0,0,0,0,0,0
</data>
 </layer>
 <objectgroup name="objects">
  <object id="247" name="B" type="BasicNPC" gid="1227" x="416" y="416" width="64" height="64">
   <properties>
    <property name="align" value="bottom_center"/>
    <property name="defaultAnim" value="idleup"/>
    <property name="hidden" type="bool" value="false"/>
    <property name="ignoreMapCollision" type="bool" value="true"/>
    <property name="nocollision" type="bool" value="true"/>
    <property name="sprite" type="file" value="../art/sprites/b.png"/>
   </properties>
  </object>
  <object id="248" name="Sonic" type="BasicNPC" gid="1227" x="352" y="544" width="64" height="64">
   <properties>
    <property name="align" value="bottom_center"/>
    <property name="defaultAnim" value="idleup"/>
    <property name="hidden" type="bool" value="false"/>
    <property name="ignoreMapCollision" type="bool" value="true"/>
    <property name="nocollision" type="bool" value="true"/>
    <property name="sprite" type="file" value="../art/sprites/sonic.png"/>
   </properties>
  </object>
  <object id="249" name="Sally" type="BasicNPC" gid="1227" x="480" y="544" width="64" height="64">
   <properties>
    <property name="align" value="bottom_center"/>
    <property name="defaultAnim" value="idleup"/>
    <property name="hidden" type="bool" value="false"/>
    <property name="ignoreMapCollision" type="bool" value="true"/>
    <property name="nocollision" type="bool" value="true"/>
    <property name="sprite" type="file" value="../art/sprites/sally.png"/>
   </properties>
  </object>
  <object id="250" name="P" type="BasicNPC" gid="1227" x="416" y="320" width="64" height="64">
   <properties>
    <property name="align" value="bottom_center"/>
    <property name="defaultAnim" value="pdown"/>
    <property name="hidden" type="bool" value="false"/>
    <property name="nocollision" type="bool" value="true"/>
    <property name="sprite" type="file" value="../art/sprites/p.png"/>
   </properties>
  </object>
  <object id="251" name="T" type="BasicNPC" gid="1227" x="512" y="352" width="64" height="64">
   <properties>
    <property name="align" value="bottom_center"/>
    <property name="defaultAnim" value="tdown"/>
    <property name="hidden" type="bool" value="false"/>
    <property name="nocollision" type="bool" value="true"/>
    <property name="sprite" type="file" value="../art/sprites/p.png"/>
   </properties>
  </object>
  <object id="252" name="J" type="BasicNPC" gid="1227" x="320" y="352" width="64" height="64">
   <properties>
    <property name="align" value="bottom_center"/>
    <property name="defaultAnim" value="jdown"/>
    <property name="hidden" type="bool" value="false"/>
    <property name="nocollision" type="bool" value="true"/>
    <property name="sprite" type="file" value="../art/sprites/p.png"/>
   </properties>
  </object>
  <object id="253" name="R" type="BasicNPC" gid="1227" x="320" y="416" width="64" height="64">
   <properties>
    <property name="align" value="bottom_center"/>
    <property name="defaultAnim" value="idleright"/>
    <property name="hidden" type="bool" value="false"/>
    <property name="nocollision" type="bool" value="true"/>
    <property name="sprite" type="file" value="../art/sprites/r.png"/>
   </properties>
  </object>
  <object id="254" name="B_WP" type="BasicNPC" gid="1227" x="416" y="960" width="64" height="64">
   <properties>
    <property name="align" value="bottom_center"/>
    <property name="nocollision" type="bool" value="true"/>
   </properties>
  </object>
  <object id="255" name="Sonic_WP" type="BasicNPC" gid="1227" x="352" y="960" width="64" height="64">
   <properties>
    <property name="align" value="bottom_center"/>
    <property name="nocollision" type="bool" value="true"/>
   </properties>
  </object>
  <object id="256" name="Sally_WP" type="BasicNPC" gid="1227" x="480" y="960" width="64" height="64">
   <properties>
    <property name="align" value="bottom_center"/>
    <property name="nocollision" type="bool" value="true"/>
   </properties>
  </object>
  <object id="257" name="Spawn 1" type="Player" gid="1227" x="448" y="480" width="32" height="32">
   <properties>
    <property name="orientation" value="up"/>
   </properties>
  </object>
 </objectgroup>
 <layer name="Collision" width="28" height="30" visible="0">
  <data encoding="csv">
0,0,0,0,0,0,0,0,0,0,0,0,0,0,0,0,0,0,0,0,0,0,0,0,0,0,0,0,
0,0,0,0,0,0,0,0,0,0,0,0,0,0,0,0,0,0,0,0,0,0,0,0,0,0,0,0,
0,0,0,0,0,0,0,0,0,0,0,0,0,0,0,0,0,0,0,0,0,0,0,0,0,0,0,0,
0,0,0,0,0,0,0,0,0,0,0,0,0,0,0,0,0,0,0,0,0,0,0,0,0,0,0,0,
0,0,0,0,0,0,0,0,0,0,0,0,0,0,0,0,0,0,0,0,0,0,0,0,0,0,0,0,
0,0,0,0,0,0,0,0,0,0,0,0,0,0,0,0,0,0,0,0,0,0,0,0,0,0,0,0,
0,0,0,0,0,0,0,0,0,0,0,0,0,0,0,0,0,0,0,0,0,0,0,0,0,0,0,0,
0,0,0,0,0,0,0,0,0,0,0,0,0,0,0,0,0,0,0,0,0,0,0,0,0,0,0,0,
0,0,0,0,0,0,0,0,0,0,0,0,0,0,0,0,0,0,0,0,0,0,0,0,0,0,0,0,
0,0,0,0,0,0,0,0,0,0,0,0,0,0,0,0,0,0,0,0,0,0,0,0,0,0,0,0,
0,0,0,0,0,0,0,0,0,0,0,0,0,0,0,0,0,0,0,0,0,0,0,0,0,0,0,0,
0,0,0,0,0,0,0,0,0,0,0,0,0,0,0,0,0,0,0,0,0,0,0,0,0,0,0,0,
0,0,0,0,0,0,0,0,0,0,0,0,0,0,0,0,0,0,0,0,0,0,0,0,0,0,0,0,
0,0,0,0,0,0,0,0,0,0,0,0,0,0,0,0,0,0,0,0,0,0,0,0,0,0,0,0,
0,0,0,0,0,0,0,0,0,0,0,0,0,0,0,0,0,0,0,0,0,0,0,0,0,0,0,0,
0,0,0,0,0,0,0,0,0,0,0,0,0,0,0,0,0,0,0,0,0,0,0,0,0,0,0,0,
0,0,0,0,0,0,0,0,0,0,0,0,0,0,0,0,0,0,0,0,0,0,0,0,0,0,0,0,
0,0,0,0,0,0,0,0,0,0,0,0,0,0,0,0,0,0,0,0,0,0,0,0,0,0,0,0,
0,0,0,0,0,0,0,0,0,0,0,0,0,0,0,0,0,0,0,0,0,0,0,0,0,0,0,0,
0,0,0,0,0,0,0,0,0,0,0,0,0,0,0,0,0,0,0,0,0,0,0,0,0,0,0,0,
0,0,0,0,0,0,0,0,0,0,0,0,0,0,0,0,0,0,0,0,0,0,0,0,0,0,0,0,
0,0,0,0,0,0,0,0,0,0,0,0,0,0,0,0,0,0,0,0,0,0,0,0,0,0,0,0,
0,0,0,0,0,0,0,0,0,0,0,0,0,0,0,0,0,0,0,0,0,0,0,0,0,0,0,0,
0,0,0,0,0,0,0,0,0,0,0,0,0,0,0,0,0,0,0,0,0,0,0,0,0,0,0,0,
0,0,0,0,0,0,0,0,0,0,0,0,0,0,0,0,0,0,0,0,0,0,0,0,0,0,0,0,
0,0,0,0,0,0,0,0,0,0,0,0,0,0,0,0,0,0,0,0,0,0,0,0,0,0,0,0,
0,0,0,0,0,0,0,0,0,0,0,0,0,0,0,0,0,0,0,0,0,0,0,0,0,0,0,0,
0,0,0,0,0,0,0,0,0,0,0,0,0,0,0,0,0,0,0,0,0,0,0,0,0,0,0,0,
0,0,0,0,0,0,0,0,0,0,0,0,0,0,0,0,0,0,0,0,0,0,0,0,0,0,0,0,
0,0,0,0,0,0,0,0,0,0,0,0,0,0,0,0,0,0,0,0,0,0,0,0,0,0,0,0
</data>
 </layer>
</map>
