<?xml version="1.0" encoding="UTF-8"?>
<map version="1.0" tiledversion="1.1.5" orientation="orthogonal" renderorder="right-down" width="110" height="84" tilewidth="32" tileheight="32" infinite="0" nextobjectid="270">
 <properties>
  <property name="battlebg" type="file" value="../art/backgrounds/datacenter1f.png"/>
  <property name="onload" type="file" value="actions/forgotten_hideout.lua"/>
  <property name="regionName" value="Robotropolis"/>
  <property name="sectorName" value="???"/>
 </properties>
 <tileset firstgid="1" source="datacenter_interior.tsx"/>
 <tileset firstgid="1191" source="robotropolis.tsx"/>
 <tileset firstgid="4691" source="forest2.tsx"/>
 <tileset firstgid="9866" source="knotholeindoors.tsx"/>
 <layer name="ground" width="110" height="84">
  <data encoding="csv">
0,0,0,0,0,0,0,0,0,0,0,0,0,0,0,0,0,0,0,0,0,0,0,0,0,0,0,0,0,0,6154,6154,6154,6154,6154,6154,6154,6154,6154,6154,6154,6154,6154,6154,6154,6154,6154,6154,6154,6154,6154,6154,6154,6154,6154,6154,6154,6154,6154,6154,6154,6154,6154,6154,6154,6154,6154,6154,6154,6154,6154,6154,6154,6154,6154,6154,6154,6154,6154,6154,0,0,0,0,0,0,0,0,0,0,0,0,0,0,0,0,0,0,0,0,0,0,0,0,0,0,0,0,0,0,
0,0,0,0,0,0,0,0,0,0,0,0,0,0,0,0,0,0,0,0,0,0,0,0,0,0,0,0,0,0,6154,6154,6154,6154,6154,6154,6154,6154,6154,6154,6154,6154,6154,6154,6154,6154,6154,6154,6154,6154,6154,6154,6154,6154,6154,6154,6154,6154,6154,6154,6154,6154,6154,6154,6154,6154,6154,6154,6154,6154,6154,6154,6154,6154,6154,6154,6154,6154,6154,6154,0,0,0,0,0,0,0,0,0,0,0,0,0,0,0,0,0,0,0,0,0,0,0,0,0,0,0,0,0,0,
0,0,0,0,0,0,0,0,0,0,0,0,0,0,0,0,0,0,0,0,0,0,0,0,0,0,0,0,0,0,6154,6154,6154,6154,6154,6154,6154,6154,6154,6154,6154,6154,6154,6154,6154,6154,6154,6154,6154,6154,6154,6154,6154,6154,6154,6154,6154,6154,6154,6154,6154,6154,6154,6154,6154,6154,6154,6154,6154,6154,6154,6154,6154,6154,6154,6154,6154,6154,6154,6154,0,0,0,0,0,0,0,0,0,0,0,0,0,0,0,0,0,0,0,0,0,0,0,0,0,0,0,0,0,0,
0,0,0,0,0,0,0,0,0,0,0,0,0,0,0,0,0,0,0,0,0,0,0,0,0,0,0,0,0,0,6154,6154,6154,6154,6154,6154,6154,6154,6154,6154,6154,6154,6154,6154,6154,6154,6154,6154,6154,6154,6154,6154,6154,6154,6154,6154,6154,6154,6154,6154,6154,6154,6154,6154,6154,6154,6154,6154,6154,6154,6154,6154,6154,6154,6154,6154,6154,6154,6154,6154,0,0,0,0,0,0,0,0,0,0,0,0,0,0,0,0,0,0,0,0,0,0,0,0,0,0,0,0,0,0,
0,0,0,0,0,0,0,0,0,0,0,0,0,0,0,0,0,0,0,0,0,0,0,0,0,0,0,0,0,0,6154,6154,6154,6154,6154,6154,6154,6154,6154,6154,6154,6154,6154,6154,6154,6154,6154,6154,6154,6154,6154,6154,6154,6154,6154,6154,6154,6154,6154,6154,6154,6154,6154,6154,6154,6154,6154,6154,6154,6154,6154,6154,6154,6154,6154,6154,6154,6154,6154,6154,0,0,0,0,0,0,0,0,0,0,0,0,0,0,0,0,0,0,0,0,0,0,0,0,0,0,0,0,0,0,
0,0,0,0,0,0,0,0,0,0,0,0,0,0,0,0,0,0,0,0,0,0,0,0,0,0,0,0,0,0,6154,6154,6154,6154,6154,6154,6154,6154,6154,6154,6154,6154,6154,6154,6154,6154,6154,6154,6154,6154,6154,6154,6154,6154,6154,6154,6154,6154,6154,6154,6154,6154,6154,6154,6154,6154,6154,6154,6154,6154,6154,6154,6154,6154,6154,6154,6154,6154,6154,6154,0,0,0,0,0,0,0,0,0,0,0,0,0,0,0,0,0,0,0,0,0,0,0,0,0,0,0,0,0,0,
0,0,0,0,0,0,0,0,0,0,0,0,0,0,0,0,0,0,0,0,0,0,0,0,0,0,0,0,0,0,6154,6154,6154,6154,6154,6154,6154,6154,6154,6154,6154,6154,6154,6154,6154,6154,6154,6154,6154,6154,6154,6154,6154,6154,6154,6154,6154,6154,6154,6154,6154,6154,6154,6154,6154,6154,6154,6154,6154,6154,6154,6154,6154,6154,6154,6154,6154,6154,6154,6154,0,0,0,0,0,0,0,0,0,0,0,0,0,0,0,0,0,0,0,0,0,0,0,0,0,0,0,0,0,0,
0,0,0,0,0,0,0,0,0,0,0,0,0,0,0,0,0,0,0,0,0,0,0,0,0,0,0,0,0,0,6154,6154,6154,6154,6154,6154,6154,6154,6154,6154,6154,6154,6154,6154,6154,6154,6154,6154,6154,6154,6154,6154,6154,6154,6154,6154,6154,6154,6154,6154,6154,6154,6154,6154,6154,6154,6154,6154,6154,6154,6154,6154,6154,6154,6154,6154,6154,6154,6154,6154,0,0,0,0,0,0,0,0,0,0,0,0,0,0,0,0,0,0,0,0,0,0,0,0,0,0,0,0,0,0,
0,0,0,0,0,0,0,0,0,0,0,0,0,0,0,0,0,0,0,0,0,0,0,0,0,0,0,0,0,0,6154,6154,6154,6154,6154,6154,6154,6154,6154,6154,6154,6154,6154,6154,6154,6154,6154,6154,6154,6154,6154,6154,6154,6154,6154,6154,6154,6154,6154,6154,6154,6154,6154,6154,6154,6154,6154,6154,6154,6154,6154,6154,6154,6154,6154,6154,6154,6154,6154,6154,0,0,0,0,0,0,0,0,0,0,0,0,0,0,0,0,0,0,0,0,0,0,0,0,0,0,0,0,0,0,
0,0,0,0,0,0,0,0,0,0,0,0,0,0,0,0,0,0,0,0,0,0,0,0,0,0,0,0,0,0,6154,6154,6154,6154,6154,6154,6154,6154,6154,6154,6154,6154,6154,6154,6154,6154,6154,6154,6154,6154,6154,6154,6154,6154,6154,6154,6154,6154,6154,6154,6154,6154,6154,6154,6154,6154,6154,6154,6154,6154,6154,6154,6154,6154,6154,6154,6154,6154,6154,6154,0,0,0,0,0,0,0,0,0,0,0,0,0,0,0,0,0,0,0,0,0,0,0,0,0,0,0,0,0,0,
0,0,0,0,0,0,0,0,0,0,0,0,0,0,0,0,0,0,0,0,0,0,0,0,0,0,0,0,0,0,6154,6154,6154,6154,6154,6154,6154,6154,6154,6154,6154,6154,6154,6154,6154,6154,6154,6154,6154,6154,6154,6154,6154,6154,6154,6154,6154,6154,6154,6154,6154,6154,6154,6154,6154,6154,6154,6154,6154,6154,6154,6154,6154,6154,6154,6154,6154,6154,6154,6154,0,0,0,0,0,0,0,0,0,0,0,0,0,0,0,0,0,0,0,0,0,0,0,0,0,0,0,0,0,0,
0,0,0,0,0,0,0,0,0,0,0,0,0,0,0,0,0,0,0,0,0,0,0,0,0,0,0,0,0,0,6154,6154,6154,6154,6154,6154,6154,6154,6154,6154,6154,6154,6154,6154,6154,6154,6154,6154,6154,6154,6154,6154,6154,6154,6154,6154,6154,6154,6154,6154,6154,6154,6154,6154,6154,6154,6154,6154,6154,6154,6154,6154,6154,6154,6154,6154,6154,6154,6154,6154,0,0,0,0,0,0,0,0,0,0,0,0,0,0,0,0,0,0,0,0,0,0,0,0,0,0,0,0,0,0,
0,0,0,0,0,0,0,0,0,0,0,0,0,0,0,0,0,0,0,0,0,0,0,0,0,0,0,0,0,0,6154,6154,6154,6154,6154,6154,6154,6154,6154,6154,6154,6154,6154,6154,6154,6154,6154,6154,6154,6154,6154,6154,6154,6154,6154,6154,6154,6154,6154,6154,6154,6154,6154,6154,6154,6154,6154,6154,6154,6154,6154,6154,6154,6154,6154,6154,6154,6154,6154,6154,0,0,0,0,0,0,0,0,0,0,0,0,0,0,0,0,0,0,0,0,0,0,0,0,0,0,0,0,0,0,
0,0,0,0,0,0,0,0,0,0,0,0,0,0,0,0,0,0,0,0,0,0,0,0,0,0,0,0,0,0,6154,6154,6154,6154,6154,6154,6154,6154,6154,6154,6154,6154,6154,6154,6154,6154,6154,6154,6154,6154,6154,6154,6154,6154,6154,6154,6154,6154,6154,6154,6154,6154,6154,6154,6154,6154,6154,6154,6154,6154,6154,6154,6154,6154,6154,6154,6154,6154,6154,6154,0,0,0,0,0,0,0,0,0,0,0,0,0,0,0,0,0,0,0,0,0,0,0,0,0,0,0,0,0,0,
0,0,0,0,0,0,0,0,0,0,0,0,0,0,0,0,0,0,0,0,0,0,0,0,0,0,0,0,0,0,6154,6154,6154,6154,6154,6154,6154,6154,6154,6154,6154,6154,6154,6154,6154,6154,6154,6154,6154,6154,6154,6154,6154,6154,6154,6154,6154,6154,6154,6154,6154,6154,6154,6154,6154,6154,6154,6154,6154,6154,6154,6154,6154,6154,6154,6154,6154,6154,6154,6154,0,0,0,0,0,0,0,0,0,0,0,0,0,0,0,0,0,0,0,0,0,0,0,0,0,0,0,0,0,0,
0,0,0,0,0,0,0,0,0,0,0,0,0,0,0,0,0,0,0,0,0,0,0,0,0,0,0,0,0,0,6154,6154,6154,6154,6154,6154,6154,6154,6154,6154,6154,6154,6154,6154,6154,6154,6154,6154,6154,6154,6154,6154,6154,6154,6154,6154,6154,6154,6154,6154,6154,6154,6154,6154,6154,6154,6154,6154,6154,6154,6154,6154,6154,6154,6154,6154,6154,6154,6154,6154,0,0,0,0,0,0,0,0,0,0,0,0,0,0,0,0,0,0,0,0,0,0,0,0,0,0,0,0,0,0,
0,0,0,0,0,0,0,0,0,0,0,0,0,0,0,0,0,0,0,0,0,0,0,0,0,0,0,0,0,0,6154,6154,6154,6154,6154,6154,6154,6154,6154,6154,6154,6154,6154,6154,6154,6154,6154,6154,6154,6154,6154,6154,6154,6154,6154,6154,6154,6154,6154,6154,6154,6154,6154,6154,6154,6154,6154,6154,6154,6154,6154,6154,6154,6154,6154,6154,6154,6154,6154,6154,0,0,0,0,0,0,0,0,0,0,0,0,0,0,0,0,0,0,0,0,0,0,0,0,0,0,0,0,0,0,
0,0,0,0,0,0,0,0,0,0,0,0,0,0,0,0,0,0,0,0,0,0,0,0,0,0,0,0,0,0,6154,6154,6154,6154,6154,6154,6154,6154,6154,6154,6154,6154,6154,6154,6154,6154,6154,6154,6154,6154,6154,6154,6154,6154,6154,6154,6154,6154,6154,6154,6154,6154,6154,6154,6154,6154,6154,6154,6154,6154,6154,6154,6154,6154,6154,6154,6154,6154,6154,6154,0,0,0,0,0,0,0,0,0,0,0,0,0,0,0,0,0,0,0,0,0,0,0,0,0,0,0,0,0,0,
0,0,0,0,0,0,0,0,0,0,0,0,0,0,0,0,0,0,0,0,0,0,0,0,0,0,0,0,0,0,6154,6154,6154,6154,6154,6154,6154,6154,6154,6154,6154,6154,6154,6154,6154,6154,6154,6154,6154,6154,6154,6154,6154,6154,6154,6154,6154,6154,6154,6154,6154,6154,6154,6154,6154,6154,6154,6154,6154,6154,6154,6154,6154,6154,6154,6154,6154,6154,6154,6154,0,0,0,0,0,0,0,0,0,0,0,0,0,0,0,0,0,0,0,0,0,0,0,0,0,0,0,0,0,0,
0,0,0,0,0,0,0,0,0,0,0,0,0,0,0,0,0,0,0,0,0,0,0,0,0,0,0,0,0,0,6154,6154,6154,6154,6154,6154,6154,6154,6154,6154,6154,6154,6154,6154,6154,6154,6154,6154,6154,6154,6154,6154,6154,6154,6154,6154,6154,6154,6154,6154,6154,6154,6154,6154,6154,6154,6154,6154,6154,6154,6154,6154,6154,6154,6154,6154,6154,6154,6154,6154,0,0,0,0,0,0,0,0,0,0,0,0,0,0,0,0,0,0,0,0,0,0,0,0,0,0,0,0,0,0,
0,0,0,0,0,0,0,0,0,0,0,0,0,0,0,0,0,0,0,0,0,0,0,0,0,0,0,0,0,0,6154,6154,6154,6154,6154,6154,6154,6154,6154,6154,6154,6154,6154,6154,6154,6154,6154,6154,6154,6154,6154,6154,6154,6154,6154,6154,6154,6154,6154,6154,6154,6154,6154,6154,6154,6154,6154,6154,6154,6154,6154,6154,6154,6154,6154,6154,6154,6154,6154,6154,0,0,0,0,0,0,0,0,0,0,0,0,0,0,0,0,0,0,0,0,0,0,0,0,0,0,0,0,0,0,
0,0,0,0,0,0,0,0,0,0,0,0,0,0,0,0,0,0,0,0,0,0,0,0,0,0,0,0,0,0,6154,6154,6154,6154,6154,6154,6154,6154,6154,6154,6154,6154,6154,6154,6154,6154,6154,6154,6154,6154,6154,6154,6154,6154,6154,6154,6154,6154,6154,6154,6154,6154,6154,6154,6154,6154,6154,6154,6154,6154,6154,6154,6154,6154,6154,6154,6154,6154,6154,6154,0,0,0,0,0,0,0,0,0,0,0,0,0,0,0,0,0,0,0,0,0,0,0,0,0,0,0,0,0,0,
0,0,0,0,0,0,0,0,0,0,0,0,0,0,0,0,0,0,0,0,0,0,0,0,0,0,0,0,0,0,6154,6154,6154,6154,6154,6154,6154,6154,6154,6154,6154,6154,6154,6154,6154,6154,6154,6154,6154,6154,6154,6154,6154,6154,6154,6154,6154,6154,6154,6154,6154,6154,6154,6154,6154,6154,6154,6154,6154,6154,6154,6154,6154,6154,6154,6154,6154,6154,6154,6154,0,0,0,0,0,0,0,0,0,0,0,0,0,0,0,0,0,0,0,0,0,0,0,0,0,0,0,0,0,0,
0,0,0,0,0,0,0,0,0,0,0,0,0,0,0,0,0,0,0,0,0,0,0,0,0,0,0,0,0,0,6154,6154,6154,6154,6154,6154,6154,6154,6154,6154,6154,6154,6154,6154,6154,6154,6154,6154,6154,6154,6154,6154,6154,6154,6154,6154,6154,6154,6154,6154,6154,6154,6154,6154,6154,6154,6154,6154,6154,6154,6154,6154,6154,6154,6154,6154,6154,6154,6154,6154,0,0,0,0,0,0,0,0,0,0,0,0,0,0,0,0,0,0,0,0,0,0,0,0,0,0,0,0,0,0,
0,0,0,0,0,0,0,0,0,0,0,0,0,0,0,0,0,0,0,0,0,0,0,0,0,0,0,0,0,0,6154,6154,6154,6154,6154,6154,6154,6154,6154,6154,6154,6154,6154,6154,6154,6154,6154,6154,6154,6154,6154,6154,6154,6154,6154,6154,6154,6154,6154,6154,6154,6154,6154,6154,6154,6154,6154,6154,6154,6154,6154,6154,6154,6154,6154,6154,6154,6154,6154,6154,0,0,0,0,0,0,0,0,0,0,0,0,0,0,0,0,0,0,0,0,0,0,0,0,0,0,0,0,0,0,
0,0,0,0,0,0,0,0,0,0,0,0,0,0,0,0,0,0,0,0,0,0,0,0,0,0,0,0,0,0,6154,6154,6154,6154,6154,6154,6154,6154,6154,6154,6154,6154,6154,6154,6154,6154,6154,6154,6154,6154,6154,6154,6154,6154,6154,6154,6154,6154,6154,6154,6154,6154,6154,6154,6154,6154,6154,6154,6154,6154,6154,6154,6154,6154,6154,6154,6154,6154,6154,6154,0,0,0,0,0,0,0,0,0,0,0,0,0,0,0,0,0,0,0,0,0,0,0,0,0,0,0,0,0,0,
0,0,0,0,0,0,0,0,0,0,0,0,0,0,0,0,0,0,0,0,0,0,0,0,0,0,0,0,0,0,6154,6154,6154,6154,6154,6154,6154,6154,6154,6154,6154,6154,6154,6154,6154,6154,6154,6154,6154,6154,6154,6154,6154,6154,6154,6154,6154,6154,6154,6154,6154,6154,6154,6154,6154,6154,6154,6154,6154,6154,6154,6154,6154,6154,6154,6154,6154,6154,6154,6154,0,0,0,0,0,0,0,0,0,0,0,0,0,0,0,0,0,0,0,0,0,0,0,0,0,0,0,0,0,0,
0,0,0,0,0,0,0,0,0,0,0,0,0,0,0,0,0,0,0,0,0,0,0,0,0,0,0,0,0,0,6154,6154,6154,6154,6154,6154,6154,6154,6154,6154,6154,6154,6154,6154,6154,6154,6154,6154,6154,6154,6154,6154,6154,6154,6154,6154,6154,6154,6154,6154,6154,6154,6154,6154,6154,6154,6154,6154,6154,6154,6154,6154,6154,6154,6154,6154,6154,6154,6154,6154,0,0,0,0,0,0,0,0,0,0,0,0,0,0,0,0,0,0,0,0,0,0,0,0,0,0,0,0,0,0,
0,0,0,0,0,0,0,0,0,0,0,0,0,0,0,0,0,0,0,0,0,0,0,0,0,0,0,0,0,0,6154,6154,6154,6154,6154,6154,6154,6154,6154,6154,6154,6154,6154,6154,6154,6154,6154,6154,6154,6154,6154,6154,6154,6154,6154,6154,6154,6154,6154,6154,6154,6154,6154,6154,6154,6154,6154,6154,6154,6154,6154,6154,6154,6154,6154,6154,6154,6154,6154,6154,0,0,0,0,0,0,0,0,0,0,0,0,0,0,0,0,0,0,0,0,0,0,0,0,0,0,0,0,0,0,
0,0,0,0,0,0,0,0,0,0,0,0,0,0,0,0,0,0,0,0,0,0,0,0,0,0,0,0,0,0,6154,6154,6154,6154,6154,6154,6154,6154,6154,6154,6154,6154,6154,6154,6154,6154,6154,6154,6154,6154,6154,6154,6154,6154,6154,6154,6154,6154,6154,6154,6154,6154,6154,6154,6154,6154,6154,6154,6154,6154,6154,6154,6154,6154,6154,6154,6154,6154,6154,6154,0,0,0,0,0,0,0,0,0,0,0,0,0,0,0,0,0,0,0,0,0,0,0,0,0,0,0,0,0,0,
0,0,0,0,0,0,0,0,0,0,0,0,0,0,0,0,0,0,0,0,0,0,0,0,0,0,0,0,0,0,6154,6154,6154,6154,6154,6154,6154,6154,6154,6154,6154,6154,6154,6154,6154,6154,6154,6154,6154,6154,6154,6154,6154,6154,6154,6154,6154,6154,6154,6154,6154,6154,6154,6154,6154,6154,6154,6154,6154,6154,6154,6154,6154,6154,6154,6154,6154,6154,6154,6154,0,0,0,0,0,0,0,0,0,0,0,0,0,0,0,0,0,0,0,0,0,0,0,0,0,0,0,0,0,0,
0,0,0,0,0,0,0,0,0,0,0,0,0,0,0,0,0,0,0,0,0,0,0,0,0,0,0,0,0,0,6154,6154,6154,6154,6154,6154,6154,6154,6154,6154,6154,6154,6154,6154,6154,6154,6154,6154,6154,6154,6154,6154,6154,6154,6154,6154,6154,6154,6154,6154,6154,6154,6154,6154,6154,6154,6154,6154,6154,6154,6154,6154,6154,6154,6154,6154,6154,6154,6154,6154,0,0,0,0,0,0,0,0,0,0,0,0,0,0,0,0,0,0,0,0,0,0,0,0,0,0,0,0,0,0,
0,0,0,0,0,0,0,0,0,0,0,0,0,0,0,0,0,0,0,0,0,0,0,0,0,0,0,0,0,0,6154,6154,6154,6154,6154,6154,6154,6154,6154,6154,6154,6154,6154,6154,6154,6154,6154,6154,6154,6154,6154,6154,6154,6154,6154,6154,6154,6154,6154,6154,6154,6154,6154,6154,6154,6154,6154,6154,6154,6154,6154,6154,6154,6154,6154,6154,6154,6154,6154,6154,0,0,0,0,0,0,0,0,0,0,0,0,0,0,0,0,0,0,0,0,0,0,0,0,0,0,0,0,0,0,
0,0,0,0,0,0,0,0,0,0,0,0,0,0,0,0,0,0,0,0,0,0,0,0,0,0,0,0,0,0,6154,6154,6154,6154,6154,6154,6154,6154,6154,6154,6154,6154,6154,6154,6154,6154,6154,6154,6154,6154,6154,6154,6154,6154,6154,6154,6154,6154,6154,6154,6154,6154,6154,6154,6154,6154,6154,6154,6154,6154,6154,6154,6154,6154,6154,6154,6154,6154,6154,6154,0,0,0,0,0,0,0,0,0,0,0,0,0,0,0,0,0,0,0,0,0,0,0,0,0,0,0,0,0,0,
0,0,0,0,0,0,0,0,0,0,0,0,0,0,0,0,0,0,0,0,0,0,0,0,0,0,0,0,0,0,6154,6154,6154,6154,6154,6154,6154,6154,6154,6154,6154,6154,6154,6154,6154,6154,6154,6154,6154,6154,6154,6154,6154,6154,6154,6154,6154,6154,6154,6154,6154,6154,6154,6154,6154,6154,6154,6154,6154,6154,6154,6154,6154,6154,6154,6154,6154,6154,6154,6154,0,0,0,0,0,0,0,0,0,0,0,0,0,0,0,0,0,0,0,0,0,0,0,0,0,0,0,0,0,0,
0,0,0,0,0,0,0,0,0,0,0,0,0,0,0,0,0,0,0,0,0,0,0,0,0,0,0,0,0,0,6154,6154,6154,6154,6154,6154,6154,6154,6154,6154,6154,6154,6154,6154,6154,6154,6154,6154,6154,6154,6154,6154,6154,6154,6154,6154,6154,6154,6154,6154,6154,6154,6154,6154,6154,6154,6154,6154,6154,6154,6154,6154,6154,6154,6154,6154,6154,6154,6154,6154,0,0,0,0,0,0,0,0,0,0,0,0,0,0,0,0,0,0,0,0,0,0,0,0,0,0,0,0,0,0,
0,0,0,0,0,0,0,0,0,0,0,0,0,0,0,0,0,0,0,0,0,0,0,0,0,0,0,0,0,0,6154,6154,6154,6154,6154,6154,6154,6154,6154,6154,6154,6154,6154,6154,6154,6154,6154,6154,6154,6154,6154,6154,6154,6154,6154,6154,6154,6154,6154,6154,6154,6154,6154,6154,6154,6154,6154,6154,6154,6154,6154,6154,6154,6154,6154,6154,6154,6154,6154,6154,0,0,0,0,0,0,0,0,0,0,0,0,0,0,0,0,0,0,0,0,0,0,0,0,0,0,0,0,0,0,
0,0,0,0,0,0,0,0,0,0,0,0,0,0,0,0,0,0,0,0,0,0,0,0,0,0,0,0,0,0,6154,6154,6154,6154,6154,6154,6154,6154,6154,6154,6154,6154,6154,6154,6154,6154,6154,6154,6154,6154,6154,6154,6154,6154,6154,6154,6154,6154,6154,6154,6154,6154,6154,6154,6154,6154,6154,6154,6154,6154,6154,6154,6154,6154,6154,6154,6154,6154,6154,6154,0,0,0,0,0,0,0,0,0,0,0,0,0,0,0,0,0,0,0,0,0,0,0,0,0,0,0,0,0,0,
0,0,0,0,0,0,0,0,0,0,0,0,0,0,0,0,0,0,0,0,0,0,0,0,0,0,0,0,0,0,6154,6154,6154,6154,6154,6154,6154,6154,6154,6154,6154,6154,6154,6154,6154,6154,6154,6154,6154,6154,6154,6154,6154,6154,6154,6154,6154,6154,6154,6154,6154,6154,6154,6154,6154,6154,6154,6154,6154,6154,6154,6154,6154,6154,6154,6154,6154,6154,6154,6154,0,0,0,0,0,0,0,0,0,0,0,0,0,0,0,0,0,0,0,0,0,0,0,0,0,0,0,0,0,0,
0,0,0,0,0,0,0,0,0,0,0,0,0,0,0,0,0,0,0,0,0,0,0,0,0,0,0,0,0,0,6154,6154,6154,6154,6154,6154,6154,6154,6154,6154,6154,6154,6154,6154,6154,6154,6154,6154,6154,6154,6154,6154,6154,6154,6154,6154,6154,6154,3298,3293,3294,6154,6154,6154,6154,6154,6154,6154,6154,6154,6154,6154,6154,6154,6154,6154,6154,6154,6154,6154,0,0,0,0,0,0,0,0,0,0,0,0,0,0,0,0,0,0,0,0,0,0,0,0,0,0,0,0,0,0,
0,0,0,0,0,0,0,0,0,0,0,0,0,0,0,0,0,0,0,0,0,0,0,0,0,0,0,0,0,0,6154,6154,6154,6154,6154,6154,6154,6154,6154,6154,6154,6154,6154,6154,6154,6154,6154,6154,6154,6154,6154,6154,6154,6154,6154,6154,6154,6154,6154,6154,6154,6154,6154,6154,6154,6154,6154,6154,6154,6154,6154,6154,6154,6154,6154,6154,6154,6154,6154,6154,0,0,0,0,0,0,0,0,0,0,0,0,0,0,0,0,0,0,0,0,0,0,0,0,0,0,0,0,0,0,
0,0,0,0,0,0,0,0,0,0,0,0,0,0,0,0,0,0,0,0,0,0,0,0,0,0,0,0,0,0,6154,6154,6154,6154,6154,6154,6154,6154,6154,6154,6154,6154,6154,6154,6154,6154,6154,6154,6154,6154,6154,3298,3299,3299,3294,6154,6154,6154,6154,6154,6154,6154,6154,6154,6154,6154,6154,6154,6154,6154,6154,6154,6154,6154,6154,6154,6154,6154,6154,6154,0,0,0,0,0,0,0,0,0,0,0,0,0,0,0,0,0,0,0,0,0,0,0,0,0,0,0,0,0,0,
0,0,0,0,0,0,0,0,0,0,0,0,0,0,0,0,0,0,0,0,0,0,0,0,0,0,0,0,0,0,6154,6154,6154,6154,6154,6154,6154,6154,6154,6154,6154,6154,6154,6154,6154,6154,6154,6154,6154,6154,6154,3298,3299,3299,3299,3299,3294,6154,6154,6154,6154,6154,6154,6154,6154,6154,6154,6154,6154,6154,6154,6154,6154,6154,6154,6154,6154,6154,6154,6154,0,0,0,0,0,0,0,0,0,0,0,0,0,0,0,0,0,0,0,0,0,0,0,0,0,0,0,0,0,0,
0,0,0,0,0,0,0,0,0,0,0,0,0,0,0,0,0,0,0,0,0,0,0,0,0,0,0,0,0,0,6154,6154,6154,6154,6154,6154,6154,6154,6154,6154,6154,6154,6154,6154,6154,6154,6154,6154,6154,6154,6154,3298,3299,3299,3299,3294,6154,6154,6154,6154,6154,6154,6154,6154,6154,6154,6154,6154,6154,6154,6154,6154,6154,6154,6154,6154,6154,6154,6154,6154,0,0,0,0,0,0,0,0,0,0,0,0,0,0,0,0,0,0,0,0,0,0,0,0,0,0,0,0,0,0,
0,0,0,0,0,0,0,0,0,0,0,0,0,0,0,0,0,0,0,0,0,0,0,0,0,0,0,0,0,0,6154,6154,6154,6154,6154,6154,6154,6154,6154,6154,6154,6154,6154,6154,6154,6154,6154,6154,6154,6154,6154,3298,3298,3299,3294,6154,6154,6154,6154,6154,6154,6154,6154,6154,6154,6154,6154,6154,6154,6154,6154,6154,6154,6154,6154,6154,6154,6154,6154,6154,0,0,0,0,0,0,0,0,0,0,0,0,0,0,0,0,0,0,0,0,0,0,0,0,0,0,0,0,0,0,
0,0,0,0,0,0,0,0,0,0,0,0,0,0,0,0,0,0,0,0,0,0,0,0,0,0,0,0,0,0,6154,6154,6154,6154,6154,6154,6154,6154,6154,6154,6154,6154,6154,6154,6154,6154,6154,6154,6154,6154,6154,6154,6154,6154,6154,6154,6154,6154,6154,6154,6154,6154,6154,6154,6154,6154,6154,6154,6154,6154,6154,6154,6154,6154,6154,6154,6154,6154,6154,6154,0,0,0,0,0,0,0,0,0,0,0,0,0,0,0,0,0,0,0,0,0,0,0,0,0,0,0,0,0,0,
0,0,0,0,0,0,0,0,0,0,0,0,0,0,0,0,0,0,0,0,0,0,0,0,0,0,0,0,0,0,6154,6154,6154,6154,6154,6154,6154,6154,6154,6154,6154,6154,6154,6154,6154,6154,6154,6154,6154,6154,6154,6154,6154,6154,6154,6154,6154,6154,6154,6154,6154,6154,6154,6154,6154,6154,6154,6154,6154,6154,6154,6154,6154,6154,6154,6154,6154,6154,6154,6154,0,0,0,0,0,0,0,0,0,0,0,0,0,0,0,0,0,0,0,0,0,0,0,0,0,0,0,0,0,0,
0,0,0,0,0,0,0,0,0,0,0,0,0,0,0,0,0,0,0,0,0,0,0,0,0,0,0,0,0,0,6154,6154,6154,6154,6154,6154,6154,6154,6154,6154,6154,6154,6154,6154,6154,6154,6154,6154,6154,6154,6154,6154,6154,6154,6154,6154,6154,6154,6154,6154,6154,6154,6154,6154,6154,6154,6154,6154,6154,6154,6154,6154,6154,6154,6154,6154,6154,6154,6154,6154,0,0,0,0,0,0,0,0,0,0,0,0,0,0,0,0,0,0,0,0,0,0,0,0,0,0,0,0,0,0,
0,0,0,0,0,0,0,0,0,0,0,0,0,0,0,0,0,0,0,0,0,0,0,0,0,0,0,0,0,0,6154,6154,6154,6154,6154,6154,6154,6154,6154,6154,6154,6154,6154,6154,6154,6154,6154,6154,6154,6154,6154,6154,6154,6154,6154,6154,6154,6154,6154,6154,6154,6154,6154,6154,6154,6154,6154,6154,6154,6154,6154,6154,6154,6154,6154,6154,6154,6154,6154,6154,0,0,0,0,0,0,0,0,0,0,0,0,0,0,0,0,0,0,0,0,0,0,0,0,0,0,0,0,0,0,
0,0,0,0,0,0,0,0,0,0,0,0,0,0,0,0,0,0,0,0,0,0,0,0,0,0,0,0,0,0,6154,6154,6154,6154,6154,6154,6154,6154,6154,6154,6154,6154,6154,6154,6154,6154,6154,6154,6154,6154,6154,6154,6154,6154,6154,6154,6154,6154,6154,6154,6154,6154,6154,6154,6154,6154,6154,6154,6154,6154,6154,6154,6154,6154,6154,6154,6154,6154,6154,6154,0,0,0,0,0,0,0,0,0,0,0,0,0,0,0,0,0,0,0,0,0,0,0,0,0,0,0,0,0,0,
0,0,0,0,0,0,0,0,0,0,0,0,0,0,0,0,0,0,0,0,0,0,0,0,0,0,0,0,0,0,6154,6154,6154,6154,6154,6154,6154,6154,6154,6154,6154,6154,6154,6154,6154,6154,6154,6154,6154,6154,6154,6154,6154,6154,6154,6154,6154,6154,6154,6154,6154,6154,6154,6154,6154,6154,6154,6154,6154,6154,6154,6154,6154,6154,6154,6154,6154,6154,6154,6154,0,0,0,0,0,0,0,0,0,0,0,0,0,0,0,0,0,0,0,0,0,0,0,0,0,0,0,0,0,0,
0,0,0,0,0,0,0,0,0,0,0,0,0,0,0,0,0,0,0,0,0,0,0,0,0,0,0,0,0,0,6154,6154,6154,6154,6154,6154,6154,6154,6154,6154,6154,6154,6154,6154,6154,6154,6154,6154,6154,6154,6154,6154,6154,6154,6154,6154,6154,6154,6154,6154,6154,6154,6154,6154,6154,6154,6154,6154,6154,6154,6154,6154,6154,6154,6154,6154,6154,6154,6154,6154,0,0,0,0,0,0,0,0,0,0,0,0,0,0,0,0,0,0,0,0,0,0,0,0,0,0,0,0,0,0,
0,0,0,0,0,0,0,0,0,0,0,0,0,0,0,0,0,0,0,0,0,0,0,0,0,0,0,0,0,0,6154,6154,6154,6154,6154,6154,6154,6154,6154,6154,6154,6154,6154,6154,6154,6154,6154,6154,6154,6154,6154,6154,6154,6154,6154,6154,6154,6154,6154,6154,6154,6154,6154,6154,6154,6154,6154,6154,6154,6154,6154,6154,6154,6154,6154,6154,6154,6154,6154,6154,0,0,0,0,0,0,0,0,0,0,0,0,0,0,0,0,0,0,0,0,0,0,0,0,0,0,0,0,0,0,
0,0,0,0,0,0,0,0,0,0,0,0,0,0,0,0,0,0,0,0,0,0,0,0,0,0,0,0,0,0,6154,6154,6154,6154,6154,6154,6154,6154,6154,6154,6154,6154,6154,6154,6154,6154,6154,6154,6154,6154,6154,6154,6154,6154,6154,6154,6154,6154,6154,6154,6154,6154,6154,6154,6154,6154,6154,6154,6154,6154,6154,6154,6154,6154,6154,6154,6154,6154,6154,6154,0,0,0,0,0,0,0,0,0,0,0,0,0,0,0,0,0,0,0,0,0,0,0,0,0,0,0,0,0,0,
0,0,0,0,0,0,0,0,0,0,0,0,0,0,0,0,0,0,0,0,0,0,0,0,0,0,0,0,0,0,6154,6154,6154,6154,6154,6154,6154,6154,6154,6154,6154,6154,6154,6154,6154,6154,6154,6154,6154,6154,6154,6154,6154,6154,6154,6154,6154,6154,6154,6154,6154,6154,6154,6154,6154,6154,6154,6154,6154,6154,6154,6154,6154,6154,6154,6154,6154,6154,6154,6154,0,0,0,0,0,0,0,0,0,0,0,0,0,0,0,0,0,0,0,0,0,0,0,0,0,0,0,0,0,0,
0,0,0,0,0,0,0,0,0,0,0,0,0,0,0,0,0,0,0,0,0,0,0,0,0,0,0,0,0,0,6154,6154,6154,6154,6154,6154,6154,6154,6154,6154,6154,6154,6154,6154,6154,6154,6154,6154,6154,6154,6154,6154,6154,6154,6154,6154,6154,6154,6154,6154,6154,6154,6154,6154,6154,6154,6154,6154,6154,6154,6154,6154,6154,6154,6154,6154,6154,6154,6154,6154,0,0,0,0,0,0,0,0,0,0,0,0,0,0,0,0,0,0,0,0,0,0,0,0,0,0,0,0,0,0,
0,0,0,0,0,0,0,0,0,0,0,0,0,0,0,0,0,0,0,0,0,0,0,0,0,0,0,0,0,0,6154,6154,6154,6154,6154,6154,6154,6154,6154,6154,6154,6154,6154,6154,6154,6154,6154,6154,6154,6154,6154,6154,6154,6154,6154,6154,6154,6154,6154,6154,6154,6154,6154,6154,6154,6154,6154,6154,6154,6154,6154,6154,6154,6154,6154,6154,6154,6154,6154,6154,0,0,0,0,0,0,0,0,0,0,0,0,0,0,0,0,0,0,0,0,0,0,0,0,0,0,0,0,0,0,
0,0,0,0,0,0,0,0,0,0,0,0,0,0,0,0,0,0,0,0,0,0,0,0,0,0,0,0,0,0,6154,6154,6154,6154,6154,6154,6154,6154,6154,6154,6154,6154,6154,6154,6154,6154,6154,6154,6154,6154,6154,6154,6154,6154,6154,6154,6154,6154,6154,6154,6154,6154,6154,6154,6154,6154,6154,6154,6154,6154,6154,6154,6154,6154,6154,6154,6154,6154,6154,6154,0,0,0,0,0,0,0,0,0,0,0,0,0,0,0,0,0,0,0,0,0,0,0,0,0,0,0,0,0,0,
0,0,0,0,0,0,0,0,0,0,0,0,0,0,0,0,0,0,0,0,0,0,0,0,0,0,0,0,0,0,6154,6154,6154,6154,6154,6154,6154,6154,6154,6154,6154,6154,6154,6154,6154,6154,6154,6154,6154,6154,6154,6154,6154,6154,6154,6154,6154,6154,6154,6154,6154,6154,6154,6154,6154,6154,6154,6154,6154,6154,6154,6154,6154,6154,6154,6154,6154,6154,6154,6154,0,0,0,0,0,0,0,0,0,0,0,0,0,0,0,0,0,0,0,0,0,0,0,0,0,0,0,0,0,0,
0,0,0,0,0,0,0,0,0,0,0,0,0,0,0,0,0,0,0,0,0,0,0,0,0,0,0,0,0,0,6154,6154,6154,6154,6154,6154,6154,6154,6154,6154,6154,6154,6154,6154,6154,6154,6154,6154,6154,6154,6154,6154,6154,6154,6154,6154,6154,6154,6154,6154,6154,6154,6154,6154,6154,6154,6154,6154,6154,6154,6154,6154,6154,6154,6154,6154,6154,6154,6154,6154,0,0,0,0,0,0,0,0,0,0,0,0,0,0,0,0,0,0,0,0,0,0,0,0,0,0,0,0,0,0,
0,0,0,0,0,0,0,0,0,0,0,0,0,0,0,0,0,0,0,0,0,0,0,0,0,0,0,0,0,0,6154,6154,6154,6154,6154,6154,6154,6154,6154,6154,6154,6154,6154,6154,6154,6154,6154,6154,6154,6154,6154,6154,6154,6154,6154,6154,6154,6154,6154,6154,6154,6154,6154,6154,6154,6154,6154,6154,6154,6154,6154,6154,6154,6154,6154,6154,6154,6154,6154,6154,0,0,0,0,0,0,0,0,0,0,0,0,0,0,0,0,0,0,0,0,0,0,0,0,0,0,0,0,0,0,
0,0,0,0,0,0,0,0,0,0,0,0,0,0,0,0,0,0,0,0,0,0,0,0,0,0,0,0,0,0,6154,6154,6154,6154,6154,6154,6154,6154,6154,6154,6154,6154,6154,6154,6154,6154,6154,6154,6154,6154,6154,6154,6154,6154,6154,6154,6154,6154,6154,6154,6154,6154,6154,6154,6154,6154,6154,6154,6154,6154,6154,6154,6154,6154,6154,6154,6154,6154,6154,6154,0,0,0,0,0,0,0,0,0,0,0,0,0,0,0,0,0,0,0,0,0,0,0,0,0,0,0,0,0,0,
0,0,0,0,0,0,0,0,0,0,0,0,0,0,0,0,0,0,0,0,0,0,0,0,0,0,0,0,0,0,6154,6154,6154,6154,6154,6154,6154,6154,6154,6154,6154,6154,6154,6154,6154,6154,6154,6154,6154,6154,6154,6154,6154,6154,6154,6154,6154,6154,6154,6154,6154,6154,6154,6154,6154,6154,6154,6154,6154,6154,6154,6154,6154,6154,6154,6154,6154,6154,6154,6154,0,0,0,0,0,0,0,0,0,0,0,0,0,0,0,0,0,0,0,0,0,0,0,0,0,0,0,0,0,0,
0,0,0,0,0,0,0,0,0,0,0,0,0,0,0,0,0,0,0,0,0,0,0,0,0,0,0,0,0,0,6154,6154,6154,6154,6154,6154,6154,6154,6154,6154,6154,6154,6154,6154,6154,6154,6154,6154,6154,6154,6154,6154,6154,6154,6154,6154,6154,6154,6154,6154,6154,6154,6154,6154,6154,6154,6154,6154,6154,6154,6154,6154,6154,6154,6154,6154,6154,6154,6154,6154,0,0,0,0,0,0,0,0,0,0,0,0,0,0,0,0,0,0,0,0,0,0,0,0,0,0,0,0,0,0,
0,0,0,0,0,0,0,0,0,0,0,0,0,0,0,0,0,0,0,0,0,0,0,0,0,0,0,0,0,0,6154,6154,6154,6154,6154,6154,6154,6154,6154,6154,6154,6154,6154,6154,6154,6154,6154,6154,6154,6154,6154,6154,6154,6154,6154,6154,6154,6154,6154,6154,6154,6154,6154,6154,6154,6154,6154,6154,6154,6154,6154,6154,6154,6154,6154,6154,6154,6154,6154,6154,0,0,0,0,0,0,0,0,0,0,0,0,0,0,0,0,0,0,0,0,0,0,0,0,0,0,0,0,0,0,
0,0,0,0,0,0,0,0,0,0,0,0,0,0,0,0,0,0,0,0,0,0,0,0,0,0,0,0,0,0,6154,6154,6154,6154,6154,6154,6154,6154,6154,6154,6154,6154,6154,6154,6154,6154,6154,6154,6154,6154,6154,6154,6154,6154,6154,6154,6154,6154,6154,6154,6154,6154,6154,6154,6154,6154,6154,6154,6154,6154,6154,6154,6154,6154,6154,6154,6154,6154,6154,6154,0,0,0,0,0,0,0,0,0,0,0,0,0,0,0,0,0,0,0,0,0,0,0,0,0,0,0,0,0,0,
0,0,0,0,0,0,0,0,0,0,0,0,0,0,0,0,0,0,0,0,0,0,0,0,0,0,0,0,0,0,6154,6154,6154,6154,6154,6154,6154,6154,6154,6154,6154,6154,6154,6154,6154,6154,6154,6154,6154,6154,6154,6154,6154,6154,6154,6154,6154,6154,6154,6154,6154,6154,6154,6154,6154,6154,6154,6154,6154,6154,6154,6154,6154,6154,6154,6154,6154,6154,6154,6154,0,0,0,0,0,0,0,0,0,0,0,0,0,0,0,0,0,0,0,0,0,0,0,0,0,0,0,0,0,0,
0,0,0,0,0,0,0,0,0,0,0,0,0,0,0,0,0,0,0,0,0,0,0,0,0,0,0,0,0,0,6154,6154,6154,6154,6154,6154,6154,6154,6154,6154,6154,6154,6154,6154,6154,6154,6154,6154,6154,6154,6154,6154,6154,6154,6154,6154,6154,6154,6154,6154,6154,6154,6154,6154,6154,6154,6154,6154,6154,6154,6154,6154,6154,6154,6154,6154,6154,6154,6154,6154,0,0,0,0,0,0,0,0,0,0,0,0,0,0,0,0,0,0,0,0,0,0,0,0,0,0,0,0,0,0,
0,0,0,0,0,0,0,0,0,0,0,0,0,0,0,0,0,0,0,0,0,0,0,0,0,0,0,0,0,0,6154,6154,6154,6154,6154,6154,6154,6154,6154,6154,6154,6154,6154,6154,6154,6154,6154,6154,6154,6154,6154,6154,6154,6154,6154,6154,6154,6154,6154,6154,6154,6154,6154,6154,6154,6154,6154,6154,6154,6154,6154,6154,6154,6154,6154,6154,6154,6154,6154,6154,0,0,0,0,0,0,0,0,0,0,0,0,0,0,0,0,0,0,0,0,0,0,0,0,0,0,0,0,0,0,
0,0,0,0,0,0,0,0,0,0,0,0,0,0,0,0,0,0,0,0,0,0,0,0,0,0,0,0,0,0,6154,6154,6154,6154,6154,6154,6154,6154,6154,6154,6154,6154,6154,6154,6154,6154,6154,6154,6154,6154,6154,6154,6154,6154,6154,6154,6154,6154,6154,6154,6154,6154,6154,6154,6154,6154,6154,6154,6154,6154,6154,6154,6154,6154,6154,6154,6154,6154,6154,6154,0,0,0,0,0,0,0,0,0,0,0,0,0,0,0,0,0,0,0,0,0,0,0,0,0,0,0,0,0,0,
0,0,0,0,0,0,0,0,0,0,0,0,0,0,0,0,0,0,0,0,0,0,0,0,0,0,0,0,0,0,6154,6154,6154,6154,6154,6154,6154,6154,6154,6154,6154,6154,6154,6154,6154,6154,6154,6154,6154,6154,6154,6154,6154,6154,6154,6154,6154,6154,6154,6154,6154,6154,6154,6154,6154,6154,6154,6154,6154,6154,6154,6154,6154,6154,6154,6154,6154,6154,6154,6154,0,0,0,0,0,0,0,0,0,0,0,0,0,0,0,0,0,0,0,0,0,0,0,0,0,0,0,0,0,0,
0,0,0,0,0,0,0,0,0,0,0,0,0,0,0,0,0,0,0,0,0,0,0,0,0,0,0,0,0,0,6154,6154,6154,6154,6154,6154,6154,6154,6154,6154,6154,6154,6154,6154,6154,6154,6154,6154,6154,6154,6154,6154,6154,6154,6154,6154,6154,6154,6154,6154,6154,6154,6154,6154,6154,6154,6154,6154,6154,6154,6154,6154,6154,6154,6154,6154,6154,6154,6154,6154,0,0,0,0,0,0,0,0,0,0,0,0,0,0,0,0,0,0,0,0,0,0,0,0,0,0,0,0,0,0,
0,0,0,0,0,0,0,0,0,0,0,0,0,0,0,0,0,0,0,0,0,0,0,0,0,0,0,0,0,0,6154,6154,6154,6154,6154,6154,6154,6154,6154,6154,6154,6154,6154,6154,6154,6154,6154,6154,6154,6154,6154,6154,6154,6154,6154,6154,6154,6154,6154,6154,6154,6154,6154,6154,6154,6154,6154,6154,6154,6154,6154,6154,6154,6154,6154,6154,6154,6154,6154,6154,0,0,0,0,0,0,0,0,0,0,0,0,0,0,0,0,0,0,0,0,0,0,0,0,0,0,0,0,0,0,
0,0,0,0,0,0,0,0,0,0,0,0,0,0,0,0,0,0,0,0,0,0,0,0,0,0,0,0,0,0,6154,6154,6154,6154,6154,6154,6154,6154,6154,6154,6154,6154,6154,6154,6154,6154,6154,6154,6154,6154,6154,6154,6154,6154,6154,6154,6154,6154,6154,6154,6154,6154,6154,6154,6154,6154,6154,6154,6154,6154,6154,6154,6154,6154,6154,6154,6154,6154,6154,6154,0,0,0,0,0,0,0,0,0,0,0,0,0,0,0,0,0,0,0,0,0,0,0,0,0,0,0,0,0,0,
0,0,0,0,0,0,0,0,0,0,0,0,0,0,0,0,0,0,0,0,0,0,0,0,0,0,0,0,0,0,6154,6154,6154,6154,6154,6154,6154,6154,6154,6154,6154,6154,6154,6154,6154,6154,6154,6154,6154,6154,6154,6154,6154,6154,6154,6154,6154,6154,6154,6154,6154,6154,6154,6154,6154,6154,6154,6154,6154,6154,6154,6154,6154,6154,6154,6154,6154,6154,6154,6154,0,0,0,0,0,0,0,0,0,0,0,0,0,0,0,0,0,0,0,0,0,0,0,0,0,0,0,0,0,0,
0,0,0,0,0,0,0,0,0,0,0,0,0,0,0,0,0,0,0,0,0,0,0,0,0,0,0,0,0,0,6154,6154,6154,6154,6154,6154,6154,6154,6154,6154,6154,6154,6154,6154,6154,6154,6154,6154,6154,6154,6154,6154,6154,6154,6154,6154,6154,6154,6154,6154,6154,6154,6154,6154,6154,6154,6154,6154,6154,6154,6154,6154,6154,6154,6154,6154,6154,6154,6154,6154,0,0,0,0,0,0,0,0,0,0,0,0,0,0,0,0,0,0,0,0,0,0,0,0,0,0,0,0,0,0,
0,0,0,0,0,0,0,0,0,0,0,0,0,0,0,0,0,0,0,0,0,0,0,0,0,0,0,0,0,0,6154,6154,6154,6154,6154,6154,6154,6154,6154,6154,6154,6154,6154,6154,6154,6154,6154,6154,6154,6154,6154,6154,6154,6154,6154,6154,6154,6154,6154,6154,6154,6154,6154,6154,6154,6154,6154,6154,6154,6154,6154,6154,6154,6154,6154,6154,6154,6154,6154,6154,0,0,0,0,0,0,0,0,0,0,0,0,0,0,0,0,0,0,0,0,0,0,0,0,0,0,0,0,0,0,
0,0,0,0,0,0,0,0,0,0,0,0,0,0,0,0,0,0,0,0,0,0,0,0,0,0,0,0,0,0,6154,6154,6154,6154,6154,6154,6154,6154,6154,6154,6154,6154,6154,6154,6154,6154,6154,6154,6154,6154,6154,6154,6154,6154,6154,6154,6154,6154,6154,6154,6154,6154,6154,6154,6154,6154,6154,6154,6154,6154,6154,6154,6154,6154,6154,6154,6154,6154,6154,6154,0,0,0,0,0,0,0,0,0,0,0,0,0,0,0,0,0,0,0,0,0,0,0,0,0,0,0,0,0,0,
0,0,0,0,0,0,0,0,0,0,0,0,0,0,0,0,0,0,0,0,0,0,0,0,0,0,0,0,0,0,6154,6154,6154,6154,6154,6154,6154,6154,6154,6154,6154,6154,6154,6154,6154,6154,6154,6154,6154,6154,6154,6154,6154,6154,6154,6154,6154,6154,6154,6154,6154,6154,6154,6154,6154,6154,6154,6154,6154,6154,6154,6154,6154,6154,6154,6154,6154,6154,6154,6154,0,0,0,0,0,0,0,0,0,0,0,0,0,0,0,0,0,0,0,0,0,0,0,0,0,0,0,0,0,0,
0,0,0,0,0,0,0,0,0,0,0,0,0,0,0,0,0,0,0,0,0,0,0,0,0,0,0,0,0,0,6154,6154,6154,6154,6154,6154,6154,6154,6154,6154,6154,6154,6154,6154,6154,6154,6154,6154,6154,6154,6154,6154,6154,6154,6154,6154,6154,6154,6154,6154,6154,6154,6154,6154,6154,6154,6154,6154,6154,6154,6154,6154,6154,6154,6154,6154,6154,6154,6154,6154,0,0,0,0,0,0,0,0,0,0,0,0,0,0,0,0,0,0,0,0,0,0,0,0,0,0,0,0,0,0,
0,0,0,0,0,0,0,0,0,0,0,0,0,0,0,0,0,0,0,0,0,0,0,0,0,0,0,0,0,0,6154,6154,6154,6154,6154,6154,6154,6154,6154,6154,6154,6154,6154,6154,6154,6154,6154,6154,6154,6154,6154,6154,6154,6154,6154,6154,6154,6154,6154,6154,6154,6154,6154,6154,6154,6154,6154,6154,6154,6154,6154,6154,6154,6154,6154,6154,6154,6154,6154,6154,0,0,0,0,0,0,0,0,0,0,0,0,0,0,0,0,0,0,0,0,0,0,0,0,0,0,0,0,0,0,
0,0,0,0,0,0,0,0,0,0,0,0,0,0,0,0,0,0,0,0,0,0,0,0,0,0,0,0,0,0,6154,6154,6154,6154,6154,6154,6154,6154,6154,6154,6154,6154,6154,6154,6154,6154,6154,6154,6154,6154,6154,6154,6154,6154,6154,6154,6154,6154,6154,6154,6154,6154,6154,6154,6154,6154,6154,6154,6154,6154,6154,6154,6154,6154,6154,6154,6154,6154,6154,6154,0,0,0,0,0,0,0,0,0,0,0,0,0,0,0,0,0,0,0,0,0,0,0,0,0,0,0,0,0,0,
0,0,0,0,0,0,0,0,0,0,0,0,0,0,0,0,0,0,0,0,0,0,0,0,0,0,0,0,0,0,6154,6154,6154,6154,6154,6154,6154,6154,6154,6154,6154,6154,6154,6154,6154,6154,6154,6154,6154,6154,6154,6154,6154,6154,6154,6154,6154,6154,6154,6154,6154,6154,6154,6154,6154,6154,6154,6154,6154,6154,6154,6154,6154,6154,6154,6154,6154,6154,6154,6154,0,0,0,0,0,0,0,0,0,0,0,0,0,0,0,0,0,0,0,0,0,0,0,0,0,0,0,0,0,0,
0,0,0,0,0,0,0,0,0,0,0,0,0,0,0,0,0,0,0,0,0,0,0,0,0,0,0,0,0,0,6154,6154,6154,6154,6154,6154,6154,6154,6154,6154,6154,6154,6154,6154,6154,6154,6154,6154,6154,6154,6154,6154,6154,6154,6154,6154,6154,6154,6154,6154,6154,6154,6154,6154,6154,6154,6154,6154,6154,6154,6154,6154,6154,6154,6154,6154,6154,6154,6154,6154,0,0,0,0,0,0,0,0,0,0,0,0,0,0,0,0,0,0,0,0,0,0,0,0,0,0,0,0,0,0
</data>
 </layer>
 <layer name="backwall" width="110" height="84">
  <data encoding="csv">
1521,1522,1521,1522,1521,1522,1521,1522,1521,1522,1521,1522,1521,1522,1521,1522,1521,1522,1521,1522,1521,1522,1521,1522,1521,1522,1521,1522,1521,1522,1521,1522,1521,1522,1521,1522,1521,1522,1521,1522,1521,1522,1521,1522,1521,1522,1521,1522,1521,1522,1521,1522,1521,1522,1521,1522,1521,1522,1521,1522,1521,1522,1521,1522,1521,1522,1521,1522,1521,1522,1521,1522,1521,1522,1521,1522,1521,1522,1521,1522,1521,1522,1521,1522,1521,1522,1521,1522,1521,1522,1521,1522,1521,1522,1521,1522,1521,1522,1521,1522,1521,1522,1521,1522,1521,1522,1521,1522,1521,1522,
1521,1522,1521,1522,1521,1522,1521,1522,1521,1522,1521,1522,1521,1522,1521,1522,1521,1522,1521,1522,1521,1522,1521,1522,1521,1522,1521,1522,1521,1522,1521,1522,1521,1522,1521,1522,1521,1522,1521,1522,1521,1522,1521,1522,1521,1522,1521,1522,1521,1522,1521,1522,1521,1522,1521,1522,1521,1522,1521,1522,1521,1522,1521,1522,1521,1522,1521,1522,1521,1522,1521,1522,1521,1522,1521,1522,1521,1522,1521,1522,1521,1522,1521,1522,1521,1522,1521,1522,1521,1522,1521,1522,1521,1522,1521,1522,1521,1522,1521,1522,1521,1522,1521,1522,1521,1522,1521,1522,1521,1522,
1521,1522,1521,1522,1521,1522,1521,1522,1521,1522,1521,1522,1521,1522,1521,1522,1521,1522,1521,1522,1521,1522,1521,1522,1521,1522,1521,1522,1521,1522,1521,1522,1521,1522,1521,1522,1521,1522,1521,1522,1521,1522,1521,1522,1521,1522,1521,1522,1521,1522,1521,1522,1521,1522,1521,1522,1521,1522,1521,1522,1521,1522,1521,1522,1521,1522,1521,1522,1521,1522,1521,1522,1521,1522,1521,1522,1521,1522,1521,1522,1521,1522,1521,1522,1521,1522,1521,1522,1521,1522,1521,1522,1521,1522,1521,1522,1521,1522,1521,1522,1521,1522,1521,1522,1521,1522,1521,1522,1521,1522,
1521,1522,1521,1522,1521,1522,1521,1522,1521,1522,1521,1522,1521,1522,1521,1522,1521,1522,1521,1522,1521,1522,1521,1522,1521,1522,1521,1522,1521,1522,1521,1522,1521,1522,1521,1522,1521,1522,1521,1522,1521,1522,1521,1522,1521,1522,1521,1522,1521,1522,1521,1522,1521,1522,1521,1522,1521,1522,1521,1522,1521,1522,1521,1522,1521,1522,1521,1522,1521,1522,1521,1522,1521,1522,1521,1522,1521,1522,1521,1522,1521,1522,1521,1522,1521,1522,1521,1522,1521,1522,1521,1522,1521,1522,1521,1522,1521,1522,1521,1522,1521,1522,1521,1522,1521,1522,1521,1522,1521,1522,
1521,1522,1521,1522,1521,1522,1521,1522,1521,1522,1521,1522,1521,1522,1521,1522,1521,1522,1521,1522,1521,1522,1521,1522,1521,1522,1521,1522,1521,1522,1521,1522,1521,1522,1521,1522,1521,1522,1521,1522,1521,1522,1521,1522,1521,1522,1521,1522,1521,1522,1521,1522,1521,1522,1521,1522,1521,1522,1521,1522,1521,1522,1521,1522,1521,1522,1521,1522,1521,1522,1521,1522,1521,1522,1521,1522,1521,1522,1521,1522,1521,1522,1521,1522,1521,1522,1521,1522,1521,1522,1521,1522,1521,1522,1521,1522,1521,1522,1521,1522,1521,1522,1521,1522,1521,1522,1521,1522,1521,1522,
1521,1522,1521,1522,1521,1522,1521,1522,1521,1522,1521,1522,1521,1522,1521,1522,1521,1522,1521,1522,1521,1522,1521,1522,1521,1522,1521,1522,1521,1522,1521,1522,1521,1522,1521,1522,1521,1522,1521,1522,1521,1522,1521,1522,1521,1522,1521,1522,1521,1522,1521,1522,1521,1522,1521,1522,1521,1522,1521,1522,1521,1522,1521,1522,1521,1522,1521,1522,1521,1522,1521,1522,1521,1522,1521,1522,1521,1522,1521,1522,1521,1522,1521,1522,1521,1522,1521,1522,1521,1522,1521,1522,1521,1522,1521,1522,1521,1522,1521,1522,1521,1522,1521,1522,1521,1522,1521,1522,1521,1522,
1521,1522,1521,1522,1521,1522,1521,1522,1521,1522,1521,1522,1521,1522,1521,1522,1521,1522,1521,1522,1521,1522,1521,1522,1521,1522,1521,1522,1521,1522,1521,1522,1521,1522,1521,1522,1521,1522,1521,1522,1521,1522,1521,1522,1521,1522,1521,1522,1521,1522,1521,1522,1521,1522,1521,1522,1521,1522,1521,1522,1521,1522,1521,1522,1521,1522,1521,1522,1521,1522,1521,1522,1521,1522,1521,1522,1521,1522,1521,1522,1521,1522,1521,1522,1521,1522,1521,1522,1521,1522,1521,1522,1521,1522,1521,1522,1521,1522,1521,1522,1521,1522,1521,1522,1521,1522,1521,1522,1521,1522,
1521,1522,1521,1522,1521,1522,1521,1522,1521,1522,1521,1522,1521,1522,1521,1522,1521,1522,1521,1522,1521,1522,1521,1522,1521,1522,1521,1522,1521,1522,1521,1522,1521,1522,1521,1522,1521,1522,1521,1522,1521,1522,1521,1522,1521,1522,1521,1522,1521,1522,1521,1522,1521,1522,1521,1522,1521,1522,1521,1522,1521,1522,1521,1522,1521,1522,1521,1522,1521,1522,1521,1522,1521,1522,1521,1522,1521,1522,1521,1522,1521,1522,1521,1522,1521,1522,1521,1522,1521,1522,1521,1522,1521,1522,1521,1522,1521,1522,1521,1522,1521,1522,1521,1522,1521,1522,1521,1522,1521,1522,
1521,1522,1521,1522,1521,1522,1521,1522,1521,1522,1521,1522,1521,1522,1521,1522,1521,1522,1521,1522,1521,1522,1521,1522,1521,1522,1521,1522,1521,1522,1521,1522,1521,1522,1521,1522,1521,1522,1521,1522,1521,1522,1521,1522,1521,1522,1521,1522,1521,1522,1521,1522,1521,1522,1521,1522,1521,1522,1521,1522,1521,1522,1521,1522,1521,1522,1521,1522,1521,1522,1521,1522,1521,1522,1521,1522,1521,1522,1521,1522,1521,1522,1521,1522,1521,1522,1521,1522,1521,1522,1521,1522,1521,1522,1521,1522,1521,1522,1521,1522,1521,1522,1521,1522,1521,1522,1521,1522,1521,1522,
1521,1522,1521,1522,1521,1522,1521,1522,1521,1522,1521,1522,1521,1522,1521,1522,1521,1522,1521,1522,1521,1522,1521,1522,1521,1522,1521,1522,1521,1522,1521,1522,1521,1522,1521,1522,1521,1522,1521,1522,1521,1522,1521,1522,1521,1522,1521,1522,1521,1522,1521,1522,1521,1522,1521,1522,1521,1522,1521,1522,1521,1522,1521,1522,1521,1522,1521,1522,1521,1522,1521,1522,1521,1522,1521,1522,1521,1522,1521,1522,1521,1522,1521,1522,1521,1522,1521,1522,1521,1522,1521,1522,1521,1522,1521,1522,1521,1522,1521,1522,1521,1522,1521,1522,1521,1522,1521,1522,1521,1522,
1521,1522,1521,1522,1521,1522,1521,1522,1521,1522,1521,1522,1521,1522,1521,1522,1521,1522,1521,1522,1521,1522,1521,1522,1521,1522,1521,1522,1521,1522,1521,1522,1521,1522,1521,1522,1521,1522,1521,1522,1521,1522,1521,1522,1521,1522,1521,1522,1521,1522,1521,1522,1521,1522,1521,1522,1521,1522,1521,1522,1521,1522,1521,1522,1521,1522,1521,1522,1521,1522,1521,1522,1521,1522,1521,1522,1521,1522,1521,1522,1521,1522,1521,1522,1521,1522,1521,1522,1521,1522,1521,1522,1521,1522,1521,1522,1521,1522,1521,1522,1521,1522,1521,1522,1521,1522,1521,1522,1521,1522,
1521,1522,1521,1522,1521,1522,1521,1522,1521,1522,1521,1522,1521,1522,1521,1522,1521,1522,1521,1522,1521,1522,1521,1522,1521,1522,1521,1522,1521,1522,1521,1522,1521,1522,1521,1522,1521,1522,1521,1522,1521,1522,1521,1522,1521,1522,1521,1522,1521,1522,1521,1522,1521,1522,1521,1522,1521,1522,1521,1522,1521,1522,1521,1522,1521,1522,1521,1522,1521,1522,1521,1522,1521,1522,1521,1522,1521,1522,1521,1522,1521,1522,1521,1522,1521,1522,1521,1522,1521,1522,1521,1522,1521,1522,1521,1522,1521,1522,1521,1522,1521,1522,1521,1522,1521,1522,1521,1522,1521,1522,
1521,1522,1521,1522,1521,1522,1521,1522,1521,1522,1521,1522,1521,1522,1521,1522,1521,1522,1521,1522,1521,1522,1521,1522,1521,1522,1521,1522,1521,1522,1521,1522,1521,1522,1521,1522,1521,1522,1521,1522,1521,1522,1521,1522,1521,1522,1521,1522,1521,1522,1521,1522,1521,1522,1521,1522,1521,1522,1521,1522,1521,1522,1521,1522,1521,1522,1521,1522,1521,1522,1521,1522,1521,1522,1521,1522,1521,1522,1521,1522,1521,1522,1521,1522,1521,1522,1521,1522,1521,1522,1521,1522,1521,1522,1521,1522,1521,1522,1521,1522,1521,1522,1521,1522,1521,1522,1521,1522,1521,1522,
1521,1522,1521,1522,1521,1522,1521,1522,1521,1522,1521,1522,1521,1522,1521,1522,1521,1522,1521,1522,1521,1522,1521,1522,1521,1522,1521,1522,1521,1522,1521,1522,1521,1522,1521,1522,1521,1522,1521,1522,1521,1522,1521,1522,1521,1522,1521,1522,1521,1522,1521,1522,1521,1522,1521,1522,1521,1522,1521,1522,1521,1522,1521,1522,1521,1522,1521,1522,1521,1522,1521,1522,1521,1522,1521,1522,1521,1522,1521,1522,1521,1522,1521,1522,1521,1522,1521,1522,1521,1522,1521,1522,1521,1522,1521,1522,1521,1522,1521,1522,1521,1522,1521,1522,1521,1522,1521,1522,1521,1522,
1521,1522,1521,1522,1521,1522,1521,1522,1521,1522,1521,1522,1521,1522,1521,1522,1521,1522,1521,1522,1521,1522,1521,1522,1521,1522,1521,1522,1521,1522,1521,1522,1521,1522,1521,1522,1521,1522,1521,1522,1521,1522,1521,1522,1521,1522,1521,1522,1521,1522,1521,1522,1521,1522,1521,1522,1521,1522,1521,1522,1521,1522,1521,1522,1521,1522,1521,1522,1521,1522,1521,1522,1521,1522,1521,1522,1521,1522,1521,1522,1521,1522,1521,1522,1521,1522,1521,1522,1521,1522,1521,1522,1521,1522,1521,1522,1521,1522,1521,1522,1521,1522,1521,1522,1521,1522,1521,1522,1521,1522,
1521,1522,1521,1522,1521,1522,1521,1522,1521,1522,1521,1522,1521,1522,1521,1522,1521,1522,1521,1522,1521,1522,1521,1522,1521,1522,1521,1522,1521,1522,1521,1522,1521,1522,1521,1522,1521,1522,1521,1522,1521,1522,1521,1522,1521,1522,1521,1522,1521,1522,1521,1522,1521,1522,1521,1522,1521,1522,1521,1522,1521,1522,1521,1522,1521,1522,1521,1522,1521,1522,1521,1522,1521,1522,1521,1522,1521,1522,1521,1522,1521,1522,1521,1522,1521,1522,1521,1522,1521,1522,1521,1522,1521,1522,1521,1522,1521,1522,1521,1522,1521,1522,1521,1522,1521,1522,1521,1522,1521,1522,
1521,1522,1521,1522,1521,1522,1521,1522,1521,1522,1521,1522,1521,1522,1521,1522,1521,1522,1521,1522,1521,1522,1521,1522,1521,1522,1521,1522,1521,1522,1521,1522,1521,1522,1521,1522,1521,1522,1521,1522,1521,1522,1521,1522,1521,1522,1521,1522,1521,1522,1521,1522,1521,1522,1521,1522,1521,1522,1521,1522,1521,1522,1521,1522,1521,1522,1521,1522,1521,1522,1521,1522,1521,1522,1521,1522,1521,1522,1521,1522,1521,1522,1521,1522,1521,1522,1521,1522,1521,1522,1521,1522,1521,1522,1521,1522,1521,1522,1521,1522,1521,1522,1521,1522,1521,1522,1521,1522,1521,1522,
1521,1522,1521,1522,1521,1522,1521,1522,1521,1522,1521,1522,1521,1522,1521,1522,1521,1522,1521,1522,1521,1522,1521,1522,1521,1522,1521,1522,1521,1522,1521,1522,1521,1522,1521,1522,1521,1522,1521,1522,1521,1522,1521,1522,1521,1522,1521,1522,1521,1522,1521,1522,1521,1522,1521,1522,1521,1522,1521,1522,1521,1522,1521,1522,1521,1522,1521,1522,1521,1522,1521,1522,1521,1522,1521,1522,1521,1522,1521,1522,1521,1522,1521,1522,1521,1522,1521,1522,1521,1522,1521,1522,1521,1522,1521,1522,1521,1522,1521,1522,1521,1522,1521,1522,1521,1522,1521,1522,1521,1522,
1521,1522,1521,1522,1521,1522,1521,1522,1521,1522,1521,1522,1521,1522,1521,1522,1521,1522,1521,1522,1521,1522,1521,1522,1521,1522,1521,1522,1521,1522,1521,1522,1521,1522,1521,1522,1521,1522,1521,1522,1521,1522,1521,1522,1521,1522,1521,1522,1521,1522,1521,1522,1521,1522,1521,1522,1521,1522,1521,1522,1521,1522,1521,1522,1521,1522,1521,1522,1521,1522,1521,1522,1521,1522,1521,1522,1521,1522,1521,1522,1521,1522,1521,1522,1521,1522,1521,1522,1521,1522,1521,1522,1521,1522,1521,1522,1521,1522,1521,1522,1521,1522,1521,1522,1521,1522,1521,1522,1521,1522,
1521,1522,1521,1522,1521,1522,1521,1522,1521,1522,1521,1522,1521,1522,1521,1522,1521,1522,1521,1522,1521,1522,1521,1522,1521,1522,1521,1522,1521,1522,1521,1522,1521,1522,1521,1522,1521,1522,1521,1522,1521,1522,1521,1522,1521,1522,1521,1522,1521,1522,1521,1522,1521,1522,1521,1522,1521,1522,1521,1522,1521,1522,1521,1522,1521,1522,1521,1522,1521,1522,1521,1522,1521,1522,1521,1522,1521,1522,1521,1522,1521,1522,1521,1522,1521,1522,1521,1522,1521,1522,1521,1522,1521,1522,1521,1522,1521,1522,1521,1522,1521,1522,1521,1522,1521,1522,1521,1522,1521,1522,
1521,1522,1521,1522,1521,1522,1521,1522,1521,1522,1521,1522,1521,1522,1521,1522,1521,1522,1521,1522,1521,1522,1521,1522,1521,1522,1521,1522,1521,1522,1521,1522,1521,1522,1521,1522,1521,1522,1521,1522,1521,1522,1521,1522,1521,1522,1521,1522,1521,1522,1521,1522,1521,1522,1521,1522,1521,1522,1521,1522,1521,1522,1521,1522,1521,1522,1521,1522,1521,1522,1521,1522,1521,1522,1521,1522,1521,1522,1521,1522,1521,1522,1521,1522,1521,1522,1521,1522,1521,1522,1521,1522,1521,1522,1521,1522,1521,1522,1521,1522,1521,1522,1521,1522,1521,1522,1521,1522,1521,1522,
1521,1522,1521,1522,1521,1522,1521,1522,1521,1522,1521,1522,1521,1522,1521,1522,1521,1522,1521,1522,1521,1522,1521,1522,1521,1522,1521,1522,1521,1522,1521,1522,1521,1522,1521,1522,1521,1522,1521,1522,1521,1522,1521,1522,1521,1522,1521,1522,1521,1522,1521,1522,1521,1522,1521,1522,1521,1522,1521,1522,1521,1522,1521,1522,1521,1522,1521,1522,1521,1522,1521,1522,1521,1522,1521,1522,1521,1522,1521,1522,1521,1522,1521,1522,1521,1522,1521,1522,1521,1522,1521,1522,1521,1522,1521,1522,1521,1522,1521,1522,1521,1522,1521,1522,1521,1522,1521,1522,1521,1522,
1521,1522,1521,1522,1521,1522,1521,1522,1521,1522,1521,1522,1521,1522,1521,1522,1521,1522,1521,1522,1521,1522,1521,1522,1521,1522,1521,1522,1521,1522,1521,1522,1521,1522,1521,1522,1521,1522,1521,1522,1521,1522,1521,1522,1521,1522,1521,1522,1521,1522,1521,1522,1521,1522,1521,1522,1521,1522,1521,1522,1521,1522,1521,1522,1521,1522,1521,1522,1521,1522,1521,1522,1521,1522,1521,1522,1521,1522,1521,1522,1521,1522,1521,1522,1521,1522,1521,1522,1521,1522,1521,1522,1521,1522,1521,1522,1521,1522,1521,1522,1521,1522,1521,1522,1521,1522,1521,1522,1521,1522,
1521,1522,1521,1522,1521,1522,1521,1522,1521,1522,1521,1522,1521,1522,1521,1522,1521,1522,1521,1522,1521,1522,1521,1522,1521,1522,1521,1522,1521,1522,1521,1522,1521,1522,1521,1522,1521,1522,1521,1522,1521,1522,1521,1522,1521,1522,1521,1522,1521,1522,1521,1522,1521,1522,1521,1522,1521,1522,1521,1522,1521,1522,1521,1522,1521,1522,1521,1522,1521,1522,1521,1522,1521,1522,1521,1522,1521,1522,1521,1522,1521,1522,1521,1522,1521,1522,1521,1522,1521,1522,1521,1522,1521,1522,1521,1522,1521,1522,1521,1522,1521,1522,1521,1522,1521,1522,1521,1522,1521,1522,
1521,1522,1521,1522,1521,1522,1521,1522,1521,1522,1521,1522,1521,1522,1521,1522,1521,1522,1521,1522,1521,1522,1521,1522,1521,1522,1521,1522,1521,1522,1521,1522,1521,1522,1521,1522,1521,1522,1521,1522,1521,1522,1521,1522,1521,1522,1521,1522,1521,1522,1521,1522,1521,1522,1521,1522,1521,1522,1521,1522,1521,1522,1521,1522,1521,1522,1521,1522,1521,1522,1521,1522,1521,1522,1521,1522,1521,1522,1521,1522,1521,1522,1521,1522,1521,1522,1521,1522,1521,1522,1521,1522,1521,1522,1521,1522,1521,1522,1521,1522,1521,1522,1521,1522,1521,1522,1521,1522,1521,1522,
1521,1522,1521,1522,1521,1522,1521,1522,1521,1522,1521,1522,1521,1522,1521,1522,1521,1522,1521,1522,1521,1522,1521,1522,1521,1522,1521,1522,1521,1522,1521,1522,1521,1522,1521,1522,1521,1522,1521,1522,1521,1522,1521,1522,1521,1522,1521,1522,1521,1522,1521,1522,1521,1522,1521,1522,1521,1522,1521,1522,1521,1522,1521,1522,1521,1522,1521,1522,1521,1522,1521,1522,1521,1522,1521,1522,1521,1522,1521,1522,1521,1522,1521,1522,1521,1522,1521,1522,1521,1522,1521,1522,1521,1522,1521,1522,1521,1522,1521,1522,1521,1522,1521,1522,1521,1522,1521,1522,1521,1522,
1521,1522,1521,1522,1521,1522,1521,1522,1521,1522,1521,1522,1521,1522,1521,1522,1521,1522,1521,1522,1521,1522,1521,1522,1521,1522,1521,1522,1521,1522,1521,1522,1521,1522,1521,1522,1521,1522,1521,1522,1521,1522,1521,1522,1521,1522,1521,1522,1521,1522,1521,1522,1521,1522,1521,1522,1521,1522,1521,1522,1521,1522,1521,1522,1521,1522,1521,1522,1521,1522,1521,1522,1521,1522,1521,1522,1521,1522,1521,1522,1521,1522,1521,1522,1521,1522,1521,1522,1521,1522,1521,1522,1521,1522,1521,1522,1521,1522,1521,1522,1521,1522,1521,1522,1521,1522,1521,1522,1521,1522,
1521,1522,1521,1522,1521,1522,1521,1522,1521,1522,1521,1522,1521,1522,1521,1522,1521,1522,1521,1522,1521,1522,1521,1522,1521,1522,1521,1522,1521,1522,1521,1522,1521,1522,1521,1522,1521,1522,1521,1522,1521,1522,1521,1522,1521,1522,1521,1522,1521,1522,1521,1522,1521,1522,1521,1522,1521,1522,1521,1522,1521,1522,1521,1522,1521,1522,1521,1522,1521,1522,1521,1522,1521,1522,1521,1522,1521,1522,1521,1522,1521,1522,1521,1522,1521,1522,1521,1522,1521,1522,1521,1522,1521,1522,1521,1522,1521,1522,1521,1522,1521,1522,1521,1522,1521,1522,1521,1522,1521,1522,
1521,1522,1521,1522,1521,1522,1521,1522,1521,1522,1521,1522,1521,1522,1521,1522,1521,1522,1521,1522,1521,1522,1521,1522,1521,1522,1521,1522,1521,1522,1521,1522,1521,1522,1521,1522,1521,1522,1521,1522,1521,1522,1521,1522,1521,1522,1521,1522,1521,1522,1521,1522,1521,1522,1521,1522,1521,1522,1521,1522,1521,1522,1521,1522,1521,1522,1521,1522,1521,1522,1521,1522,1521,1522,1521,1522,1521,1522,1521,1522,1521,1522,1521,1522,1521,1522,1521,1522,1521,1522,1521,1522,1521,1522,1521,1522,1521,1522,1521,1522,1521,1522,1521,1522,1521,1522,1521,1522,1521,1522,
1521,1522,1521,1522,1521,1522,1521,1522,1521,1522,1521,1522,1521,1522,1521,1522,1521,1522,1521,1522,1521,1522,1521,1522,1521,1522,1521,1522,1521,1522,1521,1522,1521,1522,1521,1522,1521,1522,1521,1522,1521,1522,1521,1522,1521,1522,1521,1522,1521,1522,1521,1522,1521,1522,1521,1522,1521,1522,1521,1522,1521,1522,1521,1522,1521,1522,1521,1522,1521,1522,1521,1522,1521,1522,1521,1522,1521,1522,1521,1522,1521,1522,1521,1522,1521,1522,1521,1522,1521,1522,1521,1522,1521,1522,1521,1522,1521,1522,1521,1522,1521,1522,1521,1522,1521,1522,1521,1522,1521,1522,
1521,1522,1521,1522,1521,1522,1521,1522,1521,1522,1521,1522,1521,1522,1521,1522,1521,1522,1521,1522,1521,1522,1521,1522,1521,1522,1521,1522,1521,1522,1521,1522,1521,1522,1521,1522,1521,1522,1521,1522,1521,1522,1521,1522,1521,1522,1521,1522,1521,1522,1521,1522,1521,1522,1521,1522,1521,1522,1521,1522,1521,1522,1521,1522,1521,1522,1521,1522,1521,1522,1521,1522,1521,1522,1521,1522,1521,1522,1521,1522,1521,1522,1521,1522,1521,1522,1521,1522,1521,1522,1521,1522,1521,1522,1521,1522,1521,1522,1521,1522,1521,1522,1521,1522,1521,1522,1521,1522,1521,1522,
1521,1522,1521,1522,1521,1522,1521,1522,1521,1522,1521,1522,1521,1522,1521,1522,1521,1522,1521,1522,1521,1522,1521,1522,1521,1522,1521,1522,1521,1522,1521,1522,1521,1522,1521,1522,1521,1522,1521,1522,1521,1522,1521,1522,1521,1522,1521,1522,1521,1522,1521,1522,1521,1522,1521,1522,1521,1522,1521,1522,1521,1522,1521,1522,1521,1522,1521,1522,1521,1522,1521,1522,1521,1522,1521,1522,1521,1522,1521,1522,1521,1522,1521,1522,1521,1522,1521,1522,1521,1522,1521,1522,1521,1522,1521,1522,1521,1522,1521,1522,1521,1522,1521,1522,1521,1522,1521,1522,1521,1522,
1521,1522,1521,1522,1521,1522,1521,1522,1521,1522,1521,1522,1521,1522,1521,1522,1521,1522,1521,1522,1521,1522,1521,1522,1521,1522,1521,1522,1521,1522,1521,1522,1521,1522,1521,1522,1521,1522,1521,1522,1521,1522,1521,1522,1521,1522,1521,1522,1521,1522,1521,1522,1521,1522,1521,1522,1521,1522,1521,1522,1521,1522,1521,1522,1521,1522,1521,1522,1521,1522,1521,1522,1521,1522,1521,1522,1521,1522,1521,1522,1521,1522,1521,1522,1521,1522,1521,1522,1521,1522,1521,1522,1521,1522,1521,1522,1521,1522,1521,1522,1521,1522,1521,1522,1521,1522,1521,1522,1521,1522,
1521,1522,1521,1522,1521,1522,1521,1522,1521,1522,1521,1522,1521,1522,1521,1522,1521,1522,1521,1522,1521,1522,1521,1522,1521,1522,1521,1522,1521,1522,1521,1522,1521,1522,1521,1522,1521,1522,1521,1522,1521,1522,1521,1522,1521,1522,1521,1522,1521,1522,1521,1522,1521,1522,1521,1522,1521,1522,1521,1522,1521,1522,1521,1522,1521,1522,1521,1522,1521,1522,1521,1522,1521,1522,1521,1522,1521,1522,1521,1522,1521,1522,1521,1522,1521,1522,1521,1522,1521,1522,1521,1522,1521,1522,1521,1522,1521,1522,1521,1522,1521,1522,1521,1522,1521,1522,1521,1522,1521,1522,
1521,1522,1521,1522,1521,1522,1521,1522,1521,1522,1521,1522,1521,1522,1521,1522,1521,1522,1521,1522,1521,1522,1521,1522,1521,1522,1521,1522,1521,1522,1521,1522,1521,1522,1521,1522,1521,1522,1521,1522,1521,1522,1521,1522,1521,1522,1521,1522,1521,1522,1521,1522,1521,1522,1521,1522,1521,1522,1521,1522,1521,1522,1521,1522,1521,1522,1521,1522,1521,1522,1521,1522,1521,1522,1521,1522,1521,1522,1521,1522,1521,1522,1521,1522,1521,1522,1521,1522,1521,1522,1521,1522,1521,1522,1521,1522,1521,1522,1521,1522,1521,1522,1521,1522,1521,1522,1521,1522,1521,1522,
1521,1522,1521,1522,1521,1522,1521,1522,1521,1522,1521,1522,1521,1522,1521,1522,1521,1522,1521,1522,1521,1522,1521,1522,1521,1522,1521,1522,1521,1522,1521,1522,1521,1522,1521,1522,1521,1522,1521,1522,1521,1522,1521,1522,1521,1522,1521,1522,1521,1522,1521,1522,1521,1522,1521,1522,1521,1522,1521,1522,1521,1522,1521,1522,1521,1522,1521,1522,1521,1522,1521,1522,1521,1522,1521,1522,1521,1522,1521,1522,1521,1522,1521,1522,1521,1522,1521,1522,1521,1522,1521,1522,1521,1522,1521,1522,1521,1522,1521,1522,1521,1522,1521,1522,1521,1522,1521,1522,1521,1522,
1521,1522,1521,1522,1521,1522,1521,1522,1521,1522,1521,1522,1521,1522,1521,1522,1521,1522,1521,1522,1521,1522,1521,1522,1521,1522,1521,1522,1521,1522,1521,1522,1521,1522,1521,1522,1521,1522,1521,1522,1521,1522,1521,1522,1521,1522,1521,1522,1521,1522,1521,1522,1521,1522,1521,1522,1521,1522,1521,1522,1521,1522,1521,1522,1521,1522,1521,1522,1521,1522,1521,1522,1521,1522,1521,1522,1521,1522,1521,1522,1521,1522,1521,1522,1521,1522,1521,1522,1521,1522,1521,1522,1521,1522,1521,1522,1521,1522,1521,1522,1521,1522,1521,1522,1521,1522,1521,1522,1521,1522,
1521,1522,1521,1522,1521,1522,1521,1522,1521,1522,1521,1522,1521,1522,1521,1522,1521,1522,1521,1522,1521,1522,1521,1522,1521,1522,1521,1522,1521,1522,1521,1522,1521,1522,1521,1522,1521,1522,1521,1522,1521,1522,1521,1522,1521,1522,1521,1522,1521,1522,1521,1522,1521,1522,1521,1522,1521,1522,1521,1522,1521,1522,1521,1522,1521,1522,1521,1522,1521,1522,1521,1522,1521,1522,1521,1522,1521,1522,1521,1522,1521,1522,1521,1522,1521,1522,1521,1522,1521,1522,1521,1522,1521,1522,1521,1522,1521,1522,1521,1522,1521,1522,1521,1522,1521,1522,1521,1522,1521,1522,
1521,1522,1521,1522,1521,1522,1521,1522,1521,1522,1521,1522,1521,1522,1521,1522,1521,1522,1521,1522,1521,1522,1521,1522,1521,1522,1521,1522,1521,1522,1521,1522,1521,1522,1521,1522,1521,1522,1521,1522,1521,1522,1521,1522,1521,1522,1521,1522,1521,1522,1521,1522,1521,1522,1521,1522,1521,1522,1521,1522,1521,1522,1521,1522,1521,1522,1521,1522,1521,1522,1521,1522,1521,1522,1521,1522,1521,1522,1521,1522,1521,1522,1521,1522,1521,1522,1521,1522,1521,1522,1521,1522,1521,1522,1521,1522,1521,1522,1521,1522,1521,1522,1521,1522,1521,1522,1521,1522,1521,1522,
1521,1522,1521,1522,1521,1522,1521,1522,1521,1522,1521,1522,1521,1522,1521,1522,1521,1522,1521,1522,1521,1522,1521,1522,1521,1522,1521,1522,1521,1522,1521,1522,1521,1522,1521,1522,1521,1522,1521,1522,1521,1522,1521,1522,1521,1522,1521,1522,1521,1522,1521,1522,1521,1522,1521,1522,1521,1522,1521,1522,1521,1522,1521,1522,1521,1522,1521,1522,1521,1522,1521,1522,1521,1522,1521,1522,1521,1522,1521,1522,1521,1522,1521,1522,1521,1522,1521,1522,1521,1522,1521,1522,1521,1522,1521,1522,1521,1522,1521,1522,1521,1522,1521,1522,1521,1522,1521,1522,1521,1522,
1521,1522,1521,1522,1521,1522,1521,1522,1521,1522,1521,1522,1521,1522,1521,1522,1521,1522,1521,1522,1521,1522,1521,1522,1521,1522,1521,1522,1521,1522,1521,1522,1521,1522,1521,1522,1521,1522,1521,1522,1521,1522,1521,1522,1521,1522,1521,1522,1521,1522,1521,1522,1521,1522,1521,1522,1521,1522,1521,1522,1521,1522,1521,1522,1521,1522,1521,1522,1521,1522,1521,1522,1521,1522,1521,1522,1521,1522,1521,1522,1521,1522,1521,1522,1521,1522,1521,1522,1521,1522,1521,1522,1521,1522,1521,1522,1521,1522,1521,1522,1521,1522,1521,1522,1521,1522,1521,1522,1521,1522,
1521,1522,1521,1522,1521,1522,1521,1522,1521,1522,1521,1522,1521,1522,1521,1522,1521,1522,1521,1522,1521,1522,1521,1522,1521,1522,1521,1522,1521,1522,1521,1522,1521,1522,1521,1522,1521,1522,1521,1522,1521,1522,1521,1522,1521,1522,1521,1522,1521,1522,1521,1522,1521,1522,1521,1522,1521,1522,1521,1522,1521,1522,1521,1522,1521,1522,1521,1522,1521,1522,1521,1522,1521,1522,1521,1522,1521,1522,1521,1522,1521,1522,1521,1522,1521,1522,1521,1522,1521,1522,1521,1522,1521,1522,1521,1522,1521,1522,1521,1522,1521,1522,1521,1522,1521,1522,1521,1522,1521,1522,
1521,1522,1521,1522,1521,1522,1521,1522,1521,1522,1521,1522,1521,1522,1521,1522,1521,1522,1521,1522,1521,1522,1521,1522,1521,1522,1521,1522,1521,1522,1521,1522,1521,1522,1521,1522,1521,1522,1521,1522,1521,1522,1521,1522,1521,1522,1521,1522,1521,1522,1521,1522,1521,1522,1521,1522,1521,1522,1521,1522,1521,1522,1521,1522,1521,1522,1521,1522,1521,1522,1521,1522,1521,1522,1521,1522,1521,1522,1521,1522,1521,1522,1521,1522,1521,1522,1521,1522,1521,1522,1521,1522,1521,1522,1521,1522,1521,1522,1521,1522,1521,1522,1521,1522,1521,1522,1521,1522,1521,1522,
1521,1522,1521,1522,1521,1522,1521,1522,1521,1522,1521,1522,1521,1522,1521,1522,1521,1522,1521,1522,1521,1522,1521,1522,1521,1522,1521,1522,1521,1522,1521,1522,1521,1522,1521,1522,1521,1522,1521,1522,1521,1522,1521,1522,1521,1522,1521,1522,1521,1522,1521,1522,1521,1522,1521,1522,1521,1522,1521,1522,1521,1522,1521,1522,1521,1522,1521,1522,1521,1522,1521,1522,1521,1522,1521,1522,1521,1522,1521,1522,1521,1522,1521,1522,1521,1522,1521,1522,1521,1522,1521,1522,1521,1522,1521,1522,1521,1522,1521,1522,1521,1522,1521,1522,1521,1522,1521,1522,1521,1522,
1521,1522,1521,1522,1521,1522,1521,1522,1521,1522,1521,1522,1521,1522,1521,1522,1521,1522,1521,1522,1521,1522,1521,1522,1521,1522,1521,1522,1521,1522,1521,1522,1521,1522,1521,1522,1521,1522,1521,1522,1521,1522,1521,1522,1521,1522,1521,1522,1521,1522,1521,1522,1521,1522,1521,1522,1521,1522,1521,1522,1521,1522,1521,1522,1521,1522,1521,1522,1521,1522,1521,1522,1521,1522,1521,1522,1521,1522,1521,1522,1521,1522,1521,1522,1521,1522,1521,1522,1521,1522,1521,1522,1521,1522,1521,1522,1521,1522,1521,1522,1521,1522,1521,1522,1521,1522,1521,1522,1521,1522,
1521,1522,1521,1522,1521,1522,1521,1522,1521,1522,1521,1522,1521,1522,1521,1522,1521,1522,1521,1522,1521,1522,1521,1522,1521,1522,1521,1522,1521,1522,1521,1522,1521,1522,1521,1522,1521,1522,1521,1522,1521,1522,1521,1522,1521,1522,1521,1522,1521,1522,1521,1522,1521,1522,1521,1522,1521,1522,1521,1522,1521,1522,1521,1522,1521,1522,1521,1522,1521,1522,1521,1522,1521,1522,1521,1522,1521,1522,1521,1522,1521,1522,1521,1522,1521,1522,1521,1522,1521,1522,1521,1522,1521,1522,1521,1522,1521,1522,1521,1522,1521,1522,1521,1522,1521,1522,1521,1522,1521,1522,
1521,1522,1521,1522,1521,1522,1521,1522,1521,1522,1521,1522,1521,1522,1521,1522,1521,1522,1521,1522,1521,1522,1521,1522,1521,1522,1521,1522,1521,1522,1521,1522,1521,1522,1521,1522,1521,1522,1521,1522,1521,1522,1521,1522,1521,1522,1521,1522,1521,1522,1521,1522,1521,1522,1521,1522,1521,1522,1521,1522,1521,1522,1521,1522,1521,1522,1521,1522,1521,1522,1521,1522,1521,1522,1521,1522,1521,1522,1521,1522,1521,1522,1521,1522,1521,1522,1521,1522,1521,1522,1521,1522,1521,1522,1521,1522,1521,1522,1521,1522,1521,1522,1521,1522,1521,1522,1521,1522,1521,1522,
1521,1522,1521,1522,1521,1522,1521,1522,1521,1522,1521,1522,1521,1522,1521,1522,1521,1522,1521,1522,1521,1522,1521,1522,1521,1522,1521,1522,1521,1522,1521,1522,1521,1522,1521,1522,1521,1522,1521,1522,1521,1522,1521,1522,1521,1522,1521,1522,1521,1522,1521,1522,1521,1522,1521,1522,1521,1522,1521,1522,1521,1522,1521,1522,1521,1522,1521,1522,1521,1522,1521,1522,1521,1522,1521,1522,1521,1522,1521,1522,1521,1522,1521,1522,1521,1522,1521,1522,1521,1522,1521,1522,1521,1522,1521,1522,1521,1522,1521,1522,1521,1522,1521,1522,1521,1522,1521,1522,1521,1522,
1521,1522,1521,1522,1521,1522,1521,1522,1521,1522,1521,1522,1521,1522,1521,1522,1521,1522,1521,1522,1521,1522,1521,1522,1521,1522,1521,1522,1521,1522,1521,1522,1521,1522,1521,1522,1521,1522,1521,1522,1521,1522,1521,1522,1521,1522,1521,1522,1521,1522,1521,1522,1521,1522,1521,1522,1521,1522,1521,1522,1521,1522,1521,1522,1521,1522,1521,1522,1521,1522,1521,1522,1521,1522,1521,1522,1521,1522,1521,1522,1521,1522,1521,1522,1521,1522,1521,1522,1521,1522,1521,1522,1521,1522,1521,1522,1521,1522,1521,1522,1521,1522,1521,1522,1521,1522,1521,1522,1521,1522,
1521,1522,1521,1522,1521,1522,1521,1522,1521,1522,1521,1522,1521,1522,1521,1522,1521,1522,1521,1522,1521,1522,1521,1522,1521,1522,1521,1522,1521,1522,1521,1522,1521,1522,1521,1522,1521,1522,1521,1522,1521,1522,1521,1522,1521,1522,1521,1522,1521,1522,1521,1522,1521,1522,1521,1522,1521,1522,1521,1522,1521,1522,1521,1522,1521,1522,1521,1522,1521,1522,1521,1522,1521,1522,1521,1522,1521,1522,1521,1522,1521,1522,1521,1522,1521,1522,1521,1522,1521,1522,1521,1522,1521,1522,1521,1522,1521,1522,1521,1522,1521,1522,1521,1522,1521,1522,1521,1522,1521,1522,
1521,1522,1521,1522,1521,1522,1521,1522,1521,1522,1521,1522,1521,1522,1521,1522,1521,1522,1521,1522,1521,1522,1521,1522,1521,1522,1521,1522,1521,1522,1521,1522,1521,1522,1521,1522,1521,1522,1521,1522,1521,1522,1521,1522,1521,1522,1521,1522,1521,1522,1521,1522,1521,1522,1521,1522,1521,1522,1521,1522,1521,1522,1521,1522,1521,1522,1521,1522,1521,1522,1521,1522,1521,1522,1521,1522,1521,1522,1521,1522,1521,1522,1521,1522,1521,1522,1521,1522,1521,1522,1521,1522,1521,1522,1521,1522,1521,1522,1521,1522,1521,1522,1521,1522,1521,1522,1521,1522,1521,1522,
1521,1522,1521,1522,1521,1522,1521,1522,1521,1522,1521,1522,1521,1522,1521,1522,1521,1522,1521,1522,1521,1522,1521,1522,1521,1522,1521,1522,1521,1522,1521,1522,1521,1522,1521,1522,1521,1522,1521,1522,1521,1522,1521,1522,1521,1522,1521,1522,1521,1522,1521,1522,1521,1522,1521,1522,1521,1522,1521,1522,1521,1522,1521,1522,1521,1522,1521,1522,1521,1522,1521,1522,1521,1522,1521,1522,1521,1522,1521,1522,1521,1522,1521,1522,1521,1522,1521,1522,1521,1522,1521,1522,1521,1522,1521,1522,1521,1522,1521,1522,1521,1522,1521,1522,1521,1522,1521,1522,1521,1522,
1521,1522,1521,1522,1521,1522,1521,1522,1521,1522,1521,1522,1521,1522,1521,1522,1521,1522,1521,1522,1521,1522,1521,1522,1521,1522,1521,1522,1521,1522,1521,1522,1521,1522,1521,1522,1521,1522,1521,1522,1521,1522,1521,1522,1521,1522,1521,1522,1521,1522,1521,1522,1521,1522,1521,1522,1521,1522,1521,1522,1521,1522,1521,1522,1521,1522,1521,1522,1521,1522,1521,1522,1521,1522,1521,1522,1521,1522,1521,1522,1521,1522,1521,1522,1521,1522,1521,1522,1521,1522,1521,1522,1521,1522,1521,1522,1521,1522,1521,1522,1521,1522,1521,1522,1521,1522,1521,1522,1521,1522,
1521,1522,1521,1522,1521,1522,1521,1522,1521,1522,1521,1522,1521,1522,1521,1522,1521,1522,1521,1522,1521,1522,1521,1522,1521,1522,1521,1522,1521,1522,1521,1522,1521,1522,1521,1522,1521,1522,1521,1522,1521,1522,1521,1522,1521,1522,1521,1522,1521,1522,1521,1522,1521,1522,1521,1522,1521,1522,1521,1522,1521,1522,1521,1522,1521,1522,1521,1522,1521,1522,1521,1522,1521,1522,1521,1522,1521,1522,1521,1522,1521,1522,1521,1522,1521,1522,1521,1522,1521,1522,1521,1522,1521,1522,1521,1522,1521,1522,1521,1522,1521,1522,1521,1522,1521,1522,1521,1522,1521,1522,
1521,1522,1521,1522,1521,1522,1521,1522,1521,1522,1521,1522,1521,1522,1521,1522,1521,1522,1521,1522,1521,1522,1521,1522,1521,1522,1521,1522,1521,1522,1521,1522,1521,1522,1521,1522,1521,1522,1521,1522,1521,1522,1521,1522,1521,1522,1521,1522,1521,1522,1521,1522,1521,1522,1521,1522,1521,1522,1521,1522,1521,1522,1521,1522,1521,1522,1521,1522,1521,1522,1521,1522,1521,1522,1521,1522,1521,1522,1521,1522,1521,1522,1521,1522,1521,1522,1521,1522,1521,1522,1521,1522,1521,1522,1521,1522,1521,1522,1521,1522,1521,1522,1521,1522,1521,1522,1521,1522,1521,1522,
1521,1522,1521,1522,1521,1522,1521,1522,1521,1522,1521,1522,1521,1522,1521,1522,1521,1522,1521,1522,1521,1522,1521,1522,1521,1522,1521,1522,1521,1522,1521,1522,1521,1522,1521,1522,1521,1522,1521,1522,1521,1522,1521,1522,1521,1522,1521,1522,1521,1522,1521,1522,1521,1522,1521,1522,1521,1522,1521,1522,1521,1522,1521,1522,1521,1522,1521,1522,1521,1522,1521,1522,1521,1522,1521,1522,1521,1522,1521,1522,1521,1522,1521,1522,1521,1522,1521,1522,1521,1522,1521,1522,1521,1522,1521,1522,1521,1522,1521,1522,1521,1522,1521,1522,1521,1522,1521,1522,1521,1522,
1521,1522,1521,1522,1521,1522,1521,1522,1521,1522,1521,1522,1521,1522,1521,1522,1521,1522,1521,1522,1521,1522,1521,1522,1521,1522,1521,1522,1521,1522,1521,1522,1521,1522,1521,1522,1521,1522,1521,1522,1521,1522,1521,1522,1521,1522,1521,1522,1521,1522,1521,1522,1521,1522,1521,1522,1521,1522,1521,1522,1521,1522,1521,1522,1521,1522,1521,1522,1521,1522,1521,1522,1521,1522,1521,1522,1521,1522,1521,1522,1521,1522,1521,1522,1521,1522,1521,1522,1521,1522,1521,1522,1521,1522,1521,1522,1521,1522,1521,1522,1521,1522,1521,1522,1521,1522,1521,1522,1521,1522,
1521,1522,1521,1522,1521,1522,1521,1522,1521,1522,1521,1522,1521,1522,1521,1522,1521,1522,1521,1522,1521,1522,1521,1522,1521,1522,1521,1522,1521,1522,1521,1522,1521,1522,1521,1522,1521,1522,1521,1522,1521,1522,1521,1522,1521,1522,1521,1522,1521,1522,1521,1522,1521,1522,1521,1522,1521,1522,1521,1522,1521,1522,1521,1522,1521,1522,1521,1522,1521,1522,1521,1522,1521,1522,1521,1522,1521,1522,1521,1522,1521,1522,1521,1522,1521,1522,1521,1522,1521,1522,1521,1522,1521,1522,1521,1522,1521,1522,1521,1522,1521,1522,1521,1522,1521,1522,1521,1522,1521,1522,
1521,1522,1521,1522,1521,1522,1521,1522,1521,1522,1521,1522,1521,1522,1521,1522,1521,1522,1521,1522,1521,1522,1521,1522,1521,1522,1521,1522,1521,1522,1521,1522,1521,1522,1521,1522,1521,1522,1521,1522,1521,1522,1521,1522,1521,1522,1521,1522,1521,1522,1521,1522,1521,1522,1521,1522,1521,1522,1521,1522,1521,1522,1521,1522,1521,1522,1521,1522,1521,1522,1521,1522,1521,1522,1521,1522,1521,1522,1521,1522,1521,1522,1521,1522,1521,1522,1521,1522,1521,1522,1521,1522,1521,1522,1521,1522,1521,1522,1521,1522,1521,1522,1521,1522,1521,1522,1521,1522,1521,1522,
1521,1522,1521,1522,1521,1522,1521,1522,1521,1522,1521,1522,1521,1522,1521,1522,1521,1522,1521,1522,1521,1522,1521,1522,1521,1522,1521,1522,1521,1522,1521,1522,1521,1522,1521,1522,1521,1522,1521,1522,1521,1522,1521,1522,1521,1522,1521,1522,1521,1522,1521,1522,1521,1522,1521,1522,1521,1522,1521,1522,1521,1522,1521,1522,1521,1522,1521,1522,1521,1522,1521,1522,1521,1522,1521,1522,1521,1522,1521,1522,1521,1522,1521,1522,1521,1522,1521,1522,1521,1522,1521,1522,1521,1522,1521,1522,1521,1522,1521,1522,1521,1522,1521,1522,1521,1522,1521,1522,1521,1522,
1521,1522,1521,1522,1521,1522,1521,1522,1521,1522,1521,1522,1521,1522,1521,1522,1521,1522,1521,1522,1521,1522,1521,1522,1521,1522,1521,1522,1521,1522,1521,1522,1521,1522,1521,1522,1521,1522,1521,1522,1521,1522,1521,1522,1521,1522,1521,1522,1521,1522,1521,1522,1521,1522,1521,1522,1521,1522,1521,1522,1521,1522,1521,1522,1521,1522,1521,1522,1521,1522,1521,1522,1521,1522,1521,1522,1521,1522,1521,1522,1521,1522,1521,1522,1521,1522,1521,1522,1521,1522,1521,1522,1521,1522,1521,1522,1521,1522,1521,1522,1521,1522,1521,1522,1521,1522,1521,1522,1521,1522,
1521,1522,1521,1522,1521,1522,1521,1522,1521,1522,1521,1522,1521,1522,1521,1522,1521,1522,1521,1522,1521,1522,1521,1522,1521,1522,1521,1522,1521,1522,1521,1522,1521,1522,1521,1522,1521,1522,1521,1522,1521,1522,1521,1522,1521,1522,1521,1522,1521,1522,1521,1522,1521,1522,1521,1522,1521,1522,1521,1522,1521,1522,1521,1522,1521,1522,1521,1522,1521,1522,1521,1522,1521,1522,1521,1522,1521,1522,1521,1522,1521,1522,1521,1522,1521,1522,1521,1522,1521,1522,1521,1522,1521,1522,1521,1522,1521,1522,1521,1522,1521,1522,1521,1522,1521,1522,1521,1522,1521,1522,
1521,1522,1521,1522,1521,1522,1521,1522,1521,1522,1521,1522,1521,1522,1521,1522,1521,1522,1521,1522,1521,1522,1521,1522,1521,1522,1521,1522,1521,1522,1521,1522,1521,1522,1521,1522,1521,1522,1521,1522,1521,1522,1521,1522,1521,1522,1521,1522,1521,1522,1521,1522,1521,1522,1521,1522,1521,1522,1521,1522,1521,1522,1521,1522,1521,1522,1521,1522,1521,1522,1521,1522,1521,1522,1521,1522,1521,1522,1521,1522,1521,1522,1521,1522,1521,1522,1521,1522,1521,1522,1521,1522,1521,1522,1521,1522,1521,1522,1521,1522,1521,1522,1521,1522,1521,1522,1521,1522,1521,1522,
1521,1522,1521,1522,1521,1522,1521,1522,1521,1522,1521,1522,1521,1522,1521,1522,1521,1522,1521,1522,1521,1522,1521,1522,1521,1522,1521,1522,1521,1522,1521,1522,1521,1522,1521,1522,1521,1522,1521,1522,1521,1522,1521,1522,1521,1522,1521,1522,1521,1522,1521,1522,1521,1522,1521,1522,1521,1522,1521,1522,1521,1522,1521,1522,1521,1522,1521,1522,1521,1522,1521,1522,1521,1522,1521,1522,1521,1522,1521,1522,1521,1522,1521,1522,1521,1522,1521,1522,1521,1522,1521,1522,1521,1522,1521,1522,1521,1522,1521,1522,1521,1522,1521,1522,1521,1522,1521,1522,1521,1522,
1521,1522,1521,1522,1521,1522,1521,1522,1521,1522,1521,1522,1521,1522,1521,1522,1521,1522,1521,1522,1521,1522,1521,1522,1521,1522,1521,1522,1521,1522,1521,1522,1521,1522,1521,1522,1521,1522,1521,1522,1521,1522,1521,1522,1521,1522,1521,1522,1521,1522,1521,1522,1521,1522,1521,1522,1521,1522,1521,1522,1521,1522,1521,1522,1521,1522,1521,1522,1521,1522,1521,1522,1521,1522,1521,1522,1521,1522,1521,1522,1521,1522,1521,1522,1521,1522,1521,1522,1521,1522,1521,1522,1521,1522,1521,1522,1521,1522,1521,1522,1521,1522,1521,1522,1521,1522,1521,1522,1521,1522,
1521,1522,1521,1522,1521,1522,1521,1522,1521,1522,1521,1522,1521,1522,1521,1522,1521,1522,1521,1522,1521,1522,1521,1522,1521,1522,1521,1522,1521,1522,1521,1522,1521,1522,1521,1522,1521,1522,1521,1522,1521,1522,1521,1522,1521,1522,1521,1522,1521,1522,1521,1522,1521,1522,1521,1522,1521,1522,1521,1522,1521,1522,1521,1522,1521,1522,1521,1522,1521,1522,1521,1522,1521,1522,1521,1522,1521,1522,1521,1522,1521,1522,1521,1522,1521,1522,1521,1522,1521,1522,1521,1522,1521,1522,1521,1522,1521,1522,1521,1522,1521,1522,1521,1522,1521,1522,1521,1522,1521,1522,
1521,1522,1521,1522,1521,1522,1521,1522,1521,1522,1521,1522,1521,1522,1521,1522,1521,1522,1521,1522,1521,1522,1521,1522,1521,1522,1521,1522,1521,1522,1521,1522,1521,1522,1521,1522,1521,1522,1521,1522,1521,1522,1521,1522,1521,1522,1521,1522,1521,1522,1521,1522,1521,1522,1521,1522,1521,1522,1521,1522,1521,1522,1521,1522,1521,1522,1521,1522,1521,1522,1521,1522,1521,1522,1521,1522,1521,1522,1521,1522,1521,1522,1521,1522,1521,1522,1521,1522,1521,1522,1521,1522,1521,1522,1521,1522,1521,1522,1521,1522,1521,1522,1521,1522,1521,1522,1521,1522,1521,1522,
1521,1522,1521,1522,1521,1522,1521,1522,1521,1522,1521,1522,1521,1522,1521,1522,1521,1522,1521,1522,1521,1522,1521,1522,1521,1522,1521,1522,1521,1522,1521,1522,1521,1522,1521,1522,1521,1522,1521,1522,1521,1522,1521,1522,1521,1522,1521,1522,1521,1522,1521,1522,1521,1522,1521,1522,1521,1522,1521,1522,1521,1522,1521,1522,1521,1522,1521,1522,1521,1522,1521,1522,1521,1522,1521,1522,1521,1522,1521,1522,1521,1522,1521,1522,1521,1522,1521,1522,1521,1522,1521,1522,1521,1522,1521,1522,1521,1522,1521,1522,1521,1522,1521,1522,1521,1522,1521,1522,1521,1522,
1521,1522,1521,1522,1521,1522,1521,1522,1521,1522,1521,1522,1521,1522,1521,1522,1521,1522,1521,1522,1521,1522,1521,1522,1521,1522,1521,1522,1521,1522,1521,1522,1521,1522,1521,1522,1521,1522,1521,1522,1521,1522,1521,1522,1521,1522,1521,1522,1521,1522,1521,1522,1521,1522,1521,1522,1521,1522,1521,1522,1521,1522,1521,1522,1521,1522,1521,1522,1521,1522,1521,1522,1521,1522,1521,1522,1521,1522,1521,1522,1521,1522,1521,1522,1521,1522,1521,1522,1521,1522,1521,1522,1521,1522,1521,1522,1521,1522,1521,1522,1521,1522,1521,1522,1521,1522,1521,1522,1521,1522,
1521,1522,1521,1522,1521,1522,1521,1522,1521,1522,1521,1522,1521,1522,1521,1522,1521,1522,1521,1522,1521,1522,1521,1522,1521,1522,1521,1522,1521,1522,1521,1522,1521,1522,1521,1522,1521,1522,1521,1522,1521,1522,1521,1522,1521,1522,1521,1522,1521,1522,1521,1522,1521,1522,1521,1522,1521,1522,1521,1522,1521,1522,1521,1522,1521,1522,1521,1522,1521,1522,1521,1522,1521,1522,1521,1522,1521,1522,1521,1522,1521,1522,1521,1522,1521,1522,1521,1522,1521,1522,1521,1522,1521,1522,1521,1522,1521,1522,1521,1522,1521,1522,1521,1522,1521,1522,1521,1522,1521,1522,
1521,1522,1521,1522,1521,1522,1521,1522,1521,1522,1521,1522,1521,1522,1521,1522,1521,1522,1521,1522,1521,1522,1521,1522,1521,1522,1521,1522,1521,1522,1521,1522,1521,1522,1521,1522,1521,1522,1521,1522,1521,1522,1521,1522,1521,1522,1521,1522,1521,1522,1521,1522,1521,1522,1521,1522,1521,1522,1521,1522,1521,1522,1521,1522,1521,1522,1521,1522,1521,1522,1521,1522,1521,1522,1521,1522,1521,1522,1521,1522,1521,1522,1521,1522,1521,1522,1521,1522,1521,1522,1521,1522,1521,1522,1521,1522,1521,1522,1521,1522,1521,1522,1521,1522,1521,1522,1521,1522,1521,1522,
1521,1522,1521,1522,1521,1522,1521,1522,1521,1522,1521,1522,1521,1522,1521,1522,1521,1522,1521,1522,1521,1522,1521,1522,1521,1522,1521,1522,1521,1522,1521,1522,1521,1522,1521,1522,1521,1522,1521,1522,1521,1522,1521,1522,1521,1522,1521,1522,1521,1522,1521,1522,1521,1522,1521,1522,1521,1522,1521,1522,1521,1522,1521,1522,1521,1522,1521,1522,1521,1522,1521,1522,1521,1522,1521,1522,1521,1522,1521,1522,1521,1522,1521,1522,1521,1522,1521,1522,1521,1522,1521,1522,1521,1522,1521,1522,1521,1522,1521,1522,1521,1522,1521,1522,1521,1522,1521,1522,1521,1522,
1521,1522,1521,1522,1521,1522,1521,1522,1521,1522,1521,1522,1521,1522,1521,1522,1521,1522,1521,1522,1521,1522,1521,1522,1521,1522,1521,1522,1521,1522,1521,1522,1521,1522,1521,1522,1521,1522,1521,1522,1521,1522,1521,1522,1521,1522,1521,1522,1521,1522,1521,1522,1521,1522,1521,1522,1521,1522,1521,1522,1521,1522,1521,1522,1521,1522,1521,1522,1521,1522,1521,1522,1521,1522,1521,1522,1521,1522,1521,1522,1521,1522,1521,1522,1521,1522,1521,1522,1521,1522,1521,1522,1521,1522,1521,1522,1521,1522,1521,1522,1521,1522,1521,1522,1521,1522,1521,1522,1521,1522,
1521,1522,1521,1522,1521,1522,1521,1522,1521,1522,1521,1522,1521,1522,1521,1522,1521,1522,1521,1522,1521,1522,1521,1522,1521,1522,1521,1522,1521,1522,1521,1522,1521,1522,1521,1522,1521,1522,1521,1522,1521,1522,1521,1522,1521,1522,1521,1522,1521,1522,1521,1522,1521,1522,1521,1522,1521,1522,1521,1522,1521,1522,1521,1522,1521,1522,1521,1522,1521,1522,1521,1522,1521,1522,1521,1522,1521,1522,1521,1522,1521,1522,1521,1522,1521,1522,1521,1522,1521,1522,1521,1522,1521,1522,1521,1522,1521,1522,1521,1522,1521,1522,1521,1522,1521,1522,1521,1522,1521,1522,
1521,1522,1521,1522,1521,1522,1521,1522,1521,1522,1521,1522,1521,1522,1521,1522,1521,1522,1521,1522,1521,1522,1521,1522,1521,1522,1521,1522,1521,1522,1521,1522,1521,1522,1521,1522,1521,1522,1521,1522,1521,1522,1521,1522,1521,1522,1521,1522,1521,1522,1521,1522,1521,1522,1521,1522,1521,1522,1521,1522,1521,1522,1521,1522,1521,1522,1521,1522,1521,1522,1521,1522,1521,1522,1521,1522,1521,1522,1521,1522,1521,1522,1521,1522,1521,1522,1521,1522,1521,1522,1521,1522,1521,1522,1521,1522,1521,1522,1521,1522,1521,1522,1521,1522,1521,1522,1521,1522,1521,1522,
1521,1522,1521,1522,1521,1522,1521,1522,1521,1522,1521,1522,1521,1522,1521,1522,1521,1522,1521,1522,1521,1522,1521,1522,1521,1522,1521,1522,1521,1522,1521,1522,1521,1522,1521,1522,1521,1522,1521,1522,1521,1522,1521,1522,1521,1522,1521,1522,1521,1522,1521,1522,1521,1522,1521,1522,1521,1522,1521,1522,1521,1522,1521,1522,1521,1522,1521,1522,1521,1522,1521,1522,1521,1522,1521,1522,1521,1522,1521,1522,1521,1522,1521,1522,1521,1522,1521,1522,1521,1522,1521,1522,1521,1522,1521,1522,1521,1522,1521,1522,1521,1522,1521,1522,1521,1522,1521,1522,1521,1522,
1521,1522,1521,1522,1521,1522,1521,1522,1521,1522,1521,1522,1521,1522,1521,1522,1521,1522,1521,1522,1521,1522,1521,1522,1521,1522,1521,1522,1521,1522,1521,1522,1521,1522,1521,1522,1521,1522,1521,1522,1521,1522,1521,1522,1521,1522,1521,1522,1521,1522,1521,1522,1521,1522,1521,1522,1521,1522,1521,1522,1521,1522,1521,1522,1521,1522,1521,1522,1521,1522,1521,1522,1521,1522,1521,1522,1521,1522,1521,1522,1521,1522,1521,1522,1521,1522,1521,1522,1521,1522,1521,1522,1521,1522,1521,1522,1521,1522,1521,1522,1521,1522,1521,1522,1521,1522,1521,1522,1521,1522,
1521,1522,1521,1522,1521,1522,1521,1522,1521,1522,1521,1522,1521,1522,1521,1522,1521,1522,1521,1522,1521,1522,1521,1522,1521,1522,1521,1522,1521,1522,1521,1522,1521,1522,1521,1522,1521,1522,1521,1522,1521,1522,1521,1522,1521,1522,1521,1522,1521,1522,1521,1522,1521,1522,1521,1522,1521,1522,1521,1522,1521,1522,1521,1522,1521,1522,1521,1522,1521,1522,1521,1522,1521,1522,1521,1522,1521,1522,1521,1522,1521,1522,1521,1522,1521,1522,1521,1522,1521,1522,1521,1522,1521,1522,1521,1522,1521,1522,1521,1522,1521,1522,1521,1522,1521,1522,1521,1522,1521,1522,
1521,1522,1521,1522,1521,1522,1521,1522,1521,1522,1521,1522,1521,1522,1521,1522,1521,1522,1521,1522,1521,1522,1521,1522,1521,1522,1521,1522,1521,1522,1521,1522,1521,1522,1521,1522,1521,1522,1521,1522,1521,1522,1521,1522,1521,1522,1521,1522,1521,1522,1521,1522,1521,1522,1521,1522,1521,1522,1521,1522,1521,1522,1521,1522,1521,1522,1521,1522,1521,1522,1521,1522,1521,1522,1521,1522,1521,1522,1521,1522,1521,1522,1521,1522,1521,1522,1521,1522,1521,1522,1521,1522,1521,1522,1521,1522,1521,1522,1521,1522,1521,1522,1521,1522,1521,1522,1521,1522,1521,1522,
1521,1522,1521,1522,1521,1522,1521,1522,1521,1522,1521,1522,1521,1522,1521,1522,1521,1522,1521,1522,1521,1522,1521,1522,1521,1522,1521,1522,1521,1522,1521,1522,1521,1522,1521,1522,1521,1522,1521,1522,1521,1522,1521,1522,1521,1522,1521,1522,1521,1522,1521,1522,1521,1522,1521,1522,1521,1522,1521,1522,1521,1522,1521,1522,1521,1522,1521,1522,1521,1522,1521,1522,1521,1522,1521,1522,1521,1522,1521,1522,1521,1522,1521,1522,1521,1522,1521,1522,1521,1522,1521,1522,1521,1522,1521,1522,1521,1522,1521,1522,1521,1522,1521,1522,1521,1522,1521,1522,1521,1522,
1521,1522,1521,1522,1521,1522,1521,1522,1521,1522,1521,1522,1521,1522,1521,1522,1521,1522,1521,1522,1521,1522,1521,1522,1521,1522,1521,1522,1521,1522,1521,1522,1521,1522,1521,1522,1521,1522,1521,1522,1521,1522,1521,1522,1521,1522,1521,1522,1521,1522,1521,1522,1521,1522,1521,1522,1521,1522,1521,1522,1521,1522,1521,1522,1521,1522,1521,1522,1521,1522,1521,1522,1521,1522,1521,1522,1521,1522,1521,1522,1521,1522,1521,1522,1521,1522,1521,1522,1521,1522,1521,1522,1521,1522,1521,1522,1521,1522,1521,1522,1521,1522,1521,1522,1521,1522,1521,1522,1521,1522,
1521,1522,1521,1522,1521,1522,1521,1522,1521,1522,1521,1522,1521,1522,1521,1522,1521,1522,1521,1522,1521,1522,1521,1522,1521,1522,1521,1522,1521,1522,1521,1522,1521,1522,1521,1522,1521,1522,1521,1522,1521,1522,1521,1522,1521,1522,1521,1522,1521,1522,1521,1522,1521,1522,1521,1522,1521,1522,1521,1522,1521,1522,1521,1522,1521,1522,1521,1522,1521,1522,1521,1522,1521,1522,1521,1522,1521,1522,1521,1522,1521,1522,1521,1522,1521,1522,1521,1522,1521,1522,1521,1522,1521,1522,1521,1522,1521,1522,1521,1522,1521,1522,1521,1522,1521,1522,1521,1522,1521,1522,
1521,1522,1521,1522,1521,1522,1521,1522,1521,1522,1521,1522,1521,1522,1521,1522,1521,1522,1521,1522,1521,1522,1521,1522,1521,1522,1521,1522,1521,1522,1521,1522,1521,1522,1521,1522,1521,1522,1521,1522,1521,1522,1521,1522,1521,1522,1521,1522,1521,1522,1521,1522,1521,1522,1521,1522,1521,1522,1521,1522,1521,1522,1521,1522,1521,1522,1521,1522,1521,1522,1521,1522,1521,1522,1521,1522,1521,1522,1521,1522,1521,1522,1521,1522,1521,1522,1521,1522,1521,1522,1521,1522,1521,1522,1521,1522,1521,1522,1521,1522,1521,1522,1521,1522,1521,1522,1521,1522,1521,1522,
1521,1522,1521,1522,1521,1522,1521,1522,1521,1522,1521,1522,1521,1522,1521,1522,1521,1522,1521,1522,1521,1522,1521,1522,1521,1522,1521,1522,1521,1522,1521,1522,1521,1522,1521,1522,1521,1522,1521,1522,1521,1522,1521,1522,1521,1522,1521,1522,1521,1522,1521,1522,1521,1522,1521,1522,1521,1522,1521,1522,1521,1522,1521,1522,1521,1522,1521,1522,1521,1522,1521,1522,1521,1522,1521,1522,1521,1522,1521,1522,1521,1522,1521,1522,1521,1522,1521,1522,1521,1522,1521,1522,1521,1522,1521,1522,1521,1522,1521,1522,1521,1522,1521,1522,1521,1522,1521,1522,1521,1522
</data>
 </layer>
 <layer name="backwallshadow" width="110" height="84">
  <data encoding="csv">
0,0,0,0,0,0,0,0,0,0,0,0,0,0,0,0,0,0,0,0,0,0,0,0,0,0,0,0,0,0,0,0,0,0,0,0,0,0,0,0,0,0,0,0,0,0,0,0,0,0,0,0,0,0,0,0,0,0,0,0,0,0,0,0,0,0,0,0,0,0,0,0,0,0,0,0,0,0,0,0,0,0,0,0,0,0,0,0,0,0,0,0,0,0,0,0,0,0,0,0,0,0,0,0,0,0,0,0,0,0,
0,0,0,0,0,0,0,0,0,0,0,0,0,0,0,0,0,0,0,0,0,0,0,0,0,0,0,0,0,0,0,0,0,0,0,0,0,0,0,0,0,0,0,0,0,0,0,0,0,0,0,0,0,0,0,0,0,0,0,0,0,0,0,0,0,0,0,0,0,0,0,0,0,0,0,0,0,0,0,0,0,0,0,0,0,0,0,0,0,0,0,0,0,0,0,0,0,0,0,0,0,0,0,0,0,0,0,0,0,0,
0,0,0,0,0,0,0,0,0,0,0,0,0,0,0,0,0,0,0,0,0,0,0,0,0,0,0,0,0,0,0,0,0,0,0,0,0,0,0,0,0,0,0,0,0,0,0,0,0,0,0,0,0,0,0,0,0,0,0,0,0,0,0,0,0,0,0,0,0,0,0,0,0,0,0,0,0,0,0,0,0,0,0,0,0,0,0,0,0,0,0,0,0,0,0,0,0,0,0,0,0,0,0,0,0,0,0,0,0,0,
0,0,0,0,0,0,0,0,0,0,0,0,0,0,0,0,0,0,0,0,0,0,0,0,0,0,0,0,0,0,0,0,0,0,0,0,0,0,0,0,0,0,0,0,0,0,0,0,0,0,0,0,0,0,0,0,0,0,0,0,0,0,0,0,0,0,0,0,0,0,0,0,0,0,0,0,0,0,0,0,0,0,0,0,0,0,0,0,0,0,0,0,0,0,0,0,0,0,0,0,0,0,0,0,0,0,0,0,0,0,
0,0,0,0,0,0,0,0,0,0,0,0,0,0,0,0,0,0,0,0,0,0,0,0,0,0,0,0,0,0,0,0,0,0,0,0,0,0,0,0,0,0,0,0,0,0,0,0,0,0,0,0,0,0,0,0,0,0,0,0,0,0,0,0,0,0,0,0,0,0,0,0,0,0,0,0,0,0,0,0,0,0,0,0,0,0,0,0,0,0,0,0,0,0,0,0,0,0,0,0,0,0,0,0,0,0,0,0,0,0,
0,0,0,0,0,0,0,0,0,0,0,0,0,0,0,0,0,0,0,0,0,0,0,0,0,0,0,0,0,0,0,0,0,0,0,0,0,0,0,0,0,0,0,0,0,0,0,0,0,0,0,0,0,0,0,0,0,0,0,0,0,0,0,0,0,0,0,0,0,0,0,0,0,0,0,0,0,0,0,0,0,0,0,0,0,0,0,0,0,0,0,0,0,0,0,0,0,0,0,0,0,0,0,0,0,0,0,0,0,0,
0,0,0,0,0,0,0,0,0,0,0,0,0,0,0,0,0,0,0,0,0,0,0,0,0,0,0,0,0,0,0,0,0,0,0,0,0,0,0,0,0,0,0,0,0,0,0,0,0,0,0,0,0,0,0,0,0,0,0,0,0,0,0,0,0,0,0,0,0,0,0,0,0,0,0,0,0,0,0,0,0,0,0,0,0,0,0,0,0,0,0,0,0,0,0,0,0,0,0,0,0,0,0,0,0,0,0,0,0,0,
0,0,0,0,0,0,0,0,0,0,0,0,0,0,0,0,0,0,0,0,0,0,0,0,0,0,0,0,0,0,0,0,0,0,0,0,0,0,0,0,0,0,0,0,0,0,0,0,0,0,0,0,0,0,0,0,0,0,0,0,0,0,0,0,0,0,0,0,0,0,0,0,0,0,0,0,0,0,0,0,0,0,0,0,0,0,0,0,0,0,0,0,0,0,0,0,0,0,0,0,0,0,0,0,0,0,0,0,0,0,
0,0,0,0,0,0,0,0,0,0,0,0,0,0,0,0,0,0,0,0,0,0,0,0,0,0,0,0,0,0,0,0,0,0,0,0,0,0,0,0,0,0,0,0,0,0,0,0,0,0,0,0,0,0,0,0,0,0,0,0,0,0,0,0,0,0,0,0,0,0,0,0,0,0,0,0,0,0,0,0,0,0,0,0,0,0,0,0,0,0,0,0,0,0,0,0,0,0,0,0,0,0,0,0,0,0,0,0,0,0,
0,0,0,0,0,0,0,0,0,0,0,0,0,0,0,0,0,0,0,0,0,0,0,0,0,0,0,0,0,0,0,0,0,0,0,0,0,0,0,0,0,0,0,0,0,0,0,0,0,0,0,0,0,0,0,0,0,0,0,0,0,0,0,0,0,0,0,0,0,0,0,0,0,0,0,0,0,0,0,0,0,0,0,0,0,0,0,0,0,0,0,0,0,0,0,0,0,0,0,0,0,0,0,0,0,0,0,0,0,0,
0,0,0,0,0,0,0,0,0,0,0,0,0,0,0,0,0,0,0,0,0,0,0,0,0,0,0,0,0,0,0,0,0,0,0,0,0,0,0,0,0,0,0,0,0,0,0,0,0,0,0,0,0,0,0,0,0,0,0,0,0,0,0,0,0,0,0,0,0,0,0,0,0,0,0,0,0,0,0,0,0,0,0,0,0,0,0,0,0,0,0,0,0,0,0,0,0,0,0,0,0,0,0,0,0,0,0,0,0,0,
0,0,0,0,0,0,0,0,0,0,0,0,0,0,0,0,0,0,0,0,0,0,0,0,0,0,0,0,0,0,0,0,0,0,0,0,0,0,0,0,0,0,0,0,0,0,0,0,0,0,0,0,0,0,0,0,0,0,0,0,0,0,0,0,0,0,0,0,0,0,0,0,0,0,0,0,0,0,0,0,0,0,0,0,0,0,0,0,0,0,0,0,0,0,0,0,0,0,0,0,0,0,0,0,0,0,0,0,0,0,
0,0,0,0,0,0,0,0,0,0,0,0,0,0,0,0,0,0,0,0,0,0,0,0,0,0,0,0,0,0,0,0,0,0,0,0,0,0,0,0,0,0,0,0,0,0,0,0,0,0,0,0,0,0,0,0,0,0,0,0,0,0,0,0,0,0,0,0,0,0,0,0,0,0,0,0,0,0,0,0,0,0,0,0,0,0,0,0,0,0,0,0,0,0,0,0,0,0,0,0,0,0,0,0,0,0,0,0,0,0,
0,0,0,0,0,0,0,0,0,0,0,0,0,0,0,0,0,0,0,0,0,0,0,0,0,0,0,0,0,0,0,0,0,0,0,0,0,0,0,0,0,0,0,0,0,0,0,0,0,0,0,0,4629,0,0,0,0,4631,0,0,0,0,0,0,0,0,0,0,0,0,0,0,0,0,0,0,0,0,0,0,0,0,0,0,0,0,0,0,0,0,0,0,0,0,0,0,0,0,0,0,0,0,0,0,0,0,0,0,0,0,
0,0,0,0,0,0,0,0,0,0,0,0,0,0,0,0,0,0,0,0,0,0,0,0,0,0,0,0,0,0,0,0,0,0,0,0,0,0,0,0,0,0,0,0,0,0,0,0,0,0,0,0,4629,0,0,0,0,4631,0,0,0,0,0,0,0,0,0,0,0,0,0,0,0,0,0,0,0,0,0,0,0,0,0,0,0,0,0,0,0,0,0,0,0,0,0,0,0,0,0,0,0,0,0,0,0,0,0,0,0,0,
0,0,0,0,0,0,0,0,0,0,0,0,0,0,0,0,0,0,0,0,0,0,0,0,0,0,0,0,0,0,0,0,0,0,0,0,0,0,0,0,0,0,0,0,0,0,0,0,0,0,0,0,4629,0,0,0,0,4631,0,0,0,0,0,0,0,0,0,0,0,0,0,0,0,0,0,0,0,0,0,0,0,0,0,0,0,0,0,0,0,0,0,0,0,0,0,0,0,0,0,0,0,0,0,0,0,0,0,0,0,0,
0,0,0,0,0,0,0,0,0,0,0,0,0,0,0,0,0,0,0,0,0,0,0,0,0,0,0,0,0,0,0,0,0,0,0,0,0,0,0,0,0,0,0,0,0,0,0,0,0,0,0,0,4667,4668,4668,4668,4668,4669,0,0,0,0,0,0,0,0,0,0,0,0,0,0,0,0,0,0,0,0,0,0,0,0,0,0,0,0,0,0,0,0,0,0,0,0,0,0,0,0,0,0,0,0,0,0,0,0,0,0,0,0,
0,0,0,0,0,0,0,0,0,0,0,0,0,0,0,0,0,0,0,0,0,0,0,0,0,0,0,0,0,0,0,0,0,0,0,0,0,0,0,0,0,0,0,0,0,0,0,0,0,0,0,0,0,0,0,0,0,0,0,0,0,0,0,0,0,0,0,0,0,0,0,0,0,0,0,0,0,0,0,0,0,0,0,0,0,0,0,0,0,0,0,0,0,0,0,0,0,0,0,0,0,0,0,0,0,0,0,0,0,0,
0,0,0,0,0,0,0,0,0,0,0,0,0,0,0,0,0,0,0,0,0,0,0,0,0,0,0,0,0,0,0,0,0,0,0,0,0,0,0,0,0,0,0,0,0,0,0,0,0,0,0,0,0,0,0,0,0,0,0,0,0,0,0,0,0,0,0,0,0,0,0,0,0,0,0,0,0,0,0,0,0,0,0,0,0,0,0,0,0,0,0,0,0,0,0,0,0,0,0,0,0,0,0,0,0,0,0,0,0,0,
0,0,0,0,0,0,0,0,0,0,0,0,0,0,0,0,0,0,0,0,0,0,0,0,0,0,0,0,0,0,0,0,0,0,0,0,0,0,0,0,0,0,0,0,0,0,0,0,0,0,0,0,0,0,0,0,0,0,0,0,0,0,0,0,0,0,0,0,0,0,0,0,0,0,0,0,0,0,0,0,0,0,0,0,0,0,0,0,0,0,0,0,0,0,0,0,0,0,0,0,0,0,0,0,0,0,0,0,0,0,
0,0,0,0,0,0,0,0,0,0,0,0,0,0,0,0,0,0,0,0,0,0,0,0,0,0,0,0,0,0,0,0,0,0,0,0,0,0,0,0,0,0,0,0,0,0,0,0,0,0,0,0,0,0,0,0,0,0,0,0,0,0,0,0,0,0,0,0,0,0,0,0,0,0,0,0,0,0,0,0,0,0,0,0,0,0,0,0,0,0,0,0,0,0,0,0,0,0,0,0,0,0,0,0,0,0,0,0,0,0,
0,0,0,0,0,0,0,0,0,0,0,0,0,0,0,0,0,0,0,0,0,0,0,0,0,0,0,0,0,0,0,0,0,0,0,0,0,0,0,0,0,0,0,0,0,0,0,0,0,0,0,0,0,0,0,0,0,0,0,0,0,0,0,0,0,0,0,0,0,0,0,0,0,0,0,0,0,0,0,0,0,0,0,0,0,0,0,0,0,0,0,0,0,0,0,0,0,0,0,0,0,0,0,0,0,0,0,0,0,0,
0,0,0,0,0,0,0,0,0,0,0,0,0,0,0,0,0,0,0,0,0,0,0,0,0,0,0,0,0,0,0,0,0,0,0,0,0,0,0,0,0,0,0,0,0,0,0,0,0,0,0,0,0,0,0,0,0,0,0,0,0,0,0,0,0,0,0,0,0,0,0,0,0,0,0,0,0,0,0,0,0,0,0,0,0,0,0,0,0,0,0,0,0,0,0,0,0,0,0,0,0,0,0,0,0,0,0,0,0,0,
0,0,0,0,0,0,0,0,0,0,0,0,0,0,0,0,0,0,0,0,0,0,0,0,0,0,0,0,0,0,0,0,0,0,0,0,0,0,0,0,0,0,0,0,0,0,0,0,0,0,0,0,0,0,0,0,0,0,0,0,0,0,0,0,0,0,0,0,0,0,0,0,0,0,0,0,0,0,0,0,0,0,0,0,0,0,0,0,0,0,0,0,0,0,0,0,0,0,0,0,0,0,0,0,0,0,0,0,0,0,
0,0,0,0,0,0,0,0,0,0,0,0,0,0,0,0,0,0,0,0,0,0,0,0,0,0,0,0,0,0,0,0,0,0,0,0,0,0,0,0,0,0,0,0,0,0,0,0,0,0,0,0,0,0,0,0,0,0,0,0,0,0,0,0,0,0,0,0,0,0,0,0,0,0,0,0,0,0,0,0,0,0,0,0,0,0,0,0,0,0,0,0,0,0,0,0,0,0,0,0,0,0,0,0,0,0,0,0,0,0,
0,0,0,0,0,0,0,0,0,0,0,0,0,0,0,0,0,0,0,0,0,0,0,0,0,0,0,0,0,0,0,0,0,0,0,0,0,0,0,0,0,0,0,0,0,0,0,0,0,0,0,0,0,0,0,0,0,0,0,0,0,0,0,0,0,0,0,0,0,0,0,0,0,0,0,0,0,0,0,0,0,0,0,0,0,0,0,0,0,0,0,0,0,0,0,0,0,0,0,0,0,0,0,0,0,0,0,0,0,0,
0,0,0,0,0,0,0,0,0,0,0,0,0,0,0,0,0,0,0,0,0,0,0,0,0,0,0,0,0,0,0,0,0,0,0,0,0,0,0,0,0,0,0,0,0,0,0,0,0,0,0,0,0,0,0,0,0,0,0,0,0,0,0,0,0,0,0,0,0,0,0,0,0,0,0,0,0,0,0,0,0,0,0,0,0,0,0,0,0,0,0,0,0,0,0,0,0,0,0,0,0,0,0,0,0,0,0,0,0,0,
0,0,0,0,0,0,0,0,0,0,0,0,0,0,0,0,0,0,0,0,0,0,0,0,0,0,0,0,0,0,0,0,0,0,0,0,0,0,0,0,0,0,0,0,0,0,0,0,0,0,0,0,0,0,0,0,0,0,0,0,0,0,0,0,0,0,0,0,0,0,0,0,0,0,0,0,0,0,0,0,0,0,0,0,0,0,0,0,0,0,0,0,0,0,0,0,0,0,0,0,0,0,0,0,0,0,0,0,0,0,
0,0,0,0,0,0,0,0,0,0,0,0,0,0,0,0,0,0,0,0,0,0,0,0,0,0,0,0,0,0,0,0,0,0,0,0,0,0,0,0,0,0,0,0,0,0,0,0,0,0,0,0,0,0,0,0,0,0,0,0,0,0,0,0,0,0,0,0,0,0,0,0,0,0,0,0,0,0,0,0,0,0,0,0,0,0,0,0,0,0,0,0,0,0,0,0,0,0,0,0,0,0,0,0,0,0,0,0,0,0,
0,0,0,0,0,0,0,0,0,0,0,0,0,0,0,0,0,0,0,0,0,0,0,0,0,0,0,0,0,0,0,0,0,0,0,0,0,0,0,0,0,0,0,0,0,0,0,0,0,0,0,0,0,0,0,0,0,0,0,0,0,0,0,0,0,0,0,0,0,0,0,0,0,0,0,0,0,0,0,0,0,0,0,0,0,0,0,0,0,0,0,0,0,0,0,0,0,0,0,0,0,0,0,0,0,0,0,0,0,0,
0,0,0,0,0,0,0,0,0,0,0,0,0,0,0,0,0,0,0,0,0,0,0,0,0,0,0,0,0,0,0,0,0,0,0,0,0,0,0,0,0,0,0,0,0,0,0,0,0,0,0,0,0,0,0,0,0,0,0,0,0,0,0,0,0,0,0,0,0,0,0,0,0,0,0,0,0,0,0,0,0,0,0,0,0,0,0,0,0,0,0,0,0,0,0,0,0,0,0,0,0,0,0,0,0,0,0,0,0,0,
0,0,0,0,0,0,0,0,0,0,0,0,0,0,0,0,0,0,0,0,0,0,0,0,0,0,0,0,0,0,0,0,0,0,0,0,0,0,0,0,0,0,0,0,0,0,0,0,0,0,0,0,0,0,0,0,0,0,0,0,0,0,0,0,0,0,0,0,0,0,0,0,0,0,0,0,0,0,0,0,0,0,0,0,0,0,0,0,0,0,0,0,0,0,0,0,0,0,0,0,0,0,0,0,0,0,0,0,0,0,
0,0,0,0,0,0,0,0,0,0,0,0,0,0,0,0,0,0,0,0,0,0,0,0,0,0,0,0,0,0,0,0,0,0,0,0,0,0,0,0,0,0,0,0,0,0,0,0,0,0,0,0,0,0,0,0,0,0,0,0,0,0,0,0,0,0,0,0,0,0,0,0,0,0,0,0,0,0,0,0,0,0,0,0,0,0,0,0,0,0,0,0,0,0,0,0,0,0,0,0,0,0,0,0,0,0,0,0,0,0,
0,0,0,0,0,0,0,0,0,0,0,0,0,0,0,0,0,0,0,0,0,0,0,0,0,0,0,0,0,0,0,0,0,0,0,0,0,0,0,0,0,0,0,0,0,0,0,0,0,0,0,0,0,0,0,0,0,0,0,0,0,0,0,0,0,0,0,0,0,0,0,0,0,0,0,0,0,0,0,0,0,0,0,0,0,0,0,0,0,0,0,0,0,0,0,0,0,0,0,0,0,0,0,0,0,0,0,0,0,0,
0,0,0,0,0,0,0,0,0,0,0,0,0,0,0,0,0,0,0,0,0,0,0,0,0,0,0,0,0,0,0,0,0,0,0,0,0,0,0,0,0,0,0,0,0,0,0,0,0,0,0,0,0,0,0,0,0,0,0,0,0,0,0,0,0,0,0,0,0,0,0,0,0,0,0,0,0,0,0,0,0,0,0,0,0,0,0,0,0,0,0,0,0,0,0,0,0,0,0,0,0,0,0,0,0,0,0,0,0,0,
0,0,0,0,0,0,0,0,0,0,0,0,0,0,0,0,0,0,0,0,0,0,0,0,0,0,0,0,0,0,0,0,0,0,0,0,0,0,0,0,0,0,0,0,0,0,0,0,0,0,0,0,0,0,0,0,0,0,0,0,0,0,0,0,0,0,0,0,0,0,0,0,0,0,0,0,0,0,0,0,0,0,0,0,0,0,0,0,0,0,0,0,0,0,0,0,0,0,0,0,0,0,0,0,0,0,0,0,0,0,
0,0,0,0,0,0,0,0,0,0,0,0,0,0,0,0,0,0,0,0,0,0,0,0,0,0,0,0,0,0,0,0,0,0,0,0,0,0,0,0,0,0,0,0,0,0,0,0,0,0,0,0,0,0,0,0,0,0,0,0,0,0,0,0,0,0,0,0,0,0,0,0,0,0,0,0,0,0,0,0,0,0,0,0,0,0,0,0,0,0,0,0,0,0,0,0,0,0,0,0,0,0,0,0,0,0,0,0,0,0,
0,0,0,0,0,0,0,0,0,0,0,0,0,0,0,0,0,0,0,0,0,0,0,0,0,0,0,0,0,0,0,0,0,0,0,0,0,0,0,0,0,0,0,0,0,0,0,0,0,0,0,0,0,0,0,0,0,0,0,0,0,0,0,0,0,0,0,0,0,0,0,0,0,0,0,0,0,0,0,0,0,0,0,0,0,0,0,0,0,0,0,0,0,0,0,0,0,0,0,0,0,0,0,0,0,0,0,0,0,0,
0,0,0,0,0,0,0,0,0,0,0,0,0,0,0,0,0,0,0,0,0,0,0,0,0,0,0,0,0,0,0,0,0,0,0,0,0,0,0,0,0,0,0,0,0,0,0,0,0,0,0,0,0,0,0,0,0,0,0,0,0,0,0,0,0,0,0,0,0,0,0,0,0,0,0,0,0,0,0,0,0,0,0,0,0,0,0,0,0,0,0,0,0,0,0,0,0,0,0,0,0,0,0,0,0,0,0,0,0,0,
0,0,0,0,0,0,0,0,0,0,0,0,0,0,0,0,0,0,0,0,0,0,0,0,0,0,0,0,0,0,0,0,0,0,0,0,0,0,0,0,0,0,0,0,0,0,0,0,0,0,0,0,0,0,0,0,0,0,0,0,0,0,0,0,0,0,0,0,0,0,0,0,0,0,0,0,0,0,0,0,0,0,0,0,0,0,0,0,0,0,0,0,0,0,0,0,0,0,0,0,0,0,0,0,0,0,0,0,0,0,
0,0,0,0,0,0,0,0,0,0,0,0,0,0,0,0,0,0,0,0,0,0,0,0,0,0,0,0,0,0,0,0,0,0,0,0,0,0,0,0,0,0,0,0,0,0,0,0,0,0,0,0,0,0,0,0,0,0,0,0,0,0,0,0,0,0,0,0,0,0,0,0,0,0,0,0,0,0,0,0,0,0,0,0,0,0,0,0,0,0,0,0,0,0,0,0,0,0,0,0,0,0,0,0,0,0,0,0,0,0,
0,0,0,0,0,0,0,0,0,0,0,0,0,0,0,0,0,0,0,0,0,0,0,0,0,0,0,0,0,0,0,0,0,0,0,0,0,0,0,0,0,0,0,0,0,0,0,0,0,0,0,0,0,0,0,0,0,0,0,0,0,0,0,0,0,0,0,0,0,0,0,0,0,0,0,0,0,0,0,0,0,0,0,0,0,0,0,0,0,0,0,0,0,0,0,0,0,0,0,0,0,0,0,0,0,0,0,0,0,0,
0,0,0,0,0,0,0,0,0,0,0,0,0,0,0,0,0,0,0,0,0,0,0,0,0,0,0,0,0,0,0,0,0,0,0,0,0,0,0,0,0,0,0,0,0,0,0,0,0,0,0,0,0,0,0,0,0,0,0,0,0,0,0,0,0,0,0,0,0,0,0,0,0,0,0,0,0,0,0,0,0,0,0,0,0,0,0,0,0,0,0,0,0,0,0,0,0,0,0,0,0,0,0,0,0,0,0,0,0,0,
0,0,0,0,0,0,0,0,0,0,0,0,0,0,0,0,0,0,0,0,0,0,0,0,0,0,0,0,0,0,0,0,0,0,0,0,0,0,0,0,0,0,0,0,0,0,0,0,0,0,0,0,0,0,0,0,0,0,0,0,0,0,0,0,0,0,0,0,0,0,0,0,0,0,0,0,0,0,0,0,0,0,0,0,0,0,0,0,0,0,0,0,0,0,0,0,0,0,0,0,0,0,0,0,0,0,0,0,0,0,
0,0,0,0,0,0,0,0,0,0,0,0,0,0,0,0,0,0,0,0,0,0,0,0,0,0,0,0,0,0,0,0,0,0,0,0,0,0,0,0,0,0,0,0,0,0,0,0,0,0,0,0,0,0,0,0,0,0,0,0,0,0,0,0,0,0,0,0,0,0,0,0,0,0,0,0,0,0,0,0,0,0,0,0,0,0,0,0,0,0,0,0,0,0,0,0,0,0,0,0,0,0,0,0,0,0,0,0,0,0,
0,0,0,0,0,0,0,0,0,0,0,0,0,0,0,0,0,0,0,0,0,0,0,0,0,0,0,0,0,0,0,0,0,0,0,0,0,0,0,0,0,0,0,0,0,0,0,0,0,0,0,0,0,0,0,0,0,0,0,0,0,0,0,0,0,0,0,0,0,0,0,0,0,0,0,0,0,0,0,0,0,0,0,0,0,0,0,0,0,0,0,0,0,0,0,0,0,0,0,0,0,0,0,0,0,0,0,0,0,0,
0,0,0,0,0,0,0,0,0,0,0,0,0,0,0,0,0,0,0,0,0,0,0,0,0,0,0,0,0,0,0,0,0,0,0,0,0,0,0,0,0,0,0,0,0,0,0,0,0,0,0,0,0,0,0,0,0,0,0,0,0,0,0,0,0,0,0,0,0,0,0,0,0,0,0,0,0,0,0,0,0,0,0,0,0,0,0,0,0,0,0,0,0,0,0,0,0,0,0,0,0,0,0,0,0,0,0,0,0,0,
0,0,0,0,0,0,0,0,0,0,0,0,0,0,0,0,0,0,0,0,0,0,0,0,0,0,0,0,0,0,0,0,0,0,0,0,0,0,0,0,0,0,0,0,0,0,0,0,0,0,0,0,4629,0,0,0,0,4631,0,0,0,0,0,0,0,0,0,0,0,0,0,0,0,0,0,0,0,0,0,0,0,0,0,0,0,0,0,0,0,0,0,0,0,0,0,0,0,0,0,0,0,0,0,0,0,0,0,0,0,0,
0,0,0,0,0,0,0,0,0,0,0,0,0,0,0,0,0,0,0,0,0,0,0,0,0,0,0,0,0,0,0,0,0,0,0,0,0,0,0,0,0,0,0,0,0,0,0,0,0,0,0,0,4629,0,0,0,0,4631,0,0,0,0,0,0,0,0,0,0,0,0,0,0,0,0,0,0,0,0,0,0,0,0,0,0,0,0,0,0,0,0,0,0,0,0,0,0,0,0,0,0,0,0,0,0,0,0,0,0,0,0,
0,0,0,0,0,0,0,0,0,0,0,0,0,0,0,0,0,0,0,0,0,0,0,0,0,0,0,0,0,0,0,0,0,0,0,0,0,0,0,0,0,0,0,0,0,0,0,0,0,0,0,0,4629,0,0,0,0,4631,0,0,0,0,0,0,0,0,0,0,0,0,0,0,0,0,0,0,0,0,0,0,0,0,0,0,0,0,0,0,0,0,0,0,0,0,0,0,0,0,0,0,0,0,0,0,0,0,0,0,0,0,
0,0,0,0,0,0,0,0,0,0,0,0,0,0,0,0,0,0,0,0,0,0,0,0,0,0,0,0,0,0,0,0,0,0,0,0,0,0,0,0,0,0,0,0,0,0,0,0,0,0,0,0,4667,4668,4668,4668,4668,4669,0,0,0,0,0,0,0,0,0,0,0,0,0,0,0,0,0,0,0,0,0,0,0,0,0,0,0,0,0,0,0,0,0,0,0,0,0,0,0,0,0,0,0,0,0,0,0,0,0,0,0,0,
0,0,0,0,0,0,0,0,0,0,0,0,0,0,0,0,0,0,0,0,0,0,0,0,0,0,0,0,0,0,0,0,0,0,0,0,0,0,0,0,0,0,0,0,0,0,0,0,0,0,0,0,0,0,0,0,0,0,0,0,0,0,0,0,0,0,0,0,0,0,0,0,0,0,0,0,0,0,0,0,0,0,0,0,0,0,0,0,0,0,0,0,0,0,0,0,0,0,0,0,0,0,0,0,0,0,0,0,0,0,
0,0,0,0,0,0,0,0,0,0,0,0,0,0,0,0,0,0,0,0,0,0,0,0,0,0,0,0,0,0,0,0,0,0,0,0,0,0,0,0,0,0,0,0,0,0,0,0,0,0,0,0,0,0,0,0,0,0,0,0,0,0,0,0,0,0,0,0,0,0,0,0,0,0,0,0,0,0,0,0,0,0,0,0,0,0,0,0,0,0,0,0,0,0,0,0,0,0,0,0,0,0,0,0,0,0,0,0,0,0,
0,0,0,0,0,0,0,0,0,0,0,0,0,0,0,0,0,0,0,0,0,0,0,0,0,0,0,0,0,0,0,0,0,0,0,0,0,0,0,0,0,0,0,0,0,0,0,0,0,0,0,0,0,0,0,0,0,0,0,0,0,0,0,0,0,0,0,0,0,0,0,0,0,0,0,0,0,0,0,0,0,0,0,0,0,0,0,0,0,0,0,0,0,0,0,0,0,0,0,0,0,0,0,0,0,0,0,0,0,0,
3598,3598,3598,3598,3598,3598,3598,3598,3598,3598,3598,3598,3598,3598,3598,3598,3598,3598,3598,3598,3598,3598,3598,3598,3598,3598,3598,3598,3598,3598,3598,3598,3598,3598,3598,3598,3598,3598,3598,3598,3598,3598,3598,3598,3598,3598,3598,3598,3598,3598,3598,3598,3598,0,0,0,0,3598,3598,3598,3598,3598,3598,3598,3598,3598,3598,3598,3598,3598,3598,3598,3598,3598,3598,3598,3598,3598,3598,3598,3598,3598,3598,3598,3598,3598,3598,3598,3598,3598,3598,3598,3598,3598,3598,3598,3598,3598,3598,3598,3598,3598,3598,3598,3598,3598,3598,3598,3598,3598,
3598,3598,3598,3598,3598,3598,3598,3598,3598,3598,3598,3598,3598,3598,3598,3598,3598,3598,3598,3598,3598,3598,3598,3598,3598,3598,3598,3598,3598,3598,3598,3598,3598,3598,3598,3598,3598,3598,3598,3598,3598,3598,3598,3598,3598,3598,3598,3598,3598,3598,3598,3598,3598,0,0,0,0,3598,3598,3598,3598,3598,3598,3598,3598,3598,3598,3598,3598,3598,3598,3598,3598,3598,3598,3598,3598,3598,3598,3598,3598,3598,3598,3598,3598,3598,3598,3598,3598,3598,3598,3598,3598,3598,3598,3598,3598,3598,3598,3598,3598,3598,3598,3598,3598,3598,3598,3598,3598,3598,
3598,3598,3598,3598,3598,3598,3598,3598,3598,3598,3598,3598,3598,3598,3598,3598,3598,3598,3598,3598,3598,3598,3598,3598,3598,3598,3598,3598,3598,3598,3598,3598,3598,3598,3598,3598,3598,3598,3598,3598,3598,3598,3598,3598,3598,3598,3598,3598,3598,3598,3598,3598,3598,0,0,0,0,3598,3598,3598,3598,3598,3598,3598,3598,3598,3598,3598,3598,3598,3598,3598,3598,3598,3598,3598,3598,3598,3598,3598,3598,3598,3598,3598,3598,3598,3598,3598,3598,3598,3598,3598,3598,3598,3598,3598,3598,3598,3598,3598,3598,3598,3598,3598,3598,3598,3598,3598,3598,3598,
3598,3598,3598,3598,3598,3598,3598,3598,3598,3598,3598,3598,3598,3598,3598,3598,3598,3598,3598,3598,3598,3598,3598,3598,3598,3598,3598,3598,3598,3598,3598,3598,3598,3598,3598,3598,3598,3598,3598,3598,3598,3598,3598,3598,3598,3598,3598,3598,3598,3598,3598,3598,3598,0,0,0,0,3598,3598,3598,3598,3598,3598,3598,3598,3598,3598,3598,3598,3598,3598,3598,3598,3598,3598,3598,3598,3598,3598,3598,3598,3598,3598,3598,3598,3598,3598,3598,3598,3598,3598,3598,3598,3598,3598,3598,3598,3598,3598,3598,3598,3598,3598,3598,3598,3598,3598,3598,3598,3598,
3597,3597,3597,3597,3597,3597,3597,3597,3597,3597,3597,3597,3597,3597,3597,3597,3598,3597,3597,3597,3598,3598,3598,3598,3598,3598,3598,3598,3597,3597,3597,3597,3597,3597,3597,3597,3597,3597,3597,3597,3597,3597,3597,3597,3597,3597,3597,3597,3597,3597,3597,3597,3597,0,0,0,0,3597,3597,3597,3597,3597,3597,3597,3597,3597,3597,3597,3597,3597,3597,3597,3597,3597,3597,3597,3597,3597,3597,3597,3597,3597,3597,3597,3597,3597,3597,3597,3597,3597,3597,3597,3597,3597,3597,3597,3597,3597,3597,3597,3597,3597,3597,3597,3597,3597,3597,3597,3597,3597,
3597,3597,3597,3597,3597,3597,3597,3597,3597,3597,3597,3597,3597,3597,3597,3597,3597,3597,3597,3597,3597,3597,3597,3597,3597,3597,3597,3597,3597,3597,3597,3597,3597,3597,3597,3597,3597,3597,3597,3597,3597,3597,3597,3597,3597,3597,3597,3597,3597,3597,3597,3597,3597,0,0,0,0,3597,3597,3597,3597,3597,3597,3597,3597,3597,3597,3597,3597,3597,3597,3597,3597,3597,3597,3597,3597,3597,3597,3597,3597,3597,3597,3597,3597,3597,3597,3597,3597,3597,3597,3597,3597,3597,3597,3597,3597,3597,3597,3597,3597,3597,3597,3597,3597,3597,3597,3597,3597,3597,
3597,3597,3597,3597,3597,3597,3597,3597,3597,3597,3597,3597,3597,3597,3597,3597,3597,3597,3597,3597,3597,3597,3597,3597,3597,3597,3597,3597,3597,3597,3597,3597,3597,3597,3597,3597,3597,3597,3597,3597,3597,3597,3597,3597,3597,3597,3597,3597,3597,3597,3597,3597,3597,0,0,0,0,3597,3597,3597,3597,3597,3597,3597,3597,3597,3597,3597,3597,3597,3597,3597,3597,3597,3597,3597,3597,3597,3597,3597,3597,3597,3597,3597,3597,3597,3597,3597,3597,3597,3597,3597,3597,3597,3597,3597,3597,3597,3597,3597,3597,3597,3597,3597,3597,3597,3597,3597,3597,3597,
3597,3597,3597,3597,3597,3597,3597,3597,3597,3597,3597,3597,3597,3597,3597,3597,3597,3597,3597,3597,3597,3597,3597,3597,3597,3597,3597,3597,3597,3597,3597,3597,3597,3597,3597,3597,3597,3597,3597,3597,3597,3597,3597,3597,3597,3597,3597,3597,3597,3597,3597,3597,3597,0,0,0,0,3597,3597,3597,3597,3597,3597,3597,3597,3597,3597,3597,3597,3597,3597,3597,3597,3597,3597,3597,3597,3597,3597,3597,3597,3597,3597,3597,3597,3597,3597,3597,3597,3597,3597,3597,3597,3597,3597,3597,3597,3597,3597,3597,3597,3597,3597,3597,3597,3597,3597,3597,3597,3597,
3597,3597,3597,3597,3597,3597,3597,3597,3597,3597,3597,3597,3597,3597,3597,3597,3597,3597,3597,3597,3597,3597,3597,3597,3597,3597,3597,3597,3597,3597,3597,3597,3597,3597,3597,3597,3597,3597,3597,3597,3597,3597,3597,3597,3597,3597,3597,3597,3597,3597,3597,3597,3597,3597,3597,3597,3597,3597,3597,3597,3597,3597,3597,3597,3597,3597,3597,3597,3597,3597,3597,3597,3597,3597,3597,3597,3597,3597,3597,3597,3597,3597,3597,3597,3597,3597,3597,3597,3597,3597,3597,3597,3597,3597,3597,3597,3597,3597,3597,3597,3597,3597,3597,3597,3597,3597,3597,3597,3597,3597,
3597,3597,3597,3597,3597,3597,3597,3597,3597,3597,3597,3597,3597,3597,3597,3597,3597,3597,3597,3597,3597,3597,3597,3597,3597,3597,3597,3597,3597,3597,3597,3597,3597,3597,3597,3597,3597,3597,3597,3597,3597,3597,3597,3597,3597,3597,3597,3597,3597,3597,3597,3597,3597,3597,3597,3597,3597,3597,3597,3597,3597,3597,3597,3597,3597,3597,3597,3597,3597,3597,3597,3597,3597,3597,3597,3597,3597,3597,3597,3597,3597,3597,3597,3597,3597,3597,3597,3597,3597,3597,3597,3597,3597,3597,3597,3597,3597,3597,3597,3597,3597,3597,3597,3597,3597,3597,3597,3597,3597,3597,
3597,3597,3597,3597,3597,3597,3597,3597,3597,3597,3597,3597,3597,3597,3597,3597,3597,3597,3597,3597,3597,3597,3597,3597,3597,3597,3597,3597,3597,3597,3597,3597,3597,3597,3597,3597,3597,3597,3597,3597,3597,3597,3597,3597,3597,3597,3597,3597,3597,3597,3597,3597,3597,3597,3597,3597,3597,3597,3597,3597,3597,3597,3597,3597,3597,3597,3597,3597,3597,3597,3597,3597,3597,3597,3597,3597,3597,3597,3597,3597,3597,3597,3597,3597,3597,3597,3597,3597,3597,3597,3597,3597,3597,3597,3597,3597,3597,3597,3597,3597,3597,3597,3597,3597,3597,3597,3597,3597,3597,3597,
3597,3597,3597,3597,3597,3597,3597,3597,3597,3597,3597,3597,3597,3597,3597,3597,3597,3597,3597,3597,3597,3597,3597,3597,3597,3597,3597,3597,3597,3597,3597,3597,3597,3597,3597,3597,3597,3597,3597,3597,3597,3597,3597,3597,3597,3597,3597,3597,3597,3597,3597,3597,3597,3597,3597,3597,3597,3597,3597,3597,3597,3597,3597,3597,3597,3597,3597,3597,3597,3597,3597,3597,3597,3597,3597,3597,3597,3597,3597,3597,3597,3597,3597,3597,3597,3597,3597,3597,3597,3597,3597,3597,3597,3597,3597,3597,3597,3597,3597,3597,3597,3597,3597,3597,3597,3597,3597,3597,3597,3597,
3597,3597,3597,3597,3597,3597,3597,3597,3597,3597,3597,3597,3597,3597,3597,3597,3597,3597,3597,3597,3597,3597,3597,3597,3597,3597,3597,3597,3597,3597,3597,3597,3597,3597,3597,3597,3597,3597,3597,3597,3597,3597,3597,3597,3597,3597,3597,3597,3597,3597,3597,3597,3597,3597,3597,3597,3597,3597,3597,3597,3597,3597,3597,3597,3597,3597,3597,3597,3597,3597,3597,3597,3597,3597,3597,3597,3597,3597,3597,3597,3597,3597,3597,3597,3597,3597,3597,3597,3597,3597,3597,3597,3597,3597,3597,3597,3597,3597,3597,3597,3597,3597,3597,3597,3597,3597,3597,3597,3597,3597,
3597,3597,3597,3597,3597,3597,3597,3597,3597,3597,3597,3597,3597,3597,3597,3597,3597,3597,3597,3597,3597,3597,3597,3597,3597,3597,3597,3597,3597,3597,3597,3597,3597,3597,3597,3597,3597,3597,3597,3597,3597,3597,3597,3597,3597,3597,3597,3597,3597,3597,3597,3597,3597,3597,3597,3597,3597,3597,3597,3597,3597,3597,3597,3597,3597,3597,3597,3597,3597,3597,3597,3597,3597,3597,3597,3597,3597,3597,3597,3597,3597,3597,3597,3597,3597,3597,3597,3597,3597,3597,3597,3597,3597,3597,3597,3597,3597,3597,3597,3597,3597,3597,3597,3597,3597,3597,3597,3597,3597,3597,
3597,3597,3597,3597,3597,3597,3597,3597,3597,3597,3597,3597,3597,3597,3597,3597,3597,3597,3597,3597,3597,3597,3597,3597,3597,3597,3597,3597,3597,3597,3597,3597,3597,3597,3597,3597,3597,3597,3597,3597,3597,3597,3597,3597,3597,3597,3597,3597,3597,3597,3597,3597,3597,3597,3597,3597,3597,3597,3597,3597,3597,3597,3597,3597,3597,3597,3597,3597,3597,3597,3597,3597,3597,3597,3597,3597,3597,3597,3597,3597,3597,3597,3597,3597,3597,3597,3597,3597,3597,3597,3597,3597,3597,3597,3597,3597,3597,3597,3597,3597,3597,3597,3597,3597,3597,3597,3597,3597,3597,3597,
3597,3597,3597,3597,3597,3597,3597,3597,3597,3597,3597,3597,3597,3597,3597,3597,3597,3597,3597,3597,3597,3597,3597,3597,3597,3597,3597,3597,3597,3597,3597,3597,3597,3597,3597,3597,3597,3597,3597,3597,3597,3597,3597,3597,3597,3597,3597,3597,3597,3597,3597,3597,3597,3597,3597,3597,3597,3597,3597,3597,3597,3597,3597,3597,3597,3597,3597,3597,3597,3597,3597,3597,3597,3597,3597,3597,3597,3597,3597,3597,3597,3597,3597,3597,3597,3597,3597,3597,3597,3597,3597,3597,3597,3597,3597,3597,3597,3597,3597,3597,3597,3597,3597,3597,3597,3597,3597,3597,3597,3597,
3597,3597,3597,3597,3597,3597,3597,3597,3597,3597,3597,3597,3597,3597,3597,3597,3597,3597,3597,3597,3597,3597,3597,3597,3597,3597,3597,3597,3597,3597,3597,3597,3597,3597,3597,3597,3597,3597,3597,3597,3597,3597,3597,3597,3597,3597,3597,3597,3597,3597,3597,3597,3597,3597,3597,3597,3597,3597,3597,3597,3597,3597,3597,3597,3597,3597,3597,3597,3597,3597,3597,3597,3597,3597,3597,3597,3597,3597,3597,3597,3597,3597,3597,3597,3597,3597,3597,3597,3597,3597,3597,3597,3597,3597,3597,3597,3597,3597,3597,3597,3597,3597,3597,3597,3597,3597,3597,3597,3597,3597,
3597,3597,3597,3597,3597,3597,3597,3597,3597,3597,3597,3597,3597,3597,3597,3597,3597,3597,3597,3597,3597,3597,3597,3597,3597,3597,3597,3597,3597,3597,3597,3597,3597,3597,3597,3597,3597,3597,3597,3597,3597,3597,3597,3597,3597,3597,3597,3597,3597,3597,3597,3597,3597,3597,3597,3597,3597,3597,3597,3597,3597,3597,3597,3597,3597,3597,3597,3597,3597,3597,3597,3597,3597,3597,3597,3597,3597,3597,3597,3597,3597,3597,3597,3597,3597,3597,3597,3597,3597,3597,3597,3597,3597,3597,3597,3597,3597,3597,3597,3597,3597,3597,3597,3597,3597,3597,3597,3597,3597,3597,
3597,3597,3597,3597,3597,3597,3597,3597,3597,3597,3597,3597,3597,3597,3597,3597,3597,3597,3597,3597,3597,3597,3597,3597,3597,3597,3597,3597,3597,3597,3597,3597,3597,3597,3597,3597,3597,3597,3597,3597,3597,3597,3597,3597,3597,3597,3597,3597,3597,3597,3597,3597,3597,3597,3597,3597,3597,3597,3597,3597,3597,3597,3597,3597,3597,3597,3597,3597,3597,3597,3597,3597,3597,3597,3597,3597,3597,3597,3597,3597,3597,3597,3597,3597,3597,3597,3597,3597,3597,3597,3597,3597,3597,3597,3597,3597,3597,3597,3597,3597,3597,3597,3597,3597,3597,3597,3597,3597,3597,3597,
3597,3597,3597,3597,3597,3597,3597,3597,3597,3597,3597,3597,3597,3597,3597,3597,3597,3597,3597,3597,3597,3597,3597,3597,3597,3597,3597,3597,3597,3597,3597,3597,3597,3597,3597,3597,3597,3597,3597,3597,3597,3597,3597,3597,3597,3597,3597,3597,3597,3597,3597,3597,3597,3597,3597,3597,3597,3597,3597,3597,3597,3597,3597,3597,3597,3597,3597,3597,3597,3597,3597,3597,3597,3597,3597,3597,3597,3597,3597,3597,3597,3597,3597,3597,3597,3597,3597,3597,3597,3597,3597,3597,3597,3597,3597,3597,3597,3597,3597,3597,3597,3597,3597,3597,3597,3597,3597,3597,3597,3597,
3597,3597,3597,3597,3597,3597,3597,3597,3597,3597,3597,3597,3597,3597,3597,3597,3597,3597,3597,3597,3597,3597,3597,3597,3597,3597,3597,3597,3597,3597,3597,3597,3597,3597,3597,3597,3597,3597,3597,3597,3597,3597,3597,3597,3597,3597,3597,3597,3597,3597,3597,3597,3597,3597,3597,3597,3597,3597,3597,3597,3597,3597,3597,3597,3597,3597,3597,3597,3597,3597,3597,3597,3597,3597,3597,3597,3597,3597,3597,3597,3597,3597,3597,3597,3597,3597,3597,3597,3597,3597,3597,3597,3597,3597,3597,3597,3597,3597,3597,3597,3597,3597,3597,3597,3597,3597,3597,3597,3597,3597,
3597,3597,3597,3597,3597,3597,3597,3597,3597,3597,3597,3597,3597,3597,3597,3597,3597,3597,3597,3597,3597,3597,3597,3597,3597,3597,3597,3597,3597,3597,3597,3597,3597,3597,3597,3597,3597,3597,3597,3597,3597,3597,3597,3597,3597,3597,3597,3597,3597,3597,3597,3597,3597,3597,3597,3597,3597,3597,3597,3597,3597,3597,3597,3597,3597,3597,3597,3597,3597,3597,3597,3597,3597,3597,3597,3597,3597,3597,3597,3597,3597,3597,3597,3597,3597,3597,3597,3597,3597,3597,3597,3597,3597,3597,3597,3597,3597,3597,3597,3597,3597,3597,3597,3597,3597,3597,3597,3597,3597,3597,
3597,3597,3597,3597,3597,3597,3597,3597,3597,3597,3597,3597,3597,3597,3597,3597,3597,3597,3597,3597,3597,3597,3597,3597,3597,3597,3597,3597,3597,3597,3597,3597,3597,3597,3597,3597,3597,3597,3597,3597,3597,3597,3597,3597,3597,3597,3597,3597,3597,3597,3597,3597,3597,3597,3597,3597,3597,3597,3597,3597,3597,3597,3597,3597,3597,3597,3597,3597,3597,3597,3597,3597,3597,3597,3597,3597,3597,3597,3597,3597,3597,3597,3597,3597,3597,3597,3597,3597,3597,3597,3597,3597,3597,3597,3597,3597,3597,3597,3597,3597,3597,3597,3597,3597,3597,3597,3597,3597,3597,3597,
3597,3597,3597,3597,3597,3597,3597,3597,3597,3597,3597,3597,3597,3597,3597,3597,3597,3597,3597,3597,3597,3597,3597,3597,3597,3597,3597,3597,3597,3597,3597,3597,3597,3597,3597,3597,3597,3597,3597,3597,3597,3597,3597,3597,3597,3597,3597,3597,3597,3597,3597,3597,3597,3597,3597,3597,3597,3597,3597,3597,3597,3597,3597,3597,3597,3597,3597,3597,3597,3597,3597,3597,3597,3597,3597,3597,3597,3597,3597,3597,3597,3597,3597,3597,3597,3597,3597,3597,3597,3597,3597,3597,3597,3597,3597,3597,3597,3597,3597,3597,3597,3597,3597,3597,3597,3597,3597,3597,3597,3597,
3597,3597,3597,3597,3597,3597,3597,3597,3597,3597,3597,3597,3597,3597,3597,3597,3597,3597,3597,3597,3597,3597,3597,3597,3597,3597,3597,3597,3597,3597,3597,3597,3597,3597,3597,3597,3597,3597,3597,3597,3597,3597,3597,3597,3597,3597,3597,3597,3597,3597,3597,3597,3597,3597,3597,3597,3597,3597,3597,3597,3597,3597,3597,3597,3597,3597,3597,3597,3597,3597,3597,3597,3597,3597,3597,3597,3597,3597,3597,3597,3597,3597,3597,3597,3597,3597,3597,3597,3597,3597,3597,3597,3597,3597,3597,3597,3597,3597,3597,3597,3597,3597,3597,3597,3597,3597,3597,3597,3597,3597,
3597,3597,3597,3597,3597,3597,3597,3597,3597,3597,3597,3597,3597,3597,3597,3597,3597,3597,3597,3597,3597,3597,3597,3597,3597,3597,3597,3597,3597,3597,3597,3597,3597,3597,3597,3597,3597,3597,3597,3597,3597,3597,3597,3597,3597,3597,3597,3597,3597,3597,3597,3597,3597,3597,3597,3597,3597,3597,3597,3597,3597,3597,3597,3597,3597,3597,3597,3597,3597,3597,3597,3597,3597,3597,3597,3597,3597,3597,3597,3597,3597,3597,3597,3597,3597,3597,3597,3597,3597,3597,3597,3597,3597,3597,3597,3597,3597,3597,3597,3597,3597,3597,3597,3597,3597,3597,3597,3597,3597,3597,
3597,3597,3597,3597,3597,3597,3597,3597,3597,3597,3597,3597,3597,3597,3597,3597,3597,3597,3597,3597,3597,3597,3597,3597,3597,3597,3597,3597,3597,3597,3597,3597,3597,3597,3597,3597,3597,3597,3597,3597,3597,3597,3597,3597,3597,3597,3597,3597,3597,3597,3597,3597,3597,3597,3597,3597,3597,3597,3597,3597,3597,3597,3597,3597,3597,3597,3597,3597,3597,3597,3597,3597,3597,3597,3597,3597,3597,3597,3597,3597,3597,3597,3597,3597,3597,3597,3597,3597,3597,3597,3597,3597,3597,3597,3597,3597,3597,3597,3597,3597,3597,3597,3597,3597,3597,3597,3597,3597,3597,3597,
3597,3597,3597,3597,3597,3597,3597,3597,3597,3597,3597,3597,3597,3597,3597,3597,3597,3597,3597,3597,3597,3597,3597,3597,3597,3597,3597,3597,3597,3597,3597,3597,3597,3597,3597,3597,3597,3597,3597,3597,3597,3597,3597,3597,3597,3597,3597,3597,3597,3597,3597,3597,3597,3597,3597,3597,3597,3597,3597,3597,3597,3597,3597,3597,3597,3597,3597,3597,3597,3597,3597,3597,3597,3597,3597,3597,3597,3597,3597,3597,3597,3597,3597,3597,3597,3597,3597,3597,3597,3597,3597,3597,3597,3597,3597,3597,3597,3597,3597,3597,3597,3597,3597,3597,3597,3597,3597,3597,3597,3597,
3597,3597,3597,3597,3597,3597,3597,3597,3597,3597,3597,3597,3597,3597,3597,3597,3597,3597,3597,3597,3597,3597,3597,3597,3597,3597,3597,3597,3597,3597,3597,3597,3597,3597,3597,3597,3597,3597,3597,3597,3597,3597,3597,3597,3597,3597,3597,3597,3597,3597,3597,3597,3597,3597,3597,3597,3597,3597,3597,3597,3597,3597,3597,3597,3597,3597,3597,3597,3597,3597,3597,3597,3597,3597,3597,3597,3597,3597,3597,3597,3597,3597,3597,3597,3597,3597,3597,3597,3597,3597,3597,3597,3597,3597,3597,3597,3597,3597,3597,3597,3597,3597,3597,3597,3597,3597,3597,3597,3597,3597,
3597,3597,3597,3597,3597,3597,3597,3597,3597,3597,3597,3597,3597,3597,3597,3597,3597,3597,3597,3597,3597,3597,3597,3597,3597,3597,3597,3597,3597,3597,3597,3597,3597,3597,3597,3597,3597,3597,3597,3597,3597,3597,3597,3597,3597,3597,3597,3597,3597,3597,3597,3597,3597,3597,3597,3597,3597,3597,3597,3597,3597,3597,3597,3597,3597,3597,3597,3597,3597,3597,3597,3597,3597,3597,3597,3597,3597,3597,3597,3597,3597,3597,3597,3597,3597,3597,3597,3597,3597,3597,3597,3597,3597,3597,3597,3597,3597,3597,3597,3597,3597,3597,3597,3597,3597,3597,3597,3597,3597,3597
</data>
 </layer>
 <layer name="above" width="110" height="84">
  <data encoding="csv">
0,0,0,0,0,0,0,0,0,0,0,0,0,0,0,0,0,0,0,0,0,0,0,0,0,0,0,0,0,0,0,0,0,0,0,0,0,0,0,0,0,0,0,0,0,0,0,0,0,0,0,0,0,0,0,0,0,0,0,0,0,0,0,0,0,0,0,0,0,0,0,0,0,0,0,0,0,0,0,0,0,0,0,0,0,0,0,0,0,0,0,0,0,0,0,0,0,0,0,0,0,0,0,0,0,0,0,0,0,0,
0,0,0,0,0,0,0,0,0,0,0,0,0,0,0,0,0,0,0,0,0,0,0,0,0,0,0,0,0,0,0,0,0,0,0,0,0,0,0,0,0,0,0,0,0,0,0,0,0,0,0,0,0,0,0,0,0,0,0,0,0,0,0,0,0,0,0,0,0,0,0,0,0,0,0,0,0,0,0,0,0,0,0,0,0,0,0,0,0,0,0,0,0,0,0,0,0,0,0,0,0,0,0,0,0,0,0,0,0,0,
0,0,0,0,0,0,0,0,0,0,0,0,0,0,0,0,0,0,0,0,0,0,0,0,0,0,0,0,0,0,0,0,0,0,0,0,0,0,0,0,0,0,0,0,0,0,0,0,0,0,0,0,0,0,0,0,0,0,0,0,0,0,0,0,0,0,0,0,0,0,0,0,0,0,0,0,0,0,0,0,0,0,0,0,0,0,0,0,0,0,0,0,0,0,0,0,0,0,0,0,0,0,0,0,0,0,0,0,0,0,
0,0,0,0,0,0,0,0,0,0,0,0,0,0,0,0,0,0,0,0,0,0,0,0,0,0,0,0,0,0,0,0,0,0,0,0,0,0,0,0,0,0,0,0,0,0,0,0,0,0,0,0,0,0,0,0,0,0,0,0,0,0,0,0,0,0,0,0,0,0,0,0,0,0,0,0,0,0,0,0,0,0,0,0,0,0,0,0,0,0,0,0,0,0,0,0,0,0,0,0,0,0,0,0,0,0,0,0,0,0,
0,0,0,0,0,0,0,0,0,0,0,0,0,0,0,0,0,0,0,0,0,0,0,0,0,0,0,0,0,0,0,0,0,0,0,0,0,0,0,0,0,0,0,0,0,0,0,0,0,0,0,0,0,0,0,0,0,0,0,0,0,0,0,0,0,0,0,0,0,0,0,0,0,0,0,0,0,0,0,0,0,0,0,0,0,0,0,0,0,0,0,0,0,0,0,0,0,0,0,0,0,0,0,0,0,0,0,0,0,0,
0,0,0,0,0,0,0,0,0,0,0,0,0,0,0,0,0,0,0,0,0,0,0,0,0,0,0,0,0,0,0,0,0,0,0,0,0,0,0,0,0,0,0,0,0,0,0,0,0,0,0,0,0,0,0,0,0,0,0,0,0,0,0,0,0,0,0,0,0,0,0,0,0,0,0,0,0,0,0,0,0,0,0,0,0,0,0,0,0,0,0,0,0,0,0,0,0,0,0,0,0,0,0,0,0,0,0,0,0,0,
0,0,0,0,0,0,0,0,0,0,0,0,0,0,0,0,0,0,0,0,0,0,0,0,0,0,0,0,0,0,0,0,0,0,0,0,0,0,0,0,0,0,0,0,0,0,0,0,0,0,0,0,0,0,0,0,0,0,0,0,0,0,0,0,0,0,0,0,0,0,0,0,0,0,0,0,0,0,0,0,0,0,0,0,0,0,0,0,0,0,0,0,0,0,0,0,0,0,0,0,0,0,0,0,0,0,0,0,0,0,
0,0,0,0,0,0,0,0,0,0,0,0,0,0,0,0,0,0,0,0,0,0,0,0,0,0,0,0,0,0,0,0,0,0,0,0,0,0,0,0,0,0,0,0,0,0,0,0,0,0,0,0,0,0,0,0,0,0,0,0,0,0,0,0,0,0,0,0,0,0,0,0,0,0,0,0,0,0,0,0,0,0,0,0,0,0,0,0,0,0,0,0,0,0,0,0,0,0,0,0,0,0,0,0,0,0,0,0,0,0,
0,0,0,0,0,0,0,0,0,0,0,0,0,0,0,0,0,0,0,0,0,0,0,0,0,0,0,0,0,0,0,0,0,0,0,0,0,0,0,0,0,0,0,0,0,0,0,0,0,0,0,0,0,0,0,0,0,0,0,0,0,0,0,0,0,0,0,0,0,0,0,0,0,0,0,0,0,0,0,0,0,0,0,0,0,0,0,0,0,0,0,0,0,0,0,0,0,0,0,0,0,0,0,0,0,0,0,0,0,0,
0,0,0,0,0,0,0,0,0,0,0,0,0,0,0,0,0,0,0,0,0,0,0,0,0,0,0,0,0,0,0,0,0,0,0,0,0,0,0,0,0,0,0,0,0,0,0,0,0,0,0,0,0,0,0,0,0,0,0,0,0,0,0,0,0,0,0,0,0,0,0,0,0,0,0,0,0,0,0,0,0,0,0,0,0,0,0,0,0,0,0,0,0,0,0,0,0,0,0,0,0,0,0,0,0,0,0,0,0,0,
0,0,0,0,0,0,0,0,0,0,0,0,0,0,0,0,0,0,0,0,0,0,0,0,0,0,0,0,0,0,0,0,0,0,0,0,0,0,0,0,0,0,0,0,0,0,0,0,0,0,0,0,0,0,0,0,0,0,0,0,0,0,0,0,0,0,0,0,0,0,0,0,0,0,0,0,0,0,0,0,0,0,0,0,0,0,0,0,0,0,0,0,0,0,0,0,0,0,0,0,0,0,0,0,0,0,0,0,0,0,
0,0,0,0,0,0,0,0,0,0,0,0,0,0,0,0,0,0,0,0,0,0,0,0,0,0,0,0,0,0,0,0,0,0,0,0,0,0,0,0,0,0,0,0,0,0,0,0,0,0,0,0,0,0,0,0,0,0,0,0,0,0,0,0,0,0,0,0,0,0,0,0,0,0,0,0,0,0,0,0,0,0,0,0,0,0,0,0,0,0,0,0,0,0,0,0,0,0,0,0,0,0,0,0,0,0,0,0,0,0,
0,0,0,0,0,0,0,0,0,0,0,0,0,0,0,0,0,0,0,0,0,0,0,0,0,0,0,0,0,0,0,0,0,0,0,0,0,0,0,0,0,0,0,0,0,0,0,0,0,0,0,0,0,0,0,0,0,0,0,0,0,0,0,0,0,0,0,0,0,0,0,0,0,0,0,0,0,0,0,0,0,0,0,0,0,0,0,0,0,0,0,0,0,0,0,0,0,0,0,0,0,0,0,0,0,0,0,0,0,0,
0,0,0,0,0,0,0,0,0,0,0,0,0,0,0,0,0,0,0,0,0,0,0,0,0,0,0,0,0,0,0,0,0,0,0,0,0,0,0,0,0,0,0,0,0,0,0,0,0,0,0,0,0,0,0,0,0,0,0,0,0,0,0,0,0,0,0,0,0,0,0,0,0,0,0,0,0,0,0,0,0,0,0,0,0,0,0,0,0,0,0,0,0,0,0,0,0,0,0,0,0,0,0,0,0,0,0,0,0,0,
0,0,0,0,0,0,0,0,0,0,0,0,0,0,0,0,0,0,0,0,0,0,0,0,0,0,0,0,0,0,0,0,0,0,0,0,0,0,0,0,0,0,0,0,0,0,0,0,0,0,0,0,0,0,0,0,0,0,0,0,0,0,0,0,0,0,0,0,0,0,0,0,0,0,0,0,0,0,0,0,0,0,0,0,0,0,0,0,0,0,0,0,0,0,0,0,0,0,0,0,0,0,0,0,0,0,0,0,0,0,
0,0,0,0,0,0,0,0,0,0,0,0,0,0,0,0,0,0,0,0,0,0,0,0,0,0,0,0,0,0,0,0,0,0,0,0,0,0,0,0,0,0,0,0,0,0,0,0,0,0,0,0,0,0,0,0,0,0,0,0,0,0,0,0,0,0,0,0,0,0,0,0,0,0,0,0,0,0,0,0,0,0,0,0,0,0,0,0,0,0,0,0,0,0,0,0,0,0,0,0,0,0,0,0,0,0,0,0,0,0,
0,0,0,0,0,0,0,0,0,0,0,0,0,0,0,0,0,0,0,0,0,0,0,0,0,0,0,0,0,0,0,0,0,0,0,0,0,0,0,0,0,0,0,0,0,0,0,0,0,0,0,0,0,4204,4205,4205,4206,0,0,0,0,0,0,0,0,0,0,0,0,0,0,0,0,0,0,0,0,0,0,0,0,0,0,0,0,0,0,0,0,0,0,0,0,0,0,0,0,0,0,0,0,0,0,0,0,0,0,0,0,0,
0,0,0,0,0,0,0,0,0,0,0,0,0,0,0,0,0,0,0,0,0,0,0,0,0,0,0,0,0,0,0,0,0,0,0,0,0,0,0,0,0,0,0,0,0,0,0,0,0,0,0,0,0,4204,4205,4205,4206,0,0,0,0,0,0,0,0,0,0,0,0,0,0,0,0,0,0,0,0,0,0,0,0,0,0,0,0,0,0,0,0,0,0,0,0,0,0,0,0,0,0,0,0,0,0,0,0,0,0,0,0,0,
0,0,0,0,0,0,0,0,0,0,0,0,0,0,0,0,0,0,0,0,0,0,0,0,0,0,0,0,0,0,0,0,0,0,0,0,0,0,0,0,0,0,0,0,0,0,0,0,0,0,0,0,0,4204,4205,4205,4206,0,0,0,0,0,0,0,0,0,0,0,0,0,0,0,0,0,0,0,0,0,0,0,0,0,0,0,0,0,0,0,0,0,0,0,0,0,0,0,0,0,0,0,0,0,0,0,0,0,0,0,0,0,
0,0,0,0,0,0,0,0,0,0,0,0,0,0,0,0,0,0,0,0,0,0,0,0,0,0,0,0,0,0,0,0,0,0,0,0,0,0,0,0,0,0,0,0,0,0,0,0,0,0,0,0,0,4204,4205,4205,4206,0,0,0,0,0,0,0,0,0,0,0,0,0,0,0,0,0,0,0,0,0,0,0,0,0,0,0,0,0,0,0,0,0,0,0,0,0,0,0,0,0,0,0,0,0,0,0,0,0,0,0,0,0,
0,0,0,0,0,0,0,0,0,0,0,0,0,0,0,0,0,0,0,0,0,0,0,0,0,0,0,0,0,0,0,0,0,0,0,0,0,0,0,0,0,0,0,0,0,0,0,0,0,0,0,0,0,4204,4205,4205,4206,0,0,0,0,0,0,0,0,0,0,0,0,0,0,0,0,0,0,0,0,0,0,0,0,0,0,0,0,0,0,0,0,0,0,0,0,0,0,0,0,0,0,0,0,0,0,0,0,0,0,0,0,0,
0,0,0,0,0,0,0,0,0,0,0,0,0,0,0,0,0,0,0,0,0,0,0,0,0,0,0,0,0,0,0,0,0,0,0,0,0,0,0,0,0,0,0,0,0,0,0,0,0,0,0,0,0,4204,4205,4205,4206,0,0,0,0,0,0,0,0,0,0,0,0,0,0,0,0,0,0,0,0,0,0,0,0,0,0,0,0,0,0,0,0,0,0,0,0,0,0,0,0,0,0,0,0,0,0,0,0,0,0,0,0,0,
0,0,0,0,0,0,0,0,0,0,0,0,0,0,0,0,0,0,0,0,0,0,0,0,0,0,0,0,0,0,0,0,0,0,0,0,0,0,0,0,0,0,0,0,0,0,0,0,0,0,0,0,0,4204,4205,4205,4206,0,0,0,0,0,0,0,0,0,0,0,0,0,0,0,0,0,0,0,0,0,0,0,0,0,0,0,0,0,0,0,0,0,0,0,0,0,0,0,0,0,0,0,0,0,0,0,0,0,0,0,0,0,
0,0,0,0,0,0,0,0,0,0,0,0,0,0,0,0,0,0,0,0,0,0,0,0,0,0,0,0,0,0,0,0,0,0,0,0,0,0,0,0,0,0,0,0,0,0,0,0,0,0,0,0,0,4204,4205,4205,4206,0,0,0,0,0,0,0,0,0,0,0,0,0,0,0,0,0,0,0,0,0,0,0,0,0,0,0,0,0,0,0,0,0,0,0,0,0,0,0,0,0,0,0,0,0,0,0,0,0,0,0,0,0,
0,0,0,0,0,0,0,0,0,0,0,0,0,0,0,0,0,0,0,0,0,0,0,0,0,0,0,0,0,0,0,0,0,0,0,0,0,0,0,0,0,0,0,0,0,0,0,0,0,0,0,0,0,4204,4205,4205,4206,0,0,0,0,0,0,0,0,0,0,0,0,0,0,0,0,0,0,0,0,0,0,0,0,0,0,0,0,0,0,0,0,0,0,0,0,0,0,0,0,0,0,0,0,0,0,0,0,0,0,0,0,0,
0,0,0,0,0,0,0,0,0,0,0,0,0,0,0,0,0,0,0,0,0,0,0,0,0,0,0,0,0,0,0,0,0,0,0,0,0,0,0,0,0,0,0,0,0,0,0,0,0,0,0,0,0,4204,4205,4205,4206,0,0,0,0,0,0,0,0,0,0,0,0,0,0,0,0,0,0,0,0,0,0,0,0,0,0,0,0,0,0,0,0,0,0,0,0,0,0,0,0,0,0,0,0,0,0,0,0,0,0,0,0,0,
0,0,0,0,0,0,0,0,0,0,0,0,0,0,0,0,0,0,0,0,0,0,0,0,0,0,0,0,0,0,0,0,0,0,0,0,0,0,0,0,0,0,0,0,0,0,0,0,0,0,0,0,0,4204,4205,4205,4206,0,0,0,0,0,0,0,0,0,0,0,0,0,0,0,0,0,0,0,0,0,0,0,0,0,0,0,0,0,0,0,0,0,0,0,0,0,0,0,0,0,0,0,0,0,0,0,0,0,0,0,0,0,
0,0,0,0,0,0,0,0,0,0,0,0,0,0,0,0,0,0,0,0,0,0,0,0,0,0,0,0,0,0,0,0,0,0,0,0,0,0,0,0,0,0,0,0,0,0,0,0,0,0,0,0,0,4204,4205,4205,4206,0,0,0,0,0,0,0,0,0,0,0,0,0,0,0,0,0,0,0,0,0,0,0,0,0,0,0,0,0,0,0,0,0,0,0,0,0,0,0,0,0,0,0,0,0,0,0,0,0,0,0,0,0,
0,0,0,0,0,0,0,0,0,0,0,0,0,0,0,0,0,0,0,0,0,0,0,0,0,0,0,0,0,0,0,0,0,0,0,0,0,0,0,0,0,0,0,0,0,0,0,0,0,0,0,0,0,4204,4205,4205,4206,0,0,0,0,0,0,0,0,0,0,0,0,0,0,0,0,0,0,0,0,0,0,0,0,0,0,0,0,0,0,0,0,0,0,0,0,0,0,0,0,0,0,0,0,0,0,0,0,0,0,0,0,0,
0,0,0,0,0,0,0,0,0,0,0,0,0,0,0,0,0,0,0,0,0,0,0,0,0,0,0,0,0,0,0,0,0,0,0,0,0,0,0,0,0,0,0,0,0,0,0,0,0,0,0,0,0,4204,4205,4205,4206,0,0,0,0,0,0,0,0,0,0,0,0,0,0,0,0,0,0,0,0,0,0,0,0,0,0,0,0,0,0,0,0,0,0,0,0,0,0,0,0,0,0,0,0,0,0,0,0,0,0,0,0,0,
0,0,0,0,0,0,0,0,0,0,0,0,0,0,0,0,0,0,0,0,0,0,0,0,0,0,0,0,0,0,0,0,0,0,0,0,0,0,0,0,0,0,0,0,0,0,0,0,0,0,0,0,0,4204,4205,4205,4206,0,0,0,0,0,0,0,0,0,0,0,0,0,0,0,0,0,0,0,0,0,0,0,0,0,0,0,0,0,0,0,0,0,0,0,0,0,0,0,0,0,0,0,0,0,0,0,0,0,0,0,0,0,
0,0,0,0,0,0,0,0,0,0,0,0,0,0,0,0,0,0,0,0,0,0,0,0,0,0,0,0,0,0,0,0,0,0,0,0,0,0,0,0,0,0,0,0,0,0,0,0,0,0,0,0,0,4204,4205,4205,4206,0,0,0,0,0,0,0,0,0,0,0,0,0,0,0,0,0,0,0,0,0,0,0,0,0,0,0,0,0,0,0,0,0,0,0,0,0,0,0,0,0,0,0,0,0,0,0,0,0,0,0,0,0,
0,0,0,0,0,0,0,0,0,0,0,0,0,0,0,0,0,0,0,0,0,0,0,0,0,0,0,0,0,0,0,0,0,0,0,0,0,0,0,0,0,0,0,0,0,0,0,0,0,4102,4103,4103,4103,4103,4103,4103,4103,4103,4103,4103,4104,0,0,0,0,0,0,0,0,0,0,0,0,0,0,0,0,0,0,0,0,0,0,0,0,0,0,0,0,0,0,0,0,0,0,0,0,0,0,0,0,0,0,0,0,0,0,0,0,0,
0,0,0,0,0,0,0,0,0,0,0,0,0,0,0,0,0,0,0,0,0,0,0,0,0,0,0,0,0,0,0,0,0,0,0,0,0,0,0,0,0,0,0,0,0,0,0,0,0,4137,4138,4138,4138,4138,4138,4138,4138,4138,4138,4138,4139,0,0,0,0,0,0,0,0,0,0,0,0,0,0,0,0,0,0,0,0,0,0,0,0,0,0,0,0,0,0,0,0,0,0,0,0,0,0,0,0,0,0,0,0,0,0,0,0,0,
0,0,0,0,0,0,0,0,0,0,0,0,0,0,0,0,0,0,0,0,0,0,0,0,0,0,0,0,0,0,0,0,0,0,0,0,0,0,0,0,0,0,0,0,0,0,0,0,0,4137,4138,4138,4138,4138,4138,4138,4138,4138,4138,4138,4139,0,0,0,0,0,0,0,0,0,0,0,0,0,0,0,0,0,0,0,0,0,0,0,0,0,0,0,0,0,0,0,0,0,0,0,0,0,0,0,0,0,0,0,0,0,0,0,0,0,
0,0,0,0,0,0,0,0,0,0,0,0,0,0,0,0,0,0,0,0,0,0,0,0,0,0,0,0,0,0,0,0,0,0,0,0,0,0,0,0,0,0,0,0,0,0,0,0,0,4137,4138,4138,4138,4138,4138,4138,4138,4138,4138,4138,4139,0,0,0,0,0,0,0,0,0,0,0,0,0,0,0,0,0,0,0,0,0,0,0,0,0,0,0,0,0,0,0,0,0,0,0,0,0,0,0,0,0,0,0,0,0,0,0,0,0,
0,0,0,0,0,0,0,0,0,0,0,0,0,0,0,0,0,0,0,0,0,0,0,0,0,0,0,0,0,0,0,0,0,0,0,0,0,0,0,0,0,0,0,0,0,0,0,0,0,4137,4138,4138,4138,4138,4138,4138,4138,4138,4138,4138,4139,0,0,0,0,0,0,0,0,0,0,0,0,0,0,0,0,0,0,0,0,0,0,0,0,0,0,0,0,0,0,0,0,0,0,0,0,0,0,0,0,0,0,0,0,0,0,0,0,0,
0,0,0,0,0,0,0,0,0,0,0,0,0,0,0,0,0,0,0,0,0,0,0,0,0,0,0,0,0,0,0,0,0,0,0,0,0,0,0,0,0,0,0,0,0,0,0,0,0,4172,4173,4173,4173,4173,4173,4173,4173,4173,4173,4173,4174,0,0,0,0,0,0,0,0,0,0,0,0,0,0,0,0,0,0,0,0,0,0,0,0,0,0,0,0,0,0,0,0,0,0,0,0,0,0,0,0,0,0,0,0,0,0,0,0,0,
0,0,0,0,0,0,0,0,0,0,0,0,0,0,0,0,0,0,0,0,0,0,0,0,0,0,0,0,0,0,0,0,0,0,0,0,0,0,0,0,0,0,0,0,0,0,0,0,0,3540,3540,3540,3540,3540,3540,3540,3540,3540,3540,3540,3540,0,0,0,0,0,0,0,0,0,0,0,0,0,0,0,0,0,0,0,0,0,0,0,0,0,0,0,0,0,0,0,0,0,0,0,0,0,0,0,0,0,0,0,0,0,0,0,0,0,
0,0,0,0,0,0,0,0,0,0,0,0,0,0,0,0,0,0,0,0,0,0,0,0,0,0,0,0,0,0,0,0,0,4102,4103,4103,4103,4103,4103,4103,4104,0,0,0,0,0,0,0,0,3575,3575,3575,3575,3575,3575,3575,3575,3575,3575,3575,3575,0,0,0,0,0,0,0,0,4102,4103,4103,4103,4103,4103,4103,4104,0,0,0,0,0,0,0,0,0,0,0,0,0,0,0,0,0,0,0,0,0,0,0,0,0,0,0,0,0,0,0,0,0,
0,0,0,0,0,0,0,0,0,0,0,0,0,0,0,0,0,0,0,0,0,0,0,0,0,0,0,0,0,0,0,0,0,4137,4138,4138,4138,4138,4138,4138,4139,0,0,0,0,0,0,0,0,3575,3575,3575,3575,3575,3575,3575,3575,3575,0,3575,3575,0,0,0,0,0,0,0,0,4137,4138,4138,4138,4138,4138,4138,4139,0,0,0,0,0,0,0,0,0,0,0,0,0,0,0,0,0,0,0,0,0,0,0,0,0,0,0,0,0,0,0,0,0,
0,0,0,0,0,0,0,0,0,0,0,0,0,0,0,0,0,0,0,0,0,0,0,0,0,0,0,0,0,0,0,0,0,4137,4138,4138,4138,4138,4138,4138,4139,0,0,0,0,0,0,0,0,3575,3575,3575,3575,3575,3575,3575,3575,3575,0,3575,3575,0,0,0,0,0,0,0,0,4137,4138,4138,4138,4138,4138,4138,4139,0,0,0,0,0,0,0,0,0,0,0,0,0,0,0,0,0,0,0,0,0,0,0,0,0,0,0,0,0,0,0,0,0,
0,0,0,0,0,0,0,0,0,0,0,0,0,0,0,0,0,0,0,0,0,0,0,0,0,0,0,0,0,0,0,0,0,4137,4138,4138,4138,4138,4138,4138,4139,0,0,0,0,0,0,0,0,0,0,0,0,0,0,0,0,0,0,0,0,0,0,0,0,0,0,0,0,4137,4138,4138,4138,4138,4138,4138,4139,0,0,0,0,0,0,0,0,0,0,0,0,0,0,0,0,0,0,0,0,0,0,0,0,0,0,0,0,0,0,0,0,0,
0,0,0,0,0,0,0,0,0,0,0,0,0,0,0,0,0,0,0,0,0,0,0,0,0,0,0,0,0,0,0,0,0,4137,4138,4138,4138,4138,4138,4138,4139,0,0,0,0,0,0,0,0,0,0,0,0,0,0,0,0,0,0,0,0,0,0,0,0,0,0,0,0,4137,4138,4138,4138,4138,4138,4138,4139,0,0,0,0,0,0,0,0,0,0,0,0,0,0,0,0,0,0,0,0,0,0,0,0,0,0,0,0,0,0,0,0,0,
0,0,0,0,0,0,0,4324,4323,4324,4323,4324,4323,4324,4323,4324,4323,4324,4323,4324,4323,4324,4323,4324,0,0,0,0,0,0,0,0,0,4172,4173,4173,4173,4173,4173,4173,4174,0,0,0,0,0,0,0,0,0,0,0,0,0,0,0,0,0,0,0,0,0,0,0,0,0,0,0,0,4172,4173,4173,4173,4173,4173,4173,4174,0,0,0,0,0,0,0,0,0,0,4324,4323,4324,4323,4324,4323,4324,4323,4324,4323,4324,4323,4324,4323,4324,4323,0,0,0,0,0,0,0,
0,0,0,0,0,0,0,4324,4323,4324,4323,4324,4323,4324,4323,4324,4323,4324,4323,4324,4323,4324,4323,4324,0,0,0,0,0,0,0,0,0,3540,3540,3540,3540,3540,3540,3540,3540,0,0,0,0,0,0,0,0,0,0,0,0,0,0,0,0,0,0,0,0,0,0,0,0,0,0,0,0,3540,3540,3540,3540,3540,3540,3540,3540,0,0,0,0,0,0,0,0,0,4323,4324,4323,4324,4323,4324,4323,4324,4323,4324,4323,4324,4323,4324,4323,4324,4323,0,0,0,0,0,0,0,
0,0,0,0,0,0,0,4324,4323,4324,4323,4324,4323,4324,4323,4324,4323,4324,4323,4324,4323,4324,4323,4324,0,0,0,0,0,0,0,0,0,3575,3575,3575,3575,3575,3575,3575,3575,0,0,0,0,0,0,0,0,0,0,0,0,0,0,0,0,0,0,0,0,0,0,0,0,0,0,0,0,3575,3575,3575,3575,3575,3575,3575,3575,0,0,0,0,0,0,0,0,0,4323,4324,4323,4324,4323,4324,4323,4324,4323,4324,4323,4324,4323,4324,4323,4324,4323,0,0,0,0,0,0,0,
0,0,0,0,0,0,0,4324,4323,4324,4323,4324,4323,4324,4323,4324,4323,4324,4323,4324,4323,4324,4323,4324,0,0,0,0,0,0,0,0,0,3575,3575,3575,3575,3575,3575,3575,3575,0,0,0,0,0,0,0,0,0,0,0,0,0,0,0,0,0,0,0,0,0,0,0,0,0,0,0,0,3575,3575,3575,3575,3575,3575,3575,3575,0,0,0,0,0,0,0,0,0,4323,4324,4323,4324,4323,4324,4323,4324,4323,4324,4323,4324,4323,4324,4323,4324,4323,0,0,0,0,0,0,0,
0,0,0,0,0,0,0,4324,4323,4324,4323,4324,4323,4324,4323,4324,4323,4324,4323,4324,4323,4324,4323,4324,0,0,0,0,0,0,0,0,0,3575,3575,3575,3575,3575,3575,3575,3575,0,0,0,0,0,0,0,0,0,0,0,0,0,0,0,0,0,0,0,0,0,0,0,0,0,0,0,0,3575,3575,3575,3575,3575,3575,3575,3575,0,0,0,0,0,0,0,0,0,4323,4324,4323,4324,4323,4324,4323,4324,4323,4324,4323,4324,4323,4324,4323,4324,4323,0,0,0,0,0,0,0,
0,0,0,0,0,0,0,4324,4323,4324,4323,4324,4323,4324,4323,4324,4323,4324,4323,4324,4323,4324,4323,4324,0,0,0,0,0,0,0,0,0,3575,3575,3575,3575,3575,3575,3575,3575,0,0,0,0,0,0,0,0,0,0,0,0,0,0,0,0,0,0,0,0,0,0,0,0,0,0,0,0,3575,3575,3575,3575,3575,3575,3575,3575,0,0,0,0,0,0,0,0,0,4323,4324,4323,4324,4323,4324,4323,4324,4323,4324,4323,4324,4323,4324,4323,4324,4323,0,0,0,0,0,0,0,
0,0,0,0,0,0,0,4324,4323,4324,4323,4324,4323,4324,4323,4324,4323,4324,4323,4324,4323,4324,4323,4324,0,0,0,0,0,0,0,0,0,3575,3575,3575,3575,3575,3575,3575,3575,0,0,0,0,0,0,0,0,0,0,0,0,4204,4205,4205,4206,0,0,0,0,0,0,0,0,0,0,0,0,3575,3575,3575,3575,3575,3575,3575,3575,0,0,0,0,0,0,0,0,0,4323,4324,4323,4324,3551,1690,1691,3551,4323,4324,4323,4324,3824,3825,4323,4324,4323,0,0,0,0,0,0,0,
0,0,0,0,0,0,0,4324,4323,4324,4323,4324,4323,4324,4323,4324,4323,4324,4323,4324,4323,4324,4323,4324,0,0,0,0,0,0,0,0,0,3575,3575,3575,3575,3575,3575,3575,3575,0,0,0,0,0,0,0,0,0,0,0,0,4204,4205,4205,4206,0,0,0,0,0,0,0,0,0,0,0,0,3575,3575,3575,3575,3575,3575,3575,3575,0,0,0,0,0,0,0,0,0,4323,4324,4323,4324,3586,1725,1726,3586,4323,4324,4323,4324,3892,3893,4323,4324,4323,0,0,0,0,0,0,0,
0,0,0,0,0,0,0,4324,4323,4324,4323,4324,4323,4324,4323,4324,4323,4324,4323,4324,4323,4324,4323,4324,0,0,0,0,0,0,0,0,0,3575,3575,3575,3575,3575,3575,3575,3575,0,0,0,0,0,0,0,0,0,0,0,0,4204,4205,4205,4206,0,0,0,0,0,0,0,0,0,0,0,0,3575,3575,3575,3575,3575,3575,3575,3575,0,0,0,0,0,0,0,0,0,4323,4324,4323,4324,3551,1690,1691,3551,4323,4324,4323,4324,3927,3928,4323,4324,4323,0,0,0,0,0,0,0,
0,0,0,0,0,0,0,4324,4323,4324,4323,4324,4323,4324,4323,4324,4323,4324,4323,4324,4323,4324,4323,4324,0,0,0,0,0,0,0,0,0,3575,3575,3575,3575,3575,3575,3575,3575,0,0,0,0,0,0,0,0,0,0,0,0,4204,4205,4205,4206,0,0,0,0,0,0,0,0,0,0,0,0,3575,3575,3575,3575,3575,3575,3575,3575,0,0,0,0,0,0,0,0,0,4323,4324,4323,4324,3586,1725,1726,3586,4323,4324,4323,4324,3861,3862,4323,4324,4323,0,0,0,0,0,0,0,
0,0,0,0,0,0,0,4324,4323,4324,4323,4324,4323,4324,4323,4324,4323,4324,4323,4324,4323,4324,4323,4324,0,0,0,0,0,0,0,0,0,3575,3575,3575,3575,3575,3575,3575,3575,0,0,0,0,0,0,0,0,0,0,0,0,4204,4205,4205,4206,0,0,0,0,0,0,0,0,0,0,0,0,3575,3575,3575,3575,3575,3575,3575,3575,0,0,0,0,0,0,0,0,0,4323,4324,4323,4324,3551,1690,1691,3551,4323,4324,4323,4324,3896,3897,4323,4324,4323,0,0,0,0,0,0,0,
0,0,0,0,0,0,0,4359,4358,4359,4358,4359,4358,4359,4358,4359,4358,4359,4358,4359,4358,4359,4358,4359,0,0,0,0,0,0,0,0,0,3575,3575,3575,3575,3575,3575,3575,3575,0,0,0,0,0,0,0,0,0,0,0,0,4204,4205,4205,4206,0,0,0,0,0,0,0,0,0,0,0,0,3575,3575,3575,3575,3575,3575,3575,3575,0,0,0,0,0,0,0,0,0,4358,4359,4358,4359,3586,1725,1726,3586,4358,4359,4358,4359,3931,3932,4358,4359,4358,0,0,0,0,0,0,0,
0,0,0,0,0,0,0,4102,4103,4103,4103,4103,4103,4103,4104,4102,4103,4103,4103,4103,4103,4103,4104,4102,4103,4103,4103,4103,4103,4103,4104,0,0,3575,3575,3575,3575,3575,3575,3575,3575,0,0,0,0,0,0,0,0,0,0,0,0,4204,4205,4205,4206,0,0,0,0,0,0,0,0,0,0,0,0,3575,3575,3575,3575,3575,3575,3575,3575,0,0,4102,4103,4103,4103,4103,4103,4103,4104,4102,4103,4103,4103,4103,4103,4103,4104,4102,4103,4103,4103,4103,4103,4103,4104,0,0,0,0,0,0,0,
0,0,0,0,0,0,0,4137,4138,4138,4138,4138,4138,4138,4139,4137,4138,4138,4138,4138,4138,4138,4139,4137,4138,4138,4138,4138,4138,4138,4139,0,0,3575,3575,3575,3575,3575,3575,3575,3575,0,0,0,0,0,0,0,0,0,0,0,0,4204,4205,4205,4206,0,0,0,0,0,0,0,0,0,0,0,0,3575,3575,3575,3575,3575,3575,3575,3575,0,0,4137,4138,4138,4138,4138,4138,4138,4139,4137,4138,4138,4138,4138,4138,4138,4139,4137,4138,4138,4138,4138,4138,4138,4139,0,0,0,0,0,0,0,
0,0,0,0,0,0,0,4137,4138,4138,4138,4138,4138,4138,4139,4137,4138,4138,4138,4138,4138,4138,4139,4137,4138,4138,4138,4138,4138,4138,4139,0,0,4102,4103,4103,4103,4103,4103,4103,4104,0,0,0,0,0,0,0,0,0,0,0,0,4204,4205,4205,4206,0,0,0,0,0,0,0,0,0,0,0,0,4102,4103,4103,4103,4103,4103,4103,4104,0,0,4137,4138,4138,4138,4138,4138,4138,4139,4137,4138,4138,4138,4138,4138,4138,4139,4137,4138,4138,4138,4138,4138,4138,4139,0,0,0,0,0,0,0,
0,0,0,0,0,0,0,4137,4138,4138,4138,4138,4138,4138,4139,4137,4138,4138,4138,4138,4138,4138,4139,4137,4138,4138,4138,4138,4138,4138,4139,4087,4088,4137,4138,4138,4138,4138,4138,4138,4139,0,0,0,0,0,0,0,0,0,0,0,0,4204,4205,4205,4206,0,0,0,0,0,0,0,0,0,0,0,0,4137,4138,4138,4138,4138,4138,4138,4139,4083,4084,4137,4138,4138,4138,4138,4138,4138,4139,4137,4138,4138,4138,4138,4138,4138,4139,4137,4138,4138,4138,4138,4138,4138,4139,0,0,0,0,0,0,0,
0,0,0,0,0,0,0,4137,4138,4138,4138,4138,4138,4138,4139,4137,4138,4138,4138,4138,4138,4138,4139,4137,4138,4138,4138,4138,4138,4138,4139,4122,4123,4137,4138,4138,4138,4138,4138,4138,4139,0,0,0,0,0,0,0,0,0,0,0,0,4204,4205,4205,4206,0,0,0,0,0,0,0,0,0,0,0,0,4137,4138,4138,4138,4138,4138,4138,4139,4118,4119,4137,4138,4138,4138,4138,4138,4138,4139,4137,4138,4138,4138,4138,4138,4138,4139,4137,4138,4138,4138,4138,4138,4138,4139,0,0,0,0,0,0,0,
0,0,0,0,0,0,0,4137,4138,4138,4138,4138,4138,4138,4139,4137,4138,4138,4138,4138,4138,4138,4139,4137,4138,4138,4138,4138,4138,4138,4139,4157,4158,4137,4138,4138,4138,4138,4138,4138,4139,0,0,0,0,0,0,0,0,0,0,0,0,4204,4205,4205,4206,0,0,0,0,0,0,0,0,0,0,0,0,4137,4138,4138,4138,4138,4138,4138,4139,4153,4154,4137,4138,4138,4138,4138,4138,4138,4139,4137,4138,4138,4138,4138,4138,4138,4139,4137,4138,4138,4138,4138,4138,4138,4139,0,0,0,0,0,0,0,
0,0,0,0,0,0,0,4137,4138,4138,4138,4138,4138,4138,4139,4137,4138,4138,4138,4138,4138,4138,4139,4137,4138,4138,4138,4138,4138,4138,4139,4192,4193,4137,4138,4138,4138,4138,4138,4138,4139,0,0,0,0,0,0,0,0,0,0,0,0,4204,4205,4205,4206,0,0,0,0,0,0,0,0,0,0,0,0,4137,4138,4138,4138,4138,4138,4138,4139,4188,4189,4137,4138,4138,4138,4138,4138,4138,4139,4137,4138,4138,4138,4138,4138,4138,4139,4137,4138,4138,4138,4138,4138,4138,4139,0,0,0,0,0,0,0,
0,0,0,0,0,0,0,4137,4138,4138,4138,4138,4138,4138,4139,4137,4138,4138,4138,4138,4138,4138,4139,4137,4138,4138,4138,4138,4138,4138,4139,4227,4228,4137,4138,4138,4138,4138,4138,4138,4139,0,0,0,0,0,0,0,0,0,0,0,0,4204,4205,4205,4206,0,0,0,0,0,0,0,0,0,0,0,0,4137,4138,4138,4138,4138,4138,4138,4139,4223,4224,4137,4138,4138,4138,4138,4138,4138,4139,4137,4138,4138,4138,4138,4138,4138,4139,4137,4138,4138,4138,4138,4138,4138,4139,0,0,0,0,0,0,0,
0,0,0,0,0,0,0,4137,4138,4138,4138,4138,4138,4138,4139,4137,4138,4138,4138,4138,4138,4138,4139,4137,4138,4138,4138,4138,4138,4138,4139,4262,4263,4137,4138,4138,4138,4138,4138,4138,4139,0,0,0,0,0,0,0,0,0,0,0,0,4204,4205,4205,4206,0,0,0,0,0,0,0,0,0,0,0,0,4137,4138,4138,4138,4138,4138,4138,4139,4258,4259,4137,4138,4138,4138,4138,4138,4138,4139,4137,4138,4138,4138,4138,4138,4138,4139,4137,4138,4138,4138,4138,4138,4138,4139,0,0,0,0,0,0,0,
0,0,0,0,0,0,0,4137,4138,4138,4138,4138,4138,4138,4139,4137,4138,4138,4138,4138,4138,4138,4139,4137,4138,4138,4138,4138,4138,4138,4139,0,0,4137,4138,4138,4138,4138,4138,4138,4139,0,0,0,0,0,0,0,0,0,0,0,0,4204,4205,4205,4206,0,0,0,0,0,0,0,0,0,0,0,0,4137,4138,4138,4138,4138,4138,4138,4139,0,0,4137,4138,4138,4138,4138,4138,4138,4139,4137,4138,4138,4138,4138,4138,4138,4139,4137,4138,4138,4138,4138,4138,4138,4139,0,0,0,0,0,0,0,
0,0,0,0,0,0,0,4172,4173,4173,4173,4173,4173,4173,4174,4172,4173,4173,4173,4173,4173,4173,4174,4172,4173,4173,4173,4173,4173,4173,4174,0,0,4137,4138,4138,4138,4138,4138,4138,4139,0,0,0,0,0,0,0,0,4102,4103,4103,4103,4103,4103,4103,4103,4103,4103,4103,4104,0,0,0,0,0,0,0,0,4137,4138,4138,4138,4138,4138,4138,4139,0,0,4172,4173,4173,4173,4173,4173,4173,4174,4172,4173,4173,4173,4173,4173,4173,4174,4172,4173,4173,4173,4173,4173,4173,4174,0,0,0,0,0,0,0,
0,0,0,0,0,0,0,3540,3540,3540,3540,3540,3540,3540,3540,3540,3540,3540,3540,3540,3540,3540,3540,3540,3540,3540,3540,3540,3540,3540,3540,0,0,4137,4138,4138,4138,4138,4138,4138,4139,0,0,0,0,0,0,0,0,4137,4138,4138,4138,4138,4138,4138,4138,4138,4138,4138,4139,0,0,0,0,0,0,0,0,4137,4138,4138,4138,4138,4138,4138,4139,0,0,3540,3540,3540,3540,3540,3540,3540,3540,3540,3540,3540,3540,3540,3540,3540,3540,3540,3540,3540,3540,3540,3540,3540,3540,0,0,0,0,0,0,0,
0,0,0,0,0,0,0,3575,3575,3575,3575,3575,3575,3575,3575,3575,3575,3575,3575,3575,3575,3575,3575,3575,3575,3575,3575,3575,3575,3575,3575,0,0,4172,4173,4173,4173,4173,4173,4173,4174,0,0,0,0,0,0,0,0,4137,4138,4138,4138,4138,4138,4138,4138,4138,4138,4138,4139,0,0,0,0,0,0,0,0,4172,4173,4173,4173,4173,4173,4173,4174,0,0,3575,3575,3575,3575,3575,3575,3575,3575,3575,3575,3575,3575,3575,3575,3575,3575,3575,3575,3575,3575,3575,3575,3575,3575,0,0,0,0,0,0,0,
0,0,0,0,0,0,0,3575,3575,3575,3575,3575,3575,3575,3575,3575,3575,3575,3575,3575,3575,3575,3575,3575,3575,3575,3575,3575,3575,3575,3575,0,0,3540,3540,3540,3540,3540,3540,3540,3540,0,0,0,0,0,0,0,0,4137,4138,4138,4138,4138,4138,4138,4138,4138,4138,4138,4139,0,0,0,0,0,0,0,0,3540,3540,3540,3540,3540,3540,3540,3540,0,0,3575,3575,3575,3575,3575,3575,3575,3575,3575,3575,3575,3575,3575,3575,3575,3575,3575,3575,3575,3575,3575,3575,3575,3575,0,0,0,0,0,0,0,
0,0,0,0,0,0,0,3575,3575,3575,3575,3575,3575,3575,3575,3575,3575,3575,3575,3575,3575,3575,3575,3575,3575,3575,3575,3575,3575,3575,3575,0,0,3575,3575,3575,3575,3575,3575,3575,3575,0,0,0,0,0,0,0,0,4137,4138,4138,4138,4138,4138,4138,4138,4138,4138,4138,4139,0,0,0,0,0,0,0,0,3575,3575,3575,3575,3575,3575,3575,3575,0,0,3575,3575,3575,3575,3575,3575,3575,3575,3575,3575,3575,3575,3575,3575,3575,3575,3575,3575,3575,3575,3575,3575,3575,3575,0,0,0,0,0,0,0,
0,0,0,0,0,0,0,3575,3575,3575,3575,3575,3575,3575,3575,3575,3575,3575,3575,3575,3575,3575,3575,3575,3575,3575,3575,3575,3575,3575,3575,0,0,3575,3575,3575,3575,3575,3575,3575,3575,0,0,0,0,0,0,0,0,4137,4138,4138,4138,4138,4138,4138,4138,4138,4138,4138,4139,0,0,0,0,0,0,0,0,3575,3575,3575,3575,3575,3575,3575,3575,0,0,3575,3575,3575,3575,3575,3575,3540,3540,3540,3540,3540,3540,3540,3540,3540,3540,3540,3540,3540,3540,3540,3540,3540,3540,0,0,0,0,0,0,0,
0,0,0,0,0,0,0,3540,3540,3540,3540,3540,3540,3540,3540,3540,3540,3540,3540,3540,3540,3540,3540,3540,3540,3575,3575,3575,3575,3575,3575,0,0,3575,3575,3575,3575,3575,3575,3575,3575,0,0,0,0,0,0,0,0,4137,4138,4138,4138,4138,4138,4138,4138,4138,4138,4138,4139,0,0,0,0,0,0,0,0,3575,3575,3575,3575,3575,3575,3575,3575,0,0,3575,3575,3575,3575,3575,3575,3575,3575,3575,3575,3575,3575,3575,3575,3575,3575,3575,3575,3575,3575,3575,3575,3575,3575,0,0,0,0,0,0,0,
0,0,0,0,0,0,0,3575,3575,3575,3575,3575,3575,3575,3575,3575,3575,3575,3575,3575,3575,3575,3575,3575,3575,3575,3575,3575,3575,3575,3575,0,0,3575,3575,3575,3575,3575,3575,3575,3575,0,0,0,0,0,0,0,0,4137,4138,4138,4138,4138,4138,4138,4138,4138,4138,4138,4139,0,0,0,0,0,0,0,0,3575,3575,3575,3575,3575,3575,3575,3575,0,0,3575,3575,3575,3575,3575,3575,3575,3575,3575,3575,3575,3575,3575,3575,3575,3575,3575,3575,3575,3575,3575,3575,3575,3575,0,0,0,0,0,0,0,
0,0,0,0,0,0,0,3575,3575,3575,3575,3575,3575,3575,3575,3575,3575,3575,3575,3575,3575,3575,3575,3575,3575,3575,3575,3575,3575,3575,3575,0,0,3575,3575,3575,3575,3575,3575,3575,3575,0,0,0,0,0,0,0,0,4137,4138,4138,4138,4138,4138,4138,4138,4138,4138,4138,4139,0,0,0,0,0,0,0,0,3575,3575,3575,3575,3575,3575,3575,3575,0,0,3575,3575,3575,3575,3575,3575,3575,3575,3575,3575,3575,3575,3575,3575,3575,3575,3575,3575,3575,3575,3575,3575,3575,3575,0,0,0,0,0,0,0,
0,0,0,0,0,0,0,3575,3575,3575,3575,3575,3575,3575,3575,3575,3575,3575,3575,3575,3575,3575,3575,3575,3575,3575,3575,3575,3575,3575,3575,0,0,3575,3575,3575,3575,3575,3575,3575,3575,0,0,0,0,0,0,0,0,4172,4173,4173,4173,4173,4173,4173,4173,4173,4173,4173,4174,0,0,0,0,0,0,0,0,3575,3575,3575,3575,3575,3575,3575,3575,0,0,3575,3575,3575,3575,3575,3575,3575,3575,3575,3575,3575,3575,3575,3575,3575,3575,3575,3575,3575,3575,3575,3575,3575,3575,0,0,0,0,0,0,0,
0,0,0,0,0,0,0,3575,3575,3575,3575,3575,3575,3575,3575,3575,3575,3575,3575,3575,3575,3575,3575,3575,3575,3575,3575,3575,3575,3575,3575,0,0,3575,3575,3575,3575,3575,3575,3575,3575,0,0,0,0,0,0,0,0,3540,3540,3540,3540,3540,3540,3540,3540,3540,3540,3540,3540,0,0,0,0,0,0,0,0,3575,3575,3575,3575,3575,3575,3575,3575,0,0,3575,3575,3575,3575,3575,3575,3575,3575,3575,3575,3575,3575,3575,3575,3575,3575,3575,3575,3575,3575,3575,3575,3575,3575,0,0,0,0,0,0,0,
0,0,0,0,0,0,0,3575,3575,3575,3575,3575,3575,3575,3575,3575,3575,3575,3575,3575,3575,3575,3575,3575,3575,3575,3575,3575,3575,3575,3575,0,0,3575,3575,3575,3575,3575,3575,3575,3575,0,0,0,0,0,0,0,0,3575,3575,3575,3575,3575,3575,3575,3575,3575,3575,3575,3575,0,0,0,0,0,0,0,0,3575,3575,3575,3575,3575,3575,3575,3575,0,0,3575,3575,3575,3575,3575,3575,3575,3575,3575,3575,3575,3575,3575,3575,3575,3575,3575,3575,3575,3575,3575,3575,3575,3575,0,0,0,0,0,0,0,
0,0,0,0,0,0,0,3575,3575,3575,3575,3575,3575,3575,3575,3575,3575,3575,3575,3575,3575,3575,3575,3575,3575,3575,3575,3575,3575,3575,3575,0,0,3575,3575,3575,3575,3575,3575,3575,3575,0,0,0,0,0,0,0,0,3575,3575,3575,3575,3575,3575,3575,3575,3575,3575,3575,3575,0,0,0,0,0,0,0,0,3575,3575,3575,3575,3575,3575,3575,3575,0,0,3575,3575,3575,3575,3575,3575,3575,3575,3575,3575,3575,3575,3575,3575,3575,3575,3575,3575,3575,3575,3575,3575,3575,3575,0,0,0,0,0,0,0,
0,0,0,0,0,0,0,3575,3575,3575,3575,3575,3575,3575,3575,3575,3575,3575,3575,3575,3575,3575,3575,3575,3575,3575,3575,3575,3575,3575,3575,0,0,3575,3575,3575,3575,3575,3575,3575,3575,0,0,0,0,0,0,0,0,3575,3575,3575,3575,3575,3575,3575,3575,3575,3575,3575,3575,0,0,0,0,0,0,0,0,3575,3575,3575,3575,3575,3575,3575,3575,0,0,3575,3575,3575,3575,3575,3575,3575,3575,3575,3575,3575,3575,3575,3575,3575,3575,3575,3575,3575,3575,3575,3575,3575,3575,0,0,0,0,0,0,0,
0,0,0,0,0,0,0,3575,3575,3575,3575,3575,3575,3575,3575,3575,3575,3575,3575,3575,3575,3575,3575,3575,3575,3575,3575,3575,3575,3575,3575,0,0,3575,3575,3575,3575,3575,3575,3575,3575,0,0,0,0,0,0,0,0,3575,3575,3575,3575,3575,3575,3575,3575,3575,3575,3575,3575,0,0,0,0,0,0,0,0,3575,3575,3575,3575,3575,3575,3575,3575,0,0,3575,3575,3575,3575,3575,3575,3575,3575,3575,3575,3575,3575,3575,3575,3575,3575,3575,3575,3575,3575,3575,3575,3575,3575,0,0,0,0,0,0,0,
0,0,0,0,0,0,0,3575,3575,3575,3575,3575,3575,3575,3575,3575,3575,3575,3575,3575,3575,3575,3575,3575,3575,3575,3575,3575,3575,3575,3575,0,0,3575,3575,3575,3575,3575,3575,3575,3575,0,0,0,0,0,0,0,0,3575,3575,3575,3575,3575,3575,3575,3575,3575,3575,3575,3575,0,0,0,0,0,0,0,0,3575,3575,3575,3575,3575,3575,3575,3575,0,0,3575,3575,3575,3575,3575,3575,3575,3575,3575,3575,3575,3575,3575,3575,3575,3575,3575,3575,3575,3575,3575,3575,3575,3575,0,0,0,0,0,0,0,
0,0,0,0,0,0,0,3575,3575,3575,3575,3575,3575,3575,3575,3575,3575,3575,3575,3575,3575,3575,3575,3575,3575,3575,3575,3575,3575,3575,3575,0,0,3575,3575,3575,3575,3575,3575,3575,3575,0,0,0,0,0,0,0,0,3575,3575,3575,3575,3575,3575,3575,3575,3575,3575,3575,3575,0,0,0,0,0,0,0,0,3575,3575,3575,3575,3575,3575,3575,3575,0,0,3575,3575,3575,3575,3575,3575,3575,3575,3575,3575,3575,3575,3575,3575,3575,3575,3575,3575,3575,3575,3575,3575,3575,3575,0,0,0,0,0,0,0,
0,0,0,0,0,0,0,3575,3575,3575,3575,3575,3575,3575,3575,3575,3575,3575,3575,3575,3575,3575,3575,3575,3575,3575,3575,3575,3575,3575,3575,0,0,3575,3575,3575,3575,3575,3575,3575,3575,0,0,0,0,0,0,0,0,3575,3575,3575,3575,3575,3575,3575,3575,3575,3575,3575,3575,0,0,0,0,0,0,0,0,3575,3575,3575,3575,3575,3575,3575,3575,0,0,3575,3575,3575,3575,3575,3575,3575,3575,3575,3575,3575,3575,3575,3575,3575,3575,3575,3575,3575,3575,3575,3575,3575,3575,0,0,0,0,0,0,0
</data>
 </layer>
 <layer name="above2" width="110" height="84">
  <data encoding="csv">
0,0,0,0,0,0,0,0,0,0,0,0,0,0,0,0,0,0,0,0,0,0,0,0,0,0,0,0,0,0,0,0,0,0,0,0,0,0,0,0,0,0,0,0,0,0,0,0,0,0,0,0,0,0,0,0,0,0,0,0,0,0,0,0,0,0,0,0,0,0,0,0,0,0,0,0,0,0,0,0,0,0,0,0,0,0,0,0,0,0,0,0,0,0,0,0,0,0,0,0,0,0,0,0,0,0,0,0,0,0,
0,0,0,0,0,0,0,0,0,0,0,0,0,0,0,0,0,0,0,0,0,0,0,0,0,0,0,0,0,0,0,0,0,0,0,0,0,0,0,0,0,0,0,0,0,0,0,0,0,0,0,0,0,0,0,0,0,0,0,0,0,0,0,0,0,0,0,0,0,0,0,0,0,0,0,0,0,0,0,0,0,0,0,0,0,0,0,0,0,0,0,0,0,0,0,0,0,0,0,0,0,0,0,0,0,0,0,0,0,0,
0,0,0,0,0,0,0,0,0,0,0,0,0,0,0,0,0,0,0,0,0,0,0,0,0,0,0,0,0,0,0,0,0,0,0,0,0,0,0,0,0,0,0,0,0,0,0,0,0,0,0,0,0,0,0,0,0,0,0,0,0,0,0,0,0,0,0,0,0,0,0,0,0,0,0,0,0,0,0,0,0,0,0,0,0,0,0,0,0,0,0,0,0,0,0,0,0,0,0,0,0,0,0,0,0,0,0,0,0,0,
0,0,0,0,0,0,0,0,0,0,0,0,0,0,0,0,0,0,0,0,0,0,0,0,0,0,0,0,0,0,0,0,0,0,0,0,0,0,0,0,0,0,0,0,0,0,0,0,0,0,0,0,0,0,0,0,0,0,0,0,0,0,0,0,0,0,0,0,0,0,0,0,0,0,0,0,0,0,0,0,0,0,0,0,0,0,0,0,0,0,0,0,0,0,0,0,0,0,0,0,0,0,0,0,0,0,0,0,0,0,
0,0,0,0,0,0,0,0,0,0,0,0,0,0,0,0,0,0,0,0,0,0,0,0,0,0,0,0,0,0,0,0,0,0,0,0,0,0,0,0,0,0,0,0,0,0,0,0,0,0,0,0,0,0,0,0,0,0,0,0,0,0,0,0,0,0,0,0,0,0,0,0,0,0,0,0,0,0,0,0,0,0,0,0,0,0,0,0,0,0,0,0,0,0,0,0,0,0,0,0,0,0,0,0,0,0,0,0,0,0,
0,0,0,0,0,0,0,0,0,0,0,0,0,0,0,0,0,0,0,0,0,0,0,0,0,0,0,0,0,0,0,0,0,0,0,0,0,0,0,0,0,0,0,0,0,0,0,0,0,0,0,0,0,0,0,0,0,0,0,0,0,0,0,0,0,0,0,0,0,0,0,0,0,0,0,0,0,0,0,0,0,0,0,0,0,0,0,0,0,0,0,0,0,0,0,0,0,0,0,0,0,0,0,0,0,0,0,0,0,0,
0,0,0,0,0,0,0,0,0,0,0,0,0,0,0,0,0,0,0,0,0,0,0,0,0,0,0,0,0,0,0,0,0,0,0,0,0,0,0,0,0,0,0,0,0,0,0,0,0,0,0,0,0,0,0,0,0,0,0,0,0,0,0,0,0,0,0,0,0,0,0,0,0,0,0,0,0,0,0,0,0,0,0,0,0,0,0,0,0,0,0,0,0,0,0,0,0,0,0,0,0,0,0,0,0,0,0,0,0,0,
0,0,0,0,0,0,0,0,0,0,0,0,0,0,0,0,0,0,0,0,0,0,0,0,0,0,0,0,0,0,0,0,0,0,0,0,0,0,0,0,0,0,0,0,0,0,0,0,0,0,0,0,0,0,0,0,0,0,0,0,0,0,0,0,0,0,0,0,0,0,0,0,0,0,0,0,0,0,0,0,0,0,0,0,0,0,0,0,0,0,0,0,0,0,0,0,0,0,0,0,0,0,0,0,0,0,0,0,0,0,
0,0,0,0,0,0,0,0,0,0,0,0,0,0,0,0,0,0,0,0,0,0,0,0,0,0,0,0,0,0,0,0,0,0,0,0,0,0,0,0,0,0,0,0,0,0,0,0,0,0,0,0,0,0,0,0,0,0,0,0,0,0,0,0,0,0,0,0,0,0,0,0,0,0,0,0,0,0,0,0,0,0,0,0,0,0,0,0,0,0,0,0,0,0,0,0,0,0,0,0,0,0,0,0,0,0,0,0,0,0,
0,0,0,0,0,0,0,0,0,0,0,0,0,0,0,0,0,0,0,0,0,0,0,0,0,0,0,0,0,0,0,0,0,0,0,0,0,0,0,0,0,0,0,0,0,0,0,0,0,0,0,0,0,0,0,0,0,0,0,0,0,0,0,0,0,0,0,0,0,0,0,0,0,0,0,0,0,0,0,0,0,0,0,0,0,0,0,0,0,0,0,0,0,0,0,0,0,0,0,0,0,0,0,0,0,0,0,0,0,0,
0,0,0,0,0,0,0,0,0,0,0,0,0,0,0,0,0,0,0,0,0,0,0,0,0,0,0,0,0,0,0,0,0,0,0,0,0,0,0,0,0,0,0,0,0,0,0,0,0,0,0,0,0,0,0,0,0,0,0,0,0,0,0,0,0,0,0,0,0,0,0,0,0,0,0,0,0,0,0,0,0,0,0,0,0,0,0,0,0,0,0,0,0,0,0,0,0,0,0,0,0,0,0,0,0,0,0,0,0,0,
0,0,0,0,0,0,0,0,0,0,0,0,0,0,0,0,0,0,0,0,0,0,0,0,0,0,0,0,0,0,0,0,0,0,0,0,0,0,0,0,0,0,0,0,0,0,0,0,0,0,0,0,0,0,0,0,0,0,0,0,0,0,0,0,0,0,0,0,0,0,0,0,0,0,0,0,0,0,0,0,0,0,0,0,0,0,0,0,0,0,0,0,0,0,0,0,0,0,0,0,0,0,0,0,0,0,0,0,0,0,
0,0,0,0,0,0,0,0,0,0,0,0,0,0,0,0,0,0,0,0,0,0,0,0,0,0,0,0,0,0,0,0,0,0,0,0,0,0,0,0,0,0,0,0,0,0,0,0,0,0,0,0,4664,0,0,0,0,4666,0,0,0,0,0,0,0,0,0,0,0,0,0,0,0,0,0,0,0,0,0,0,0,0,0,0,0,0,0,0,0,0,0,0,0,0,0,0,0,0,0,0,0,0,0,0,0,0,0,0,0,0,
0,0,0,0,0,0,0,0,0,0,0,0,0,0,0,0,0,0,0,0,0,0,0,0,0,0,0,0,0,0,0,0,0,0,0,0,0,0,0,0,0,0,0,0,0,0,0,0,0,0,0,0,0,0,0,0,0,0,0,0,0,0,0,0,0,0,0,0,0,0,0,0,0,0,0,0,0,0,0,0,0,0,0,0,0,0,0,0,0,0,0,0,0,0,0,0,0,0,0,0,0,0,0,0,0,0,0,0,0,0,
0,0,0,0,0,0,0,0,0,0,0,0,0,0,0,0,0,0,0,0,0,0,0,0,0,0,0,0,0,0,0,0,0,0,0,0,0,0,0,0,0,0,0,0,0,0,0,0,0,0,0,0,0,0,0,0,0,0,0,0,0,0,0,0,0,0,0,0,0,0,0,0,0,0,0,0,0,0,0,0,0,0,0,0,0,0,0,0,0,0,0,0,0,0,0,0,0,0,0,0,0,0,0,0,0,0,0,0,0,0,
0,0,0,0,0,0,0,0,0,0,0,0,0,0,0,0,0,0,0,0,0,0,0,0,0,0,0,0,0,0,0,0,0,0,0,0,0,0,0,0,0,0,0,0,0,0,0,0,0,0,0,0,0,0,0,0,0,0,0,0,0,0,0,0,0,0,0,0,0,0,0,0,0,0,0,0,0,0,0,0,0,0,0,0,0,0,0,0,0,0,0,0,0,0,0,0,0,0,0,0,0,0,0,0,0,0,0,0,0,0,
0,0,0,0,0,0,0,0,0,0,0,0,0,0,0,0,0,0,0,0,0,0,0,0,0,0,0,0,0,0,0,0,0,0,0,0,0,0,0,0,0,0,0,0,0,0,0,0,0,0,0,0,0,0,0,0,0,0,0,0,0,0,0,0,0,0,0,0,0,0,0,0,0,0,0,0,0,0,0,0,0,0,0,0,0,0,0,0,0,0,0,0,0,0,0,0,0,0,0,0,0,0,0,0,0,0,0,0,0,0,
0,0,0,0,0,0,0,0,0,0,0,0,0,0,0,0,0,0,0,0,0,0,0,0,0,0,0,0,0,0,0,0,0,0,0,0,0,0,0,0,0,0,0,0,0,0,0,0,0,0,0,0,0,0,0,0,0,0,0,0,0,0,0,0,0,0,0,0,0,0,0,0,0,0,0,0,0,0,0,0,0,0,0,0,0,0,0,0,0,0,0,0,0,0,0,0,0,0,0,0,0,0,0,0,0,0,0,0,0,0,
0,0,0,0,0,0,0,0,0,0,0,0,0,0,0,0,0,0,0,0,0,0,0,0,0,0,0,0,0,0,0,0,0,0,0,0,0,0,0,0,0,0,0,0,0,0,0,0,0,0,0,0,0,0,0,0,0,0,0,0,0,0,0,0,0,0,0,0,0,0,0,0,0,0,0,0,0,0,0,0,0,0,0,0,0,0,0,0,0,0,0,0,0,0,0,0,0,0,0,0,0,0,0,0,0,0,0,0,0,0,
0,0,0,0,0,0,0,0,0,0,0,0,0,0,0,0,0,0,0,0,0,0,0,0,0,0,0,0,0,0,0,0,0,0,0,0,0,0,0,0,0,0,0,0,0,0,0,0,0,0,0,0,0,0,0,0,0,0,0,0,0,0,0,0,0,0,0,0,0,0,0,0,0,0,0,0,0,0,0,0,0,0,0,0,0,0,0,0,0,0,0,0,0,0,0,0,0,0,0,0,0,0,0,0,0,0,0,0,0,0,
0,0,0,0,0,0,0,0,0,0,0,0,0,0,0,0,0,0,0,0,0,0,0,0,0,0,0,0,0,0,0,0,0,0,0,0,0,0,0,0,0,0,0,0,0,0,0,0,0,0,0,0,0,0,0,0,0,0,0,0,0,0,0,0,0,0,0,0,0,0,0,0,0,0,0,0,0,0,0,0,0,0,0,0,0,0,0,0,0,0,0,0,0,0,0,0,0,0,0,0,0,0,0,0,0,0,0,0,0,0,
0,0,0,0,0,0,0,0,0,0,0,0,0,0,0,0,0,0,0,0,0,0,0,0,0,0,0,0,0,0,0,0,0,0,0,0,0,0,0,0,0,0,0,0,0,0,0,0,0,0,0,0,0,0,0,0,0,0,0,0,0,0,0,0,0,0,0,0,0,0,0,0,0,0,0,0,0,0,0,0,0,0,0,0,0,0,0,0,0,0,0,0,0,0,0,0,0,0,0,0,0,0,0,0,0,0,0,0,0,0,
0,0,0,0,0,0,0,0,0,0,0,0,0,0,0,0,0,0,0,0,0,0,0,0,0,0,0,0,0,0,0,0,0,0,0,0,0,0,0,0,0,0,0,0,0,0,0,0,0,0,0,0,0,0,0,0,0,0,0,0,0,0,0,0,0,0,0,0,0,0,0,0,0,0,0,0,0,0,0,0,0,0,0,0,0,0,0,0,0,0,0,0,0,0,0,0,0,0,0,0,0,0,0,0,0,0,0,0,0,0,
0,0,0,0,0,0,0,0,0,0,0,0,0,0,0,0,0,0,0,0,0,0,0,0,0,0,0,0,0,0,0,0,0,0,0,0,0,0,0,0,0,0,0,0,0,0,0,0,0,0,0,0,0,0,0,0,0,0,0,0,0,0,0,0,0,0,0,0,0,0,0,0,0,0,0,0,0,0,0,0,0,0,0,0,0,0,0,0,0,0,0,0,0,0,0,0,0,0,0,0,0,0,0,0,0,0,0,0,0,0,
0,0,0,0,0,0,0,0,0,0,0,0,0,0,0,0,0,0,0,0,0,0,0,0,0,0,0,0,0,0,0,0,0,0,0,0,0,0,0,0,0,0,0,0,0,0,0,0,0,0,0,0,0,0,0,0,0,0,0,0,0,0,0,0,0,0,0,0,0,0,0,0,0,0,0,0,0,0,0,0,0,0,0,0,0,0,0,0,0,0,0,0,0,0,0,0,0,0,0,0,0,0,0,0,0,0,0,0,0,0,
0,0,0,0,0,0,0,0,0,0,0,0,0,0,0,0,0,0,0,0,0,0,0,0,0,0,0,0,0,0,0,0,0,0,0,0,0,0,0,0,0,0,0,0,0,0,0,0,0,0,0,0,0,0,0,0,0,0,0,0,0,0,0,0,0,0,0,0,0,0,0,0,0,0,0,0,0,0,0,0,0,0,0,0,0,0,0,0,0,0,0,0,0,0,0,0,0,0,0,0,0,0,0,0,0,0,0,0,0,0,
0,0,0,0,0,0,0,0,0,0,0,0,0,0,0,0,0,0,0,0,0,0,0,0,0,0,0,0,0,0,0,0,0,0,0,0,0,0,0,0,0,0,0,0,0,0,0,0,0,0,0,0,0,0,0,0,0,0,0,0,0,0,0,0,0,0,0,0,0,0,0,0,0,0,0,0,0,0,0,0,0,0,0,0,0,0,0,0,0,0,0,0,0,0,0,0,0,0,0,0,0,0,0,0,0,0,0,0,0,0,
0,0,0,0,0,0,0,0,0,0,0,0,0,0,0,0,0,0,0,0,0,0,0,0,0,0,0,0,0,0,0,0,0,0,0,0,0,0,0,0,0,0,0,0,0,0,0,0,0,0,0,0,0,0,0,0,0,0,0,0,0,0,0,0,0,0,0,0,0,0,0,0,0,0,0,0,0,0,0,0,0,0,0,0,0,0,0,0,0,0,0,0,0,0,0,0,0,0,0,0,0,0,0,0,0,0,0,0,0,0,
0,0,0,0,0,0,0,0,0,0,0,0,0,0,0,0,0,0,0,0,0,0,0,0,0,0,0,0,0,0,0,0,0,0,0,0,0,0,0,0,0,0,0,0,0,0,0,0,0,0,0,0,0,0,0,0,0,0,0,0,0,0,0,0,0,0,0,0,0,0,0,0,0,0,0,0,0,0,0,0,0,0,0,0,0,0,0,0,0,0,0,0,0,0,0,0,0,0,0,0,0,0,0,0,0,0,0,0,0,0,
0,0,0,0,0,0,0,0,0,0,0,0,0,0,0,0,0,0,0,0,0,0,0,0,0,0,0,0,0,0,0,0,0,0,0,0,0,0,0,0,0,0,0,0,0,0,0,0,0,0,0,0,0,0,0,0,0,0,0,0,0,0,0,0,0,0,0,0,0,0,0,0,0,0,0,0,0,0,0,0,0,0,0,0,0,0,0,0,0,0,0,0,0,0,0,0,0,0,0,0,0,0,0,0,0,0,0,0,0,0,
0,0,0,0,0,0,0,0,0,0,0,0,0,0,0,0,0,0,0,0,0,0,0,0,0,0,0,0,0,0,0,0,0,0,0,0,0,0,0,0,0,0,0,0,0,0,0,0,0,0,0,0,0,0,0,0,0,0,0,0,0,0,0,0,0,0,0,0,0,0,0,0,0,0,0,0,0,0,0,0,0,0,0,0,0,0,0,0,0,0,0,0,0,0,0,0,0,0,0,0,0,0,0,0,0,0,0,0,0,0,
0,0,0,0,0,0,0,0,0,0,0,0,0,0,0,0,0,0,0,0,0,0,0,0,0,0,0,0,0,0,0,0,0,0,0,0,0,0,0,0,0,0,0,0,0,0,0,0,0,0,0,0,0,0,0,0,0,0,0,0,0,0,0,0,0,0,0,0,0,0,0,0,0,0,0,0,0,0,0,0,0,0,0,0,0,0,0,0,0,0,0,0,0,0,0,0,0,0,0,0,0,0,0,0,0,0,0,0,0,0,
0,0,0,0,0,0,0,0,0,0,0,0,0,0,0,0,0,0,0,0,0,0,0,0,0,0,0,0,0,0,0,0,0,0,0,0,0,0,0,0,0,0,0,0,0,0,0,0,0,0,0,0,0,0,0,0,0,0,0,0,0,0,0,0,0,0,0,0,0,0,0,0,0,0,0,0,0,0,0,0,0,0,0,0,0,0,0,0,0,0,0,0,0,0,0,0,0,0,0,0,0,0,0,0,0,0,0,0,0,0,
0,0,0,0,0,0,0,0,0,0,0,0,0,0,0,0,0,0,0,0,0,0,0,0,0,0,0,0,0,0,0,0,0,0,0,0,0,0,0,0,0,0,0,0,0,0,0,0,0,0,0,0,0,0,0,0,0,0,0,0,0,0,0,0,0,0,0,0,0,0,0,0,0,0,0,0,0,0,0,0,0,0,0,0,0,0,0,0,0,0,0,0,0,0,0,0,0,0,0,0,0,0,0,0,0,0,0,0,0,0,
0,0,0,0,0,0,0,0,0,0,0,0,0,0,0,0,0,0,0,0,0,0,0,0,0,0,0,0,0,0,0,0,0,0,0,0,0,0,0,0,0,0,0,0,0,0,4082,4083,4084,0,0,0,0,0,0,0,0,0,0,0,0,0,0,0,0,0,0,0,0,0,0,0,0,0,0,0,0,0,0,0,0,0,0,0,0,0,0,0,0,0,0,0,0,0,0,0,0,0,0,0,0,0,0,0,0,0,0,0,0,0,
0,0,0,0,0,0,0,0,0,0,0,0,0,0,0,0,0,0,0,0,0,0,0,0,0,0,0,0,0,0,0,0,0,0,0,0,0,0,0,0,0,0,0,0,0,0,4117,4118,4119,0,0,0,0,0,0,0,0,0,0,0,0,0,0,0,0,0,0,0,0,0,0,0,0,0,0,0,0,0,0,0,0,0,0,0,0,0,0,0,0,0,0,0,0,0,0,0,0,0,0,0,0,0,0,0,0,0,0,0,0,0,
0,0,0,0,0,0,0,0,0,0,0,0,0,0,0,0,0,0,0,0,0,0,0,0,0,0,0,0,0,0,0,0,0,0,0,0,0,0,0,0,0,0,0,4082,4083,4084,4152,4153,4154,0,0,0,0,0,0,0,0,0,0,0,0,0,0,0,0,0,0,0,0,0,0,0,0,0,0,0,0,0,0,0,0,0,0,0,0,0,0,0,0,0,0,0,0,0,0,0,0,0,0,0,0,0,0,0,0,0,0,0,0,0,
0,0,0,0,0,0,0,0,0,0,0,0,0,0,0,0,0,0,0,0,0,0,0,0,0,0,0,0,0,0,0,0,0,0,0,0,0,0,0,0,0,0,0,4117,4118,4119,4187,4188,4189,0,0,0,0,0,0,0,0,0,0,0,0,0,0,0,0,0,0,0,0,0,0,0,0,0,0,0,0,0,0,0,0,0,0,0,0,0,0,0,0,0,0,0,0,0,0,0,0,0,0,0,0,0,0,0,0,0,0,0,0,0,
0,0,0,0,0,0,0,0,0,0,0,0,0,0,0,0,0,0,0,0,0,0,0,0,0,0,0,0,0,0,0,0,0,0,0,0,0,0,0,0,4082,4083,4084,4152,4153,4154,4222,4223,4224,0,0,0,0,0,0,0,0,0,0,0,0,0,0,0,0,0,0,0,0,0,0,0,0,0,0,0,0,0,0,0,0,0,0,0,0,0,0,0,0,0,0,0,0,0,0,0,0,0,0,0,0,0,0,0,0,0,0,0,0,0,
0,0,0,0,0,0,0,0,0,0,0,0,0,0,0,0,0,0,0,0,0,0,0,0,0,0,0,0,0,0,0,0,0,0,0,0,0,0,0,0,4117,4118,4119,4187,4188,4189,4257,0,0,0,0,0,0,0,0,0,0,0,0,0,0,0,0,0,0,0,0,0,0,0,0,0,0,0,0,0,0,0,0,0,0,0,0,0,0,0,0,0,0,0,0,0,0,0,0,0,0,0,0,0,0,0,0,0,0,0,0,0,0,0,
0,0,0,0,0,0,0,0,0,0,0,0,0,0,0,0,0,0,0,0,0,0,0,0,0,0,0,0,0,0,0,0,0,0,0,0,0,0,0,0,4152,4153,4154,4222,4223,4224,0,0,0,0,0,0,0,0,0,0,0,0,0,0,0,0,0,0,0,0,0,0,0,0,0,0,0,0,0,0,0,0,0,0,0,0,0,0,0,0,0,0,0,0,0,0,0,0,0,0,0,0,0,0,0,0,0,0,0,0,0,0,0,0,
0,0,0,0,0,0,0,0,0,0,0,0,0,0,0,0,0,0,0,0,0,0,0,0,0,0,0,0,0,0,0,0,0,0,0,0,0,0,0,0,4187,4188,4189,4257,0,0,0,0,0,0,0,0,0,0,0,0,0,0,0,0,0,0,0,0,0,0,0,0,0,0,0,0,0,0,0,0,0,0,0,0,0,0,0,0,0,0,0,0,0,0,0,0,0,0,0,0,0,0,0,0,0,0,0,0,0,0,0,0,0,0,
0,0,0,0,0,0,0,0,0,0,0,0,0,0,0,0,0,0,0,0,0,0,0,0,0,0,0,0,0,0,0,0,0,0,0,0,0,0,0,0,4222,4223,4224,0,0,0,0,0,0,0,0,0,0,0,0,0,0,0,0,0,0,0,0,0,0,0,0,0,0,0,0,0,0,0,0,0,0,0,0,0,0,0,0,0,0,0,0,0,0,0,0,0,0,0,0,0,0,0,0,0,0,0,0,0,0,0,0,0,0,0,
0,0,0,0,0,0,0,0,0,0,0,0,0,0,0,0,0,0,0,0,0,0,0,0,0,0,0,0,0,0,0,0,0,0,0,0,0,0,0,0,0,0,0,0,0,0,0,0,0,0,0,0,0,0,0,0,0,0,0,0,0,0,0,0,0,0,0,0,0,0,0,0,0,0,0,0,0,0,0,0,0,0,0,0,0,0,0,0,0,0,0,0,0,0,0,0,0,0,0,0,0,0,0,0,0,0,0,0,0,0,
0,0,0,0,0,0,0,0,0,0,0,0,0,0,0,0,0,0,0,0,0,0,0,0,0,0,0,0,0,0,0,0,0,0,0,0,0,0,0,0,0,0,0,0,0,0,0,0,0,0,0,0,0,0,0,0,0,0,0,0,0,0,0,0,0,0,0,0,0,0,0,0,0,0,0,0,0,0,0,0,0,0,0,0,0,0,0,0,0,0,0,0,0,0,0,0,0,0,0,0,0,0,0,0,0,0,0,0,0,0,
0,0,0,0,0,0,0,0,0,0,0,0,0,0,0,0,0,0,0,0,0,0,0,0,0,0,0,0,0,0,0,0,0,0,0,4293,4296,4296,4297,0,0,0,0,0,0,0,0,0,0,0,0,0,0,0,0,0,0,0,0,0,0,0,0,0,0,0,0,0,0,0,0,4293,4296,4296,4297,0,0,0,0,0,0,0,0,0,0,0,0,0,0,0,0,0,0,0,0,0,0,0,0,0,0,0,0,0,0,0,0,0,0,0,
0,0,0,0,0,0,0,0,0,0,0,0,0,0,0,0,0,0,0,0,0,0,0,0,0,0,0,0,0,0,0,0,0,0,0,4328,4331,4331,4332,0,0,0,0,0,0,0,0,0,0,0,0,0,4664,0,0,0,0,4666,0,0,0,0,0,0,0,0,0,0,0,0,0,4328,4331,4331,4332,0,0,0,0,0,0,0,0,0,0,0,0,0,0,0,0,0,0,0,0,0,0,0,0,0,0,0,0,0,0,0,0,0,0,0,
0,0,0,0,0,0,0,0,0,0,0,0,0,0,0,0,0,0,0,0,0,0,0,0,0,0,0,0,0,0,0,0,0,0,0,4363,4366,4366,4367,0,0,0,0,0,0,0,0,0,0,0,0,0,0,0,0,0,0,0,0,0,0,0,0,0,0,0,0,0,0,0,0,4363,4366,4366,4367,0,0,0,0,0,0,0,0,0,0,0,0,0,0,0,0,0,0,0,0,0,0,0,0,0,0,0,0,0,0,0,0,0,0,0,
0,0,0,0,0,0,0,0,0,0,0,0,0,0,0,0,0,0,0,0,0,0,0,0,0,0,0,0,0,0,0,0,0,0,0,4398,4401,4401,4402,0,0,0,0,0,0,0,0,0,0,0,0,0,0,0,0,0,0,0,0,0,0,0,0,0,0,0,0,0,0,0,0,4398,4401,4401,4402,0,0,0,0,0,0,0,0,0,0,0,0,0,0,0,0,0,0,0,0,0,0,0,0,0,0,0,0,0,0,0,0,0,0,0,
0,0,0,0,0,0,0,0,0,0,0,0,0,0,0,0,0,0,0,0,0,0,0,0,0,0,0,0,0,0,0,0,0,0,0,4433,4436,4436,4437,0,0,0,0,0,0,0,0,0,0,0,0,0,0,0,0,0,0,0,0,0,0,0,0,0,0,0,0,0,0,0,0,4433,4436,4436,4437,0,0,0,0,0,0,0,0,0,0,0,0,0,0,0,0,0,0,0,0,0,0,0,0,0,0,0,0,0,0,0,0,0,0,0,
0,0,0,0,0,0,0,0,0,0,0,0,0,0,0,0,0,0,0,0,0,0,0,0,0,0,0,0,0,0,0,0,0,0,0,4468,4471,4471,4472,0,0,0,0,0,0,0,0,0,0,0,0,0,0,0,0,0,0,0,0,0,0,0,0,0,0,0,0,0,0,0,0,4468,4471,4471,4472,0,0,0,0,0,0,0,0,0,0,0,0,0,0,0,0,0,0,0,0,0,0,0,0,0,0,0,0,0,0,0,0,0,0,0,
0,0,0,0,0,0,0,0,0,0,0,0,0,0,0,0,0,0,0,0,0,0,0,0,0,0,0,0,0,0,0,0,0,0,0,4503,4506,4506,4507,0,0,0,0,0,0,0,0,0,0,0,0,0,0,0,0,0,0,0,0,0,0,0,0,0,0,0,0,0,0,0,0,4503,4506,4506,4507,0,0,0,0,0,0,0,0,0,0,0,0,0,0,0,0,0,0,0,0,0,0,0,0,0,0,0,0,0,0,0,0,0,0,0,
0,0,0,0,0,0,0,0,0,0,0,0,0,0,0,0,0,0,0,0,0,0,0,0,0,0,0,0,0,0,0,0,0,0,0,4363,4366,4366,4367,0,0,0,0,0,0,0,0,0,0,0,0,0,0,0,0,0,0,0,0,0,0,0,0,0,0,0,0,0,0,0,0,4363,4366,4366,4367,0,0,0,0,0,0,0,0,0,0,0,0,0,0,0,0,0,0,0,0,0,0,0,0,0,0,0,0,0,0,0,0,0,0,0,
0,0,0,0,0,0,0,0,0,0,0,0,0,0,0,0,0,0,0,0,0,4618,4619,0,0,0,0,0,0,0,0,0,0,0,0,4398,4401,4401,4402,0,0,0,0,0,0,0,0,0,0,0,0,0,0,0,0,0,0,0,0,0,0,0,0,0,0,0,0,0,0,0,0,4398,4401,4401,4402,0,0,0,0,0,0,0,0,0,0,0,0,0,0,0,0,0,0,0,0,0,0,0,0,0,0,0,0,0,0,0,0,0,0,0,
0,0,0,0,0,0,0,0,0,0,0,0,0,0,0,0,0,0,0,0,0,4653,4654,0,0,0,0,0,0,0,0,0,0,0,0,4433,4436,4436,4437,0,0,0,0,0,0,0,0,0,0,0,0,0,0,0,0,0,0,0,0,0,0,0,0,0,0,0,0,0,0,0,0,4433,4436,4436,4437,0,0,0,0,0,0,0,0,0,0,0,0,0,0,0,0,0,0,0,0,0,0,0,0,0,0,0,0,0,0,0,0,0,0,0,
0,0,0,0,0,0,0,0,0,0,0,0,0,0,0,3716,3716,3716,3716,3716,0,0,0,0,0,0,0,0,0,0,0,0,0,0,0,4468,4471,4471,4472,0,0,0,0,0,0,0,0,0,0,0,0,0,0,0,0,0,0,0,0,0,0,0,0,0,0,0,0,0,0,0,0,4468,4471,4471,4472,0,0,0,0,0,0,0,0,0,0,0,0,3544,3545,3544,3545,0,0,3677,3678,0,0,0,0,0,0,0,0,0,0,0,0,0,0,0,
0,0,0,0,0,0,0,0,0,0,0,0,0,0,0,3716,3717,3716,3716,3717,0,0,0,0,0,0,0,0,0,0,4089,0,0,0,0,4503,4506,4506,4507,0,0,0,0,0,0,0,0,0,0,0,0,0,0,0,0,0,0,0,0,0,0,0,0,0,0,0,0,0,0,0,0,4503,4506,4506,4507,0,0,0,0,4082,0,0,0,0,0,0,0,3579,3580,3579,3580,0,11455,3712,3713,3716,3716,3716,3716,4636,0,0,0,0,0,0,0,0,0,0,
0,0,0,0,0,0,0,0,0,0,4569,4570,4571,0,0,4034,4001,4002,4003,4004,0,0,0,0,0,0,0,0,0,0,0,0,0,0,0,4363,4366,4366,4367,0,0,0,0,0,0,0,0,0,0,0,0,0,0,0,0,0,0,0,0,0,0,0,0,0,0,0,0,0,0,0,0,4363,4366,4366,4367,0,0,0,0,0,0,0,0,0,0,0,0,0,0,0,0,0,0,0,0,3716,3717,3716,3716,3717,4005,0,0,0,0,0,0,0,0,0,
0,0,0,0,0,0,0,0,0,0,4604,4605,4606,0,0,0,0,0,0,0,0,0,0,0,0,0,0,0,0,0,0,0,0,0,0,0,0,0,0,0,0,0,0,0,0,0,0,0,0,0,0,0,0,0,0,0,0,0,0,0,0,0,0,0,0,0,0,0,0,0,0,0,0,0,0,0,0,0,0,0,0,0,0,0,0,0,0,0,0,0,0,0,0,0,0,4034,4001,4002,4003,4004,4005,0,0,0,0,0,0,0,0,0,
0,0,0,0,0,0,0,0,0,0,4639,4640,4641,0,0,0,0,0,0,0,0,0,0,0,0,0,0,0,0,0,0,4087,4088,4089,0,0,0,0,0,0,0,0,0,0,0,0,0,0,0,0,0,0,0,0,0,0,0,0,0,0,0,0,0,0,0,0,0,0,0,0,0,0,0,0,0,0,4082,4083,4084,0,0,0,0,0,0,0,0,0,0,0,0,0,0,0,0,0,0,0,0,0,0,0,0,0,0,0,0,0,0,0,
0,0,0,0,0,0,0,0,0,0,4674,4675,4676,0,0,0,0,0,0,0,0,0,0,0,0,0,0,0,0,0,0,4122,4123,4124,0,0,0,0,0,0,0,0,0,0,0,0,0,0,0,0,0,0,0,0,0,0,0,0,0,0,0,0,0,0,0,0,0,0,0,0,0,0,0,0,0,0,4117,4118,4119,0,0,0,0,0,0,0,0,0,0,0,0,0,0,0,0,0,0,0,0,0,0,0,0,0,0,0,0,0,0,0,
0,0,0,0,0,0,0,0,0,0,0,0,0,0,0,0,0,0,0,0,0,0,0,0,0,0,0,0,0,0,0,4157,4158,4159,0,0,0,0,0,0,0,0,0,0,0,0,0,0,0,0,0,0,0,0,0,0,0,0,0,0,0,0,0,0,0,0,0,0,0,0,0,0,0,0,0,0,4152,4153,4154,0,0,0,0,0,0,0,0,0,0,0,0,0,0,0,0,0,0,0,0,0,0,0,0,0,0,0,0,0,0,0,
0,0,0,0,0,0,0,0,0,0,4569,4570,4571,0,0,0,0,0,0,0,0,0,0,0,0,0,0,0,0,0,0,4192,4193,4194,0,0,0,0,0,0,0,0,0,0,0,0,0,0,0,0,0,0,0,0,0,0,0,0,0,0,0,0,0,0,0,0,0,0,0,4050,0,0,0,0,0,0,4187,4188,4189,0,0,0,0,0,0,0,0,0,0,0,4569,4570,4571,0,0,4569,4570,4571,0,4636,0,0,0,0,0,0,0,0,0,0,
0,0,0,0,0,0,0,0,0,0,4604,4605,4606,0,0,0,0,0,0,0,0,0,0,0,0,0,0,0,0,0,0,4227,4228,4229,0,0,0,0,0,0,0,4087,4088,4089,0,0,0,0,0,0,0,0,0,0,0,0,0,0,0,0,0,0,0,0,0,0,4082,4083,4084,4085,0,0,0,0,0,0,4222,4223,4224,0,0,0,0,0,0,0,0,0,0,0,4604,4605,4606,0,0,4604,4605,4606,0,4636,0,0,0,0,0,0,0,0,0,0,
0,0,0,0,0,0,0,0,0,0,4639,4640,4641,0,0,0,0,0,0,0,0,0,0,0,0,0,0,0,0,0,0,4262,4263,4264,0,0,0,0,0,0,0,4122,4123,4124,0,0,0,0,0,0,0,0,0,0,0,0,0,0,0,0,0,0,0,0,0,0,4117,4118,4119,4120,0,0,0,0,0,0,0,0,0,0,0,0,0,0,0,0,0,0,0,0,4639,4640,4641,0,0,4639,4640,4641,0,0,0,0,0,0,0,0,0,0,0,0,
0,0,0,0,0,0,0,0,0,0,4674,4675,4676,0,0,0,0,0,0,0,0,0,0,0,0,0,0,0,0,0,0,0,0,0,0,0,0,0,0,0,0,4157,4158,4159,4087,4088,4089,0,0,0,0,0,0,0,0,0,0,0,0,0,0,0,0,4082,4083,4084,4152,4153,4154,4155,0,0,0,0,0,0,0,0,0,0,0,0,0,0,0,0,0,0,0,0,4674,4675,4676,0,0,4674,4675,4676,0,0,0,0,0,0,0,0,0,0,0,0,
0,0,0,0,0,0,0,0,0,0,0,0,0,0,0,0,0,0,0,0,0,0,0,0,0,0,0,0,0,0,0,0,0,0,0,0,0,0,0,0,0,4192,4193,4194,4122,4123,4124,0,0,0,0,0,0,0,0,0,0,0,0,0,0,0,0,4117,4118,4119,4187,4188,4189,4190,0,0,0,0,0,0,0,0,0,0,0,0,0,0,0,0,0,0,0,0,0,0,0,0,0,0,0,0,0,0,0,0,0,0,0,0,0,0,0,0,
0,0,0,0,0,0,0,0,0,0,0,0,0,0,0,0,0,0,0,0,0,0,0,0,0,0,0,0,0,0,0,0,0,0,0,0,0,0,0,0,0,4227,4228,4229,4157,4158,4159,4087,4088,4089,0,0,0,0,0,0,0,0,0,0,4082,4083,4084,4152,4153,4154,4222,4223,4224,0,0,0,0,0,0,0,0,0,0,0,0,0,0,0,0,0,0,0,0,0,0,0,0,0,0,0,0,0,0,0,0,0,0,0,0,0,0,0,0,0,
0,0,0,0,0,0,0,0,0,0,0,0,0,0,0,0,0,0,0,0,0,0,0,0,0,0,0,0,0,0,0,0,0,0,0,0,0,0,0,0,0,4262,4263,4264,4192,4193,4194,4122,4123,4124,0,0,0,0,0,0,0,0,0,0,4117,4118,4119,4187,4188,4189,4257,0,0,0,0,0,0,0,0,0,0,0,0,0,0,0,0,0,0,0,0,0,0,0,0,0,0,0,0,0,0,0,0,0,0,0,0,0,0,0,0,0,0,0,
0,0,0,0,0,0,0,0,0,0,0,0,0,0,0,0,0,0,0,0,0,0,0,0,0,0,0,0,0,0,0,0,0,0,0,0,0,0,0,0,0,0,0,0,4227,4228,4229,4157,4158,4159,0,0,0,0,0,0,0,0,0,0,4152,4153,4154,4222,4223,4224,0,0,0,0,0,0,0,0,0,0,0,0,0,0,0,0,0,0,0,0,0,0,0,0,0,0,0,0,0,0,0,0,0,0,0,0,0,0,0,0,0,0,0,0,
0,0,0,0,0,0,0,0,0,0,0,0,0,0,0,0,0,0,0,0,0,0,0,0,0,0,0,0,0,0,0,0,0,0,0,0,0,0,0,0,0,0,0,0,4262,4263,4264,4192,4193,4194,0,0,0,0,0,0,0,0,0,0,4187,4188,4189,4257,0,0,0,0,0,0,0,0,0,0,0,0,0,0,0,0,0,0,0,0,0,0,0,0,0,0,0,0,0,0,0,0,0,0,0,0,0,0,0,0,0,0,0,0,0,0,
0,0,0,0,0,0,0,0,0,0,0,0,0,0,0,0,0,0,0,0,0,0,0,0,0,0,0,0,0,0,0,0,0,0,0,0,0,0,0,0,0,0,0,0,0,0,0,4227,4228,4229,0,0,0,0,0,0,0,0,0,0,4222,4223,4224,0,0,0,0,0,0,0,0,0,0,0,0,0,0,0,0,0,0,0,0,0,0,0,0,0,0,0,0,0,0,0,0,0,0,0,0,0,0,0,0,0,0,0,0,0,0,0,
0,0,0,0,0,0,0,0,0,0,0,0,0,0,0,0,0,0,0,0,0,0,0,0,0,0,0,0,0,0,0,0,0,0,0,0,0,0,0,0,0,0,0,0,0,0,0,4262,4263,4264,0,0,0,0,0,0,0,0,0,0,0,0,0,0,0,0,0,0,0,0,0,0,0,0,0,0,0,0,0,0,0,0,0,0,0,0,0,0,0,0,0,0,0,0,0,0,0,0,0,0,0,0,0,0,0,0,0,0,0,0,
0,0,0,0,0,0,0,0,0,0,0,0,0,0,0,0,0,0,0,0,0,0,0,0,0,0,0,0,0,0,0,0,0,0,0,0,0,0,0,0,0,0,0,0,0,0,0,0,0,0,0,0,0,0,0,0,0,0,0,0,0,0,0,0,0,0,0,0,0,0,0,0,0,0,0,0,0,0,0,0,0,0,0,0,0,0,0,0,0,0,0,0,0,0,0,0,0,0,0,0,0,0,0,0,0,0,0,0,0,0,
0,0,0,0,0,0,0,0,0,0,0,0,0,0,0,0,0,0,0,0,0,0,0,0,0,0,0,0,0,0,0,0,0,0,0,0,0,0,0,0,0,0,0,0,0,0,0,0,0,0,0,0,0,0,0,0,0,0,0,0,0,0,0,0,0,0,0,0,0,0,0,0,0,0,0,0,0,0,0,0,0,0,0,0,0,0,0,0,0,0,0,0,0,0,0,0,0,0,0,0,0,0,0,0,0,0,0,0,0,0,
0,0,0,0,0,0,0,0,0,0,0,0,0,0,0,0,0,0,0,0,0,0,0,0,0,0,0,0,0,0,0,0,0,0,0,0,0,0,0,0,0,0,0,0,0,0,0,0,0,0,0,0,0,0,0,0,0,0,0,0,0,0,0,0,0,0,0,0,0,0,0,0,0,0,0,0,0,0,0,0,0,0,0,0,0,0,0,0,0,0,0,0,0,0,0,0,0,0,0,0,0,0,0,0,0,0,0,0,0,0,
0,0,0,0,0,0,0,0,0,0,0,0,0,0,0,0,0,0,0,0,0,0,0,0,0,0,0,0,0,0,0,0,0,0,0,0,0,0,0,0,0,0,0,0,0,0,0,0,0,0,0,0,4293,4294,4295,4296,4296,4297,0,0,0,0,0,0,0,0,0,0,0,0,0,0,0,0,0,0,0,0,0,0,0,0,0,0,0,0,0,0,0,0,0,0,0,0,0,0,0,0,0,0,0,0,0,0,0,0,0,0,0,0,
0,0,0,0,0,0,0,0,0,0,0,0,0,0,0,0,0,0,0,0,0,0,0,0,0,0,0,0,0,0,0,0,0,0,0,0,0,0,0,0,0,0,0,0,0,0,0,0,0,0,0,0,4328,4329,4330,4331,4331,4332,0,0,0,0,0,0,0,0,0,0,0,0,0,0,0,0,0,0,0,0,0,0,0,0,0,0,0,0,0,0,0,0,0,0,0,0,0,0,0,0,0,0,0,0,0,0,0,0,0,0,0,0,
0,0,0,0,0,0,0,0,0,0,0,0,0,0,0,0,0,0,0,0,0,0,0,0,0,0,0,0,0,0,0,0,0,0,0,0,0,0,0,0,0,0,0,0,0,0,0,0,0,0,0,0,4363,4364,4365,4366,4366,4367,0,0,0,0,0,0,0,0,0,0,0,0,0,0,0,0,0,0,0,0,0,0,0,0,0,0,0,0,0,0,0,0,0,0,0,0,0,0,0,0,0,0,0,0,0,0,0,0,0,0,0,0,
0,0,0,0,0,0,0,0,0,0,0,0,0,0,0,0,0,0,0,0,0,0,0,0,0,0,0,0,0,0,0,0,0,0,0,0,0,0,0,0,0,0,0,0,0,0,0,0,0,0,0,0,4398,4399,4400,4401,4401,4402,0,0,0,0,0,0,0,0,0,0,0,0,0,0,0,0,0,0,0,0,0,0,0,0,0,0,0,0,0,0,0,0,0,0,0,0,0,0,0,0,0,0,0,0,0,0,0,0,0,0,0,0,
0,0,0,0,0,0,0,0,0,0,0,0,0,0,0,0,0,0,0,0,0,0,0,0,0,0,0,0,0,0,0,0,0,0,0,0,0,0,0,0,0,0,0,0,0,0,0,0,0,0,0,0,4433,4434,4435,4436,4436,4437,0,0,0,0,0,0,0,0,0,0,0,0,0,0,0,0,0,0,0,0,0,0,0,0,0,0,0,0,0,0,0,0,0,0,0,0,0,0,0,0,0,0,0,0,0,0,0,0,0,0,0,0,
0,0,0,0,0,0,0,0,0,0,0,0,0,0,0,0,0,0,0,0,0,0,0,0,0,0,0,0,0,0,0,0,0,0,0,0,0,0,0,0,0,0,0,0,0,0,0,0,0,0,0,0,4468,4469,4470,4471,4471,4472,0,0,0,0,0,0,0,0,0,0,0,0,0,0,0,0,0,0,0,0,0,0,0,0,0,0,0,0,0,0,0,0,0,0,0,0,0,0,0,0,0,0,0,0,0,0,0,0,0,0,0,0,
0,0,0,0,0,0,0,0,0,0,0,0,0,0,0,0,0,0,0,0,0,0,0,0,0,0,0,0,0,0,0,0,0,0,0,0,0,0,0,0,0,0,0,0,0,0,0,0,0,0,0,0,4503,4504,4505,4506,4506,4507,0,0,0,0,0,0,0,0,0,0,0,0,0,0,0,0,0,0,0,0,0,0,0,0,0,0,0,0,0,0,0,0,0,0,0,0,0,0,0,0,0,0,0,0,0,0,0,0,0,0,0,0,
0,0,0,0,0,0,0,0,0,0,0,0,0,0,0,0,0,0,0,0,0,0,0,0,0,0,0,0,0,0,0,0,0,0,0,0,0,0,0,0,0,0,0,0,0,0,0,0,0,0,0,0,4363,4364,4365,4366,4366,4367,0,0,0,0,0,0,0,0,0,0,0,0,0,0,0,0,0,0,0,0,0,0,0,0,0,0,0,0,0,0,0,0,0,0,0,0,0,0,0,0,0,0,0,0,0,0,0,0,0,0,0,0
</data>
 </layer>
 <layer name="above3" width="110" height="84">
  <data encoding="csv">
0,0,0,0,0,0,0,0,0,0,0,0,0,0,0,0,0,0,0,0,0,0,0,0,0,0,0,0,0,0,0,0,0,0,0,0,0,0,0,0,0,0,0,0,0,0,0,0,0,0,0,0,0,0,0,0,0,0,0,0,0,0,0,0,0,0,0,0,0,0,0,0,0,0,0,0,0,0,0,0,0,0,0,0,0,0,0,0,0,0,0,0,0,0,0,0,0,0,0,0,0,0,0,0,0,0,0,0,0,0,
0,0,0,0,0,0,0,0,0,0,0,0,0,0,0,0,0,0,0,0,0,0,0,0,0,0,0,0,0,0,0,0,0,0,0,0,0,0,0,0,0,0,0,0,0,0,0,0,0,0,0,0,0,0,0,0,0,0,0,0,0,0,0,0,0,0,0,0,0,0,0,0,0,0,0,0,0,0,0,0,0,0,0,0,0,0,0,0,0,0,0,0,0,0,0,0,0,0,0,0,0,0,0,0,0,0,0,0,0,0,
0,0,0,0,0,0,0,0,0,0,0,0,0,0,0,0,0,0,0,0,0,0,0,0,0,0,0,0,0,0,0,0,0,0,0,0,0,0,0,0,0,0,0,0,0,0,0,0,0,0,0,0,0,0,0,0,0,0,0,0,0,0,0,0,0,0,0,0,0,0,0,0,0,0,0,0,0,0,0,0,0,0,0,0,0,0,0,0,0,0,0,0,0,0,0,0,0,0,0,0,0,0,0,0,0,0,0,0,0,0,
0,0,0,0,0,0,0,0,0,0,0,0,0,0,0,0,0,0,0,0,0,0,0,0,0,0,0,0,0,0,0,0,0,0,0,0,0,0,0,0,0,0,0,0,0,0,0,0,0,0,0,0,0,0,0,0,0,0,0,0,0,0,0,0,0,0,0,0,0,0,0,0,0,0,0,0,0,0,0,0,0,0,0,0,0,0,0,0,0,0,0,0,0,0,0,0,0,0,0,0,0,0,0,0,0,0,0,0,0,0,
0,0,0,0,0,0,0,0,0,0,0,0,0,0,0,0,0,0,0,0,0,0,0,0,0,0,0,0,0,0,0,0,0,0,0,0,0,0,0,0,0,0,0,0,0,0,0,0,0,0,0,0,0,0,0,0,0,0,0,0,0,0,0,0,0,0,0,0,0,0,0,0,0,0,0,0,0,0,0,0,0,0,0,0,0,0,0,0,0,0,0,0,0,0,0,0,0,0,0,0,0,0,0,0,0,0,0,0,0,0,
0,0,0,0,0,0,0,0,0,0,0,0,0,0,0,0,0,0,0,0,0,0,0,0,0,0,0,0,0,0,0,0,0,0,0,0,0,0,0,0,0,0,0,0,0,0,0,0,0,0,0,0,0,0,0,0,0,0,0,0,0,0,0,0,0,0,0,0,0,0,0,0,0,0,0,0,0,0,0,0,0,0,0,0,0,0,0,0,0,0,0,0,0,0,0,0,0,0,0,0,0,0,0,0,0,0,0,0,0,0,
0,0,0,0,0,0,0,0,0,0,0,0,0,0,0,0,0,0,0,0,0,0,0,0,0,0,0,0,0,0,0,0,0,0,0,0,0,0,0,0,0,0,0,0,0,0,0,0,0,0,0,0,0,0,0,0,0,0,0,0,0,0,0,0,0,0,0,0,0,0,0,0,0,0,0,0,0,0,0,0,0,0,0,0,0,0,0,0,0,0,0,0,0,0,0,0,0,0,0,0,0,0,0,0,0,0,0,0,0,0,
0,0,0,0,0,0,0,0,0,0,0,0,0,0,0,0,0,0,0,0,0,0,0,0,0,0,0,0,0,0,0,0,0,0,0,0,0,0,0,0,0,0,0,0,0,0,0,0,0,0,0,0,0,0,0,0,0,0,0,0,0,0,0,0,0,0,0,0,0,0,0,0,0,0,0,0,0,0,0,0,0,0,0,0,0,0,0,0,0,0,0,0,0,0,0,0,0,0,0,0,0,0,0,0,0,0,0,0,0,0,
0,0,0,0,0,0,0,0,0,0,0,0,0,0,0,0,0,0,0,0,0,0,0,0,0,0,0,0,0,0,0,0,0,0,0,0,0,0,0,0,0,0,0,0,0,0,0,0,0,0,0,0,0,0,0,0,0,0,0,0,0,0,0,0,0,0,0,0,0,0,0,0,0,0,0,0,0,0,0,0,0,0,0,0,0,0,0,0,0,0,0,0,0,0,0,0,0,0,0,0,0,0,0,0,0,0,0,0,0,0,
0,0,0,0,0,0,0,0,0,0,0,0,0,0,0,0,0,0,0,0,0,0,0,0,0,0,0,0,0,0,0,0,0,0,0,0,0,0,0,0,0,0,0,0,0,0,0,0,0,0,0,0,0,0,0,0,0,0,0,0,0,0,0,0,0,0,0,0,0,0,0,0,0,0,0,0,0,0,0,0,0,0,0,0,0,0,0,0,0,0,0,0,0,0,0,0,0,0,0,0,0,0,0,0,0,0,0,0,0,0,
0,0,0,0,0,0,0,0,0,0,0,0,0,0,0,0,0,0,0,0,0,0,0,0,0,0,0,0,0,0,0,0,0,0,0,0,0,0,0,0,0,0,0,0,0,0,0,0,0,0,0,0,0,0,0,0,0,0,0,0,0,0,0,0,0,0,0,0,0,0,0,0,0,0,0,0,0,0,0,0,0,0,0,0,0,0,0,0,0,0,0,0,0,0,0,0,0,0,0,0,0,0,0,0,0,0,0,0,0,0,
0,0,0,0,0,0,0,0,0,0,0,0,0,0,0,0,0,0,0,0,0,0,0,0,0,0,0,0,0,0,0,0,0,0,0,0,0,0,0,0,0,0,0,0,0,0,0,0,0,0,0,0,0,0,0,0,0,0,0,0,0,0,0,0,0,0,0,0,0,0,0,0,0,0,0,0,0,0,0,0,0,0,0,0,0,0,0,0,0,0,0,0,0,0,0,0,0,0,0,0,0,0,0,0,0,0,0,0,0,0,
0,0,0,0,0,0,0,0,0,0,0,0,0,0,0,0,0,0,0,0,0,0,0,0,0,0,0,0,0,0,0,0,0,0,0,0,0,0,0,0,0,0,0,0,0,0,0,0,0,0,0,0,0,0,0,0,0,0,0,0,0,0,0,0,0,0,0,0,0,0,0,0,0,0,0,0,0,0,0,0,0,0,0,0,0,0,0,0,0,0,0,0,0,0,0,0,0,0,0,0,0,0,0,0,0,0,0,0,0,0,
0,0,0,0,0,0,0,0,0,0,0,0,0,0,0,0,0,0,0,0,0,0,0,0,0,0,0,0,0,0,0,0,0,0,0,0,0,0,0,0,0,0,0,0,0,0,0,0,0,0,0,0,0,0,0,0,0,0,0,0,0,0,0,0,0,0,0,0,0,0,0,0,0,0,0,0,0,0,0,0,0,0,0,0,0,0,0,0,0,0,0,0,0,0,0,0,0,0,0,0,0,0,0,0,0,0,0,0,0,0,
0,0,0,0,0,0,0,0,0,0,0,0,0,0,0,0,0,0,0,0,0,0,0,0,0,0,0,0,0,0,0,0,0,0,0,0,0,0,0,0,0,0,0,0,0,0,0,0,0,0,0,0,0,0,0,0,0,0,0,0,0,0,0,0,0,0,0,0,0,0,0,0,0,0,0,0,0,0,0,0,0,0,0,0,0,0,0,0,0,0,0,0,0,0,0,0,0,0,0,0,0,0,0,0,0,0,0,0,0,0,
0,0,0,0,0,0,0,0,0,0,0,0,0,0,0,0,0,0,0,0,0,0,0,0,0,0,0,0,0,0,0,0,0,0,0,0,0,0,0,0,0,0,0,0,0,0,0,0,0,0,0,0,0,0,0,0,0,0,0,0,0,0,0,0,0,0,0,0,0,0,0,0,0,0,0,0,0,0,0,0,0,0,0,0,0,0,0,0,0,0,0,0,0,0,0,0,0,0,0,0,0,0,0,0,0,0,0,0,0,0,
0,0,0,0,0,0,0,0,0,0,0,0,0,0,0,0,0,0,0,0,0,0,0,0,0,0,0,0,0,0,0,0,0,0,0,0,0,0,0,0,0,0,0,0,0,0,0,0,0,0,0,0,0,0,0,0,0,0,0,0,0,0,0,0,0,0,0,0,0,0,0,0,0,0,0,0,0,0,0,0,0,0,0,0,0,0,0,0,0,0,0,0,0,0,0,0,0,0,0,0,0,0,0,0,0,0,0,0,0,0,
0,0,0,0,0,0,0,0,0,0,0,0,0,0,0,0,0,0,0,0,0,0,0,0,0,0,0,0,0,0,0,0,0,0,0,0,0,0,0,0,0,0,0,0,0,0,0,0,0,0,0,0,0,0,0,0,0,0,0,0,0,0,0,0,0,0,0,0,0,0,0,0,0,0,0,0,0,0,0,0,0,0,0,0,0,0,0,0,0,0,0,0,0,0,0,0,0,0,0,0,0,0,0,0,0,0,0,0,0,0,
0,0,0,0,0,0,0,0,0,0,0,0,0,0,0,0,0,0,0,0,0,0,0,0,0,0,0,0,0,0,0,0,0,0,0,0,0,0,0,0,0,0,0,0,0,0,0,0,0,0,0,0,0,0,0,0,0,0,0,0,0,0,0,0,0,0,0,0,0,0,0,0,0,0,0,0,0,0,0,0,0,0,0,0,0,0,0,0,0,0,0,0,0,0,0,0,0,0,0,0,0,0,0,0,0,0,0,0,0,0,
0,0,0,0,0,0,0,0,0,0,0,0,0,0,0,0,0,0,0,0,0,0,0,0,0,0,0,0,0,0,0,0,0,0,0,0,0,0,0,0,0,0,0,0,0,0,0,0,0,0,0,0,0,0,0,0,0,0,0,0,0,0,0,0,0,0,0,0,0,0,0,0,0,0,0,0,0,0,0,0,0,0,0,0,0,0,0,0,0,0,0,0,0,0,0,0,0,0,0,0,0,0,0,0,0,0,0,0,0,0,
0,0,0,0,0,0,0,0,0,0,0,0,0,0,0,0,0,0,0,0,0,0,0,0,0,0,0,0,0,0,0,0,0,0,0,0,0,0,0,0,0,0,0,0,0,0,0,0,0,0,0,0,0,0,0,0,0,0,0,0,0,0,0,0,0,0,0,0,0,0,0,0,0,0,0,0,0,0,0,0,0,0,0,0,0,0,0,0,0,0,0,0,0,0,0,0,0,0,0,0,0,0,0,0,0,0,0,0,0,0,
0,0,0,0,0,0,0,0,0,0,0,0,0,0,0,0,0,0,0,0,0,0,0,0,0,0,0,0,0,0,0,0,0,0,0,0,0,0,0,0,0,0,0,0,0,0,0,0,0,0,0,0,0,0,0,0,0,0,0,0,0,0,0,0,0,0,0,0,0,0,0,0,0,0,0,0,0,0,0,0,0,0,0,0,0,0,0,0,0,0,0,0,0,0,0,0,0,0,0,0,0,0,0,0,0,0,0,0,0,0,
0,0,0,0,0,0,0,0,0,0,0,0,0,0,0,0,0,0,0,0,0,0,0,0,0,0,0,0,0,0,0,0,0,0,0,0,0,0,0,0,0,0,0,0,0,0,0,0,0,0,0,0,0,0,0,0,0,0,0,0,0,0,0,0,0,0,0,0,0,0,0,0,0,0,0,0,0,0,0,0,0,0,0,0,0,0,0,0,0,0,0,0,0,0,0,0,0,0,0,0,0,0,0,0,0,0,0,0,0,0,
0,0,0,0,0,0,0,0,0,0,0,0,0,0,0,0,0,0,0,0,0,0,0,0,0,0,0,0,0,0,0,0,0,0,0,0,0,0,0,0,0,0,0,0,0,0,0,0,0,0,0,0,0,0,0,0,0,0,0,0,0,0,0,0,0,0,0,0,0,0,0,0,0,0,0,0,0,0,0,0,0,0,0,0,0,0,0,0,0,0,0,0,0,0,0,0,0,0,0,0,0,0,0,0,0,0,0,0,0,0,
0,0,0,0,0,0,0,0,0,0,0,0,0,0,0,0,0,0,0,0,0,0,0,0,0,0,0,0,0,0,0,0,0,0,0,0,0,0,0,0,0,0,0,0,0,0,0,0,0,0,0,0,0,0,0,0,0,0,0,0,0,0,0,0,0,0,0,0,0,0,0,0,0,0,0,0,0,0,0,0,0,0,0,0,0,0,0,0,0,0,0,0,0,0,0,0,0,0,0,0,0,0,0,0,0,0,0,0,0,0,
0,0,0,0,0,0,0,0,0,0,0,0,0,0,0,0,0,0,0,0,0,0,0,0,0,0,0,0,0,0,0,0,0,0,0,0,0,0,0,0,0,0,0,0,0,0,0,0,0,0,0,0,0,0,0,0,0,0,0,0,0,0,0,0,0,0,0,0,0,0,0,0,0,0,0,0,0,0,0,0,0,0,0,0,0,0,0,0,0,0,0,0,0,0,0,0,0,0,0,0,0,0,0,0,0,0,0,0,0,0,
0,0,0,0,0,0,0,0,0,0,0,0,0,0,0,0,0,0,0,0,0,0,0,0,0,0,0,0,0,0,0,0,0,0,0,0,0,0,0,0,0,0,0,0,0,0,0,0,0,0,0,0,0,0,0,0,0,0,0,0,0,0,0,0,0,0,0,0,0,0,0,0,0,0,0,0,0,0,0,0,0,0,0,0,0,0,0,0,0,0,0,0,0,0,0,0,0,0,0,0,0,0,0,0,0,0,0,0,0,0,
0,0,0,0,0,0,0,0,0,0,0,0,0,0,0,0,0,0,0,0,0,0,0,0,0,0,0,0,0,0,0,0,0,0,0,0,0,0,0,0,0,0,0,0,0,0,0,0,0,0,0,0,0,0,0,0,0,0,0,0,0,0,0,0,0,0,0,0,0,0,0,0,0,0,0,0,0,0,0,0,0,0,0,0,0,0,0,0,0,0,0,0,0,0,0,0,0,0,0,0,0,0,0,0,0,0,0,0,0,0,
0,0,0,0,0,0,0,0,0,0,0,0,0,0,0,0,0,0,0,0,0,0,0,0,0,0,0,0,0,0,0,0,0,0,0,0,0,0,0,0,0,0,0,0,0,0,0,0,0,0,0,0,0,0,0,0,0,0,0,0,0,0,0,0,0,0,0,0,0,0,0,0,0,0,0,0,0,0,0,0,0,0,0,0,0,0,0,0,0,0,0,0,0,0,0,0,0,0,0,0,0,0,0,0,0,0,0,0,0,0,
0,0,0,0,0,0,0,0,0,0,0,0,0,0,0,0,0,0,0,0,0,0,0,0,0,0,0,0,0,0,0,0,0,0,0,0,0,0,0,0,0,0,0,0,0,0,0,0,0,0,0,0,0,0,0,0,0,0,0,0,0,0,0,0,0,0,0,0,0,0,0,0,0,0,0,0,0,0,0,0,0,0,0,0,0,0,0,0,0,0,0,0,0,0,0,0,0,0,0,0,0,0,0,0,0,0,0,0,0,0,
0,0,0,0,0,0,0,0,0,0,0,0,0,0,0,0,0,0,0,0,0,0,0,0,0,0,0,0,0,0,0,0,0,0,0,0,0,0,0,0,0,0,0,0,0,0,0,0,0,0,0,0,0,0,0,0,0,0,0,0,0,0,0,0,0,0,0,0,0,0,0,0,0,0,0,0,0,0,0,0,0,0,0,0,0,0,0,0,0,0,0,0,0,0,0,0,0,0,0,0,0,0,0,0,0,0,0,0,0,0,
0,0,0,0,0,0,0,0,0,0,0,0,0,0,0,0,0,0,0,0,0,0,0,0,0,0,0,0,0,0,0,0,0,0,0,0,0,0,0,0,0,0,0,0,0,0,0,0,0,0,0,0,0,0,0,0,0,0,0,0,0,0,0,0,0,0,0,0,0,0,0,0,0,0,0,0,0,0,0,0,0,0,0,0,0,0,0,0,0,0,0,0,0,0,0,0,0,0,0,0,0,0,0,0,0,0,0,0,0,0,
0,0,0,0,0,0,0,0,0,0,0,0,0,0,0,0,0,0,0,0,0,0,0,0,0,0,0,0,0,0,0,0,0,0,0,0,0,0,0,0,0,0,0,0,0,0,0,0,0,0,0,0,0,0,0,0,0,0,0,0,0,0,0,0,0,0,0,0,0,0,0,0,0,0,0,0,0,0,0,0,0,0,0,0,0,0,0,0,0,0,0,0,0,0,0,0,0,0,0,0,0,0,0,0,0,0,0,0,0,0,
0,0,0,0,0,0,0,0,0,0,0,0,0,0,0,0,0,0,0,0,0,0,0,0,0,0,0,0,0,0,0,0,0,0,0,0,0,0,0,0,0,0,0,0,0,0,0,0,0,0,0,0,0,0,0,0,0,0,0,0,0,0,0,0,0,0,0,0,0,0,0,0,0,0,0,0,0,0,0,0,0,0,0,0,0,0,0,0,0,0,0,0,0,0,0,0,0,0,0,0,0,0,0,0,0,0,0,0,0,0,
0,0,0,0,0,0,0,0,0,0,0,0,0,0,0,0,0,0,0,0,0,0,0,0,0,0,0,0,0,0,0,0,0,0,0,0,0,0,0,0,0,0,0,0,0,0,0,0,0,0,0,0,0,0,0,0,0,0,0,0,0,0,0,0,0,0,0,0,0,0,0,0,0,0,0,0,0,0,0,0,0,0,0,0,0,0,0,0,0,0,0,0,0,0,0,0,0,0,0,0,0,0,0,0,0,0,0,0,0,0,
0,0,0,0,0,0,0,0,0,0,0,0,0,0,0,0,0,0,0,0,0,0,0,0,0,0,0,0,0,0,0,0,0,0,0,0,0,0,0,0,0,0,0,0,0,0,0,0,0,0,0,0,0,0,0,0,0,0,0,0,0,0,0,0,0,0,0,0,0,0,0,0,0,0,0,0,0,0,0,0,0,0,0,0,0,0,0,0,0,0,0,0,0,0,0,0,0,0,0,0,0,0,0,0,0,0,0,0,0,0,
0,0,0,0,0,0,0,0,0,0,0,0,0,0,0,0,0,0,0,0,0,0,0,0,0,0,0,0,0,0,0,0,0,0,0,0,0,0,0,0,0,0,0,0,0,0,0,0,0,0,0,0,0,0,0,0,0,0,0,0,0,0,0,0,0,0,0,0,0,0,0,0,0,0,0,0,0,0,0,0,0,0,0,0,0,0,0,0,0,0,0,0,0,0,0,0,0,0,0,0,0,0,0,0,0,0,0,0,0,0,
0,0,0,0,0,0,0,0,0,0,0,0,0,0,0,0,0,0,0,0,0,0,0,0,0,0,0,0,0,0,0,0,0,0,0,0,0,0,0,0,0,0,0,0,0,0,0,0,0,0,0,0,0,0,0,0,0,0,0,0,0,0,0,0,0,0,0,0,0,0,0,0,0,0,0,0,0,0,0,0,0,0,0,0,0,0,0,0,0,0,0,0,0,0,0,0,0,0,0,0,0,0,0,0,0,0,0,0,0,0,
0,0,0,0,0,0,0,0,0,0,0,0,0,0,0,0,0,0,0,0,0,0,0,0,0,0,0,0,0,0,0,0,0,0,0,0,0,0,0,0,0,0,0,0,0,0,0,0,0,0,0,0,0,0,0,0,0,0,0,0,0,0,0,0,0,0,0,0,0,0,0,0,0,0,0,0,0,0,0,0,0,0,0,0,0,0,0,0,0,0,0,0,0,0,0,0,0,0,0,0,0,0,0,0,0,0,0,0,0,0,
0,0,0,0,0,0,0,0,0,0,0,0,0,0,0,0,0,0,0,0,0,0,0,0,0,0,0,0,0,0,0,0,0,0,0,0,0,0,0,0,0,0,0,0,0,0,0,0,0,0,0,0,0,0,0,0,0,0,3575,3575,3575,0,0,0,0,0,0,0,0,0,0,0,0,0,0,0,0,0,0,0,0,0,0,0,0,0,0,0,0,0,0,0,0,0,0,0,0,0,0,0,0,0,0,0,0,0,0,0,0,0,
0,0,0,0,0,0,0,0,0,0,0,0,0,0,0,0,0,0,0,0,0,0,0,0,0,0,0,0,0,0,0,0,0,0,0,0,0,0,0,0,0,0,0,0,0,0,0,0,0,0,0,0,0,0,0,0,0,0,3575,3575,3575,0,0,0,0,0,0,0,0,0,0,0,0,0,0,0,0,0,0,0,0,0,0,0,0,0,0,0,0,0,0,0,0,0,0,0,0,0,0,0,0,0,0,0,0,0,0,0,0,0,
0,0,0,0,0,0,0,0,0,0,0,0,0,0,0,0,0,0,0,0,0,0,0,0,0,0,0,0,0,0,0,0,0,0,0,0,0,0,0,0,0,0,0,0,0,0,0,0,0,0,0,0,3575,3575,3575,3575,3575,3575,3575,3575,3575,0,0,0,0,0,0,0,0,0,0,0,0,0,0,0,0,0,0,0,0,0,0,0,0,0,0,0,0,0,0,0,0,0,0,0,0,0,0,0,0,0,0,0,0,0,0,0,0,0,
0,0,0,0,0,0,0,0,0,0,0,0,0,0,0,0,0,0,0,0,0,0,0,0,0,0,0,0,0,0,0,0,0,0,0,0,0,0,0,0,0,0,0,0,0,0,0,0,0,3575,3575,3575,3575,3575,3575,3575,3575,3575,3575,3575,3575,0,0,0,0,0,0,0,0,0,0,0,0,0,0,0,0,0,0,0,0,0,0,0,0,0,0,0,0,0,0,0,0,0,0,0,0,0,0,0,0,0,0,0,0,0,0,0,0,0,
0,0,0,0,0,0,0,0,0,0,0,0,0,0,0,0,0,0,0,0,0,0,0,0,0,0,0,0,0,0,0,0,0,0,0,0,0,0,0,0,0,0,0,0,0,0,0,0,0,3575,3575,3575,0,0,0,0,0,0,3575,3575,3575,0,0,0,0,0,0,0,0,0,0,0,0,0,0,0,0,0,0,0,0,0,0,0,0,0,0,0,0,0,0,0,0,0,0,0,0,0,0,0,0,0,0,0,0,0,0,0,0,0,
0,0,0,0,0,0,0,0,0,0,0,0,0,0,0,0,0,0,0,0,0,0,0,0,0,0,0,0,0,0,0,0,0,0,0,0,0,0,0,0,0,0,0,0,0,0,0,0,0,3575,3575,3575,0,0,0,0,0,0,3575,3575,3575,0,0,0,0,0,0,0,0,0,0,0,0,0,0,0,0,0,0,0,0,0,0,0,0,0,0,0,0,0,0,0,0,0,0,0,0,0,0,0,0,0,0,0,0,0,0,0,0,0,
0,0,0,0,0,0,0,0,0,0,0,0,0,0,0,0,0,0,0,0,0,0,0,0,0,0,0,0,0,0,0,0,0,0,0,0,0,0,0,0,0,0,0,0,0,0,0,0,0,3575,3575,3575,0,0,0,0,0,0,3575,3575,3575,0,0,0,0,0,0,0,0,0,0,0,0,0,0,0,0,0,0,0,0,0,0,0,0,0,0,0,0,0,0,0,0,0,0,0,0,0,0,0,0,0,0,0,0,0,0,0,0,0,
0,0,0,0,0,0,0,0,0,0,0,0,0,0,0,0,0,0,0,0,0,0,0,0,0,0,0,0,0,0,0,0,0,0,0,0,0,0,0,0,0,0,0,0,0,0,0,0,0,3575,3575,3575,0,0,0,0,0,0,3575,3575,3575,0,0,0,0,0,0,0,0,0,0,0,0,0,0,0,0,0,0,0,0,0,0,0,0,0,0,0,0,0,0,0,0,0,0,0,0,0,0,0,0,0,0,0,0,0,0,0,0,0,
0,0,0,0,0,0,0,0,0,0,0,0,0,0,0,0,0,0,0,0,0,0,0,0,0,0,0,0,0,0,0,0,0,0,0,0,0,0,0,0,0,0,0,0,0,0,0,0,0,3575,3575,3575,0,0,0,0,0,0,3575,3575,3575,0,0,0,0,0,0,0,0,0,0,0,0,0,0,0,0,0,0,0,0,0,0,0,0,0,0,0,0,0,0,0,0,0,0,0,0,0,0,0,0,0,0,0,0,0,0,0,0,0,
0,0,0,0,0,0,0,0,0,0,0,0,0,0,0,0,0,0,0,0,0,0,0,0,0,0,0,0,0,0,0,0,0,0,0,0,0,0,0,0,0,0,0,0,0,0,0,0,0,3575,3575,3575,0,0,0,0,0,0,3575,3575,3575,0,0,0,0,0,0,0,0,0,0,0,0,0,0,0,0,0,0,0,0,0,0,0,0,0,0,0,0,0,0,0,0,0,0,0,0,0,0,0,0,0,0,0,0,0,0,0,0,0,
0,0,0,0,0,0,0,0,0,0,0,0,0,0,0,0,0,0,0,0,0,0,0,0,0,0,0,0,0,0,0,0,0,0,0,0,0,0,0,0,0,0,0,0,0,0,0,0,0,3575,3575,3575,0,0,0,0,0,0,3575,3575,3575,0,0,0,0,0,0,0,0,0,0,0,0,0,0,0,0,0,0,0,0,0,0,0,0,0,0,0,0,0,0,0,0,0,0,0,0,0,0,0,0,0,0,0,0,0,0,0,0,0,
0,0,0,0,0,0,0,0,0,0,0,0,0,0,0,0,0,0,0,0,0,0,0,0,0,0,0,0,0,0,0,0,0,0,0,0,0,0,0,0,0,0,0,0,0,0,0,0,0,3575,3575,3575,0,0,0,0,0,0,3575,3575,3575,0,0,0,0,0,0,0,0,0,0,0,0,0,0,0,0,0,0,0,0,0,0,0,0,0,0,0,0,0,0,0,0,0,0,0,0,0,0,0,0,0,0,0,0,0,0,0,0,0,
0,0,0,0,0,0,0,0,0,0,0,0,0,0,0,0,0,0,0,0,0,0,0,0,0,0,0,0,0,0,0,0,0,0,0,0,0,0,0,0,0,0,0,0,0,0,0,0,0,3575,3575,3575,0,0,0,0,0,0,3575,3575,3575,0,0,0,0,0,0,0,0,0,0,0,0,0,0,0,0,0,0,0,0,0,0,0,0,0,0,0,0,0,0,0,0,0,0,0,0,0,0,0,0,0,0,0,0,0,0,0,0,0,
0,0,0,0,0,0,0,0,0,0,0,0,0,0,0,0,0,0,0,0,0,0,0,0,0,0,0,0,0,0,0,0,0,0,0,0,0,0,0,0,0,0,0,0,0,0,0,0,0,3575,3575,3575,0,0,0,0,0,0,3575,3575,3575,0,0,0,0,0,0,0,0,0,0,0,0,0,0,0,0,0,0,0,0,0,0,0,0,0,0,0,0,0,0,0,0,0,0,0,0,0,0,0,0,0,0,0,0,0,0,0,0,0,
0,0,0,0,0,0,0,0,0,0,0,0,0,0,0,0,0,0,0,0,0,0,0,0,0,0,0,0,0,0,0,0,0,0,0,0,0,0,0,0,0,0,0,0,0,0,0,0,0,3575,3575,3575,0,0,0,0,0,0,3575,3575,3575,0,0,0,0,0,0,0,0,0,0,0,0,0,0,0,0,0,0,0,0,0,0,0,0,0,0,0,0,0,0,0,0,0,0,0,0,0,0,0,0,0,0,0,0,0,0,0,0,0,
0,0,0,0,0,0,0,0,0,0,0,0,0,0,0,0,0,0,0,0,0,0,0,0,0,0,0,0,0,0,0,0,0,0,0,0,0,0,0,0,0,0,0,0,0,0,0,0,0,3575,3575,3575,0,0,0,0,0,0,3575,3575,3575,0,0,0,0,0,0,0,0,0,0,0,0,0,0,0,0,0,0,0,0,0,0,0,0,0,0,0,0,0,0,0,0,0,0,0,0,0,0,0,0,0,0,0,0,0,0,0,0,0,
0,0,0,0,0,0,0,0,0,0,0,0,0,0,0,0,0,0,11340,11343,0,0,0,0,0,0,0,0,0,0,0,0,0,0,0,0,0,0,0,0,0,0,0,0,0,0,0,0,0,3575,3575,3575,0,0,0,0,0,0,3575,3575,3575,0,0,0,0,0,0,0,0,0,0,0,0,0,0,0,0,0,0,0,0,0,0,0,0,0,0,0,0,0,0,0,0,0,0,0,0,0,0,0,0,0,0,0,0,0,0,0,0,0,
0,0,0,0,0,0,0,0,0,0,0,0,0,0,0,0,0,0,11343,0,0,0,0,0,0,0,0,0,0,0,0,0,0,0,0,0,0,0,0,0,0,0,0,0,0,0,0,0,0,3575,3575,3575,0,0,0,0,0,0,3575,3575,3575,0,0,0,0,0,0,0,0,0,0,0,0,0,0,0,0,0,0,0,0,0,0,0,0,0,0,0,0,0,0,0,0,0,0,0,0,4242,0,0,0,0,0,0,0,0,0,0,0,0,
0,0,0,0,0,0,0,0,0,0,0,0,0,0,0,0,0,0,0,0,0,0,0,0,0,0,0,0,0,0,0,0,0,0,0,0,0,0,0,0,0,0,0,0,0,0,0,0,0,3575,3575,3575,0,0,0,0,0,0,3575,3575,3575,0,0,0,0,0,0,0,0,0,0,0,0,0,0,0,0,0,0,0,0,0,0,0,0,0,0,0,0,0,0,0,0,0,0,4209,0,0,4208,0,0,0,0,0,0,0,0,0,0,0,
0,0,0,0,0,0,0,0,0,0,0,0,0,0,0,0,0,0,0,0,0,0,0,0,0,0,0,0,0,0,0,0,0,0,0,0,0,0,0,0,0,0,0,0,0,0,0,0,0,3575,3575,3575,0,0,0,0,0,0,3575,3575,3575,0,0,0,0,0,0,0,0,0,0,0,0,0,0,0,0,0,0,0,0,0,0,0,0,0,0,0,0,0,0,0,0,0,0,0,0,0,0,0,0,0,0,0,0,0,0,0,0,0,
0,0,0,0,0,0,0,0,0,0,0,0,0,0,0,0,0,0,0,0,0,0,0,0,0,0,0,0,0,0,0,0,0,0,0,0,0,0,0,0,0,0,0,0,0,0,0,0,0,3575,3575,3575,0,0,0,0,0,0,3575,3575,3575,0,0,0,0,0,0,0,0,0,0,0,0,0,0,0,0,0,0,0,0,0,0,0,0,0,0,0,0,0,0,0,0,0,0,0,0,0,0,0,0,0,0,0,0,0,0,0,0,0,
0,0,0,0,0,0,0,0,0,0,0,0,0,0,0,0,0,0,0,0,0,0,0,0,0,0,0,0,0,0,0,0,0,0,0,0,0,0,0,0,0,0,0,0,0,0,0,0,0,3575,3575,3575,0,0,0,0,0,0,3575,3575,3575,0,0,0,0,0,0,0,0,0,0,0,0,0,0,0,0,0,0,0,0,0,0,0,0,0,0,0,0,0,0,0,0,0,0,0,0,0,0,0,0,0,0,0,0,0,0,0,0,0,
0,0,0,0,0,0,0,0,0,0,0,0,0,0,0,0,0,0,0,0,0,0,0,0,0,0,0,0,0,0,0,0,0,0,0,0,0,0,0,0,0,0,0,0,0,0,0,0,0,3575,3575,3575,0,0,0,0,0,0,3575,3575,3575,0,0,0,0,0,0,0,0,0,0,0,0,0,0,0,0,0,0,0,0,0,0,0,0,0,0,0,0,0,0,0,0,0,0,0,0,0,0,0,0,0,0,0,0,0,0,0,0,0,
0,0,0,0,0,0,0,0,0,0,0,0,0,0,0,0,0,0,0,0,0,0,0,0,0,0,0,0,0,0,0,0,0,0,0,0,0,0,0,0,0,0,0,0,0,0,0,0,0,3575,3575,3575,0,0,0,0,0,0,3575,3575,3575,0,0,0,0,0,0,0,0,0,0,0,0,0,0,0,0,0,0,0,0,0,0,0,0,0,0,0,0,0,0,0,0,0,0,0,0,0,0,0,0,0,0,0,0,0,0,0,0,0,
0,0,0,0,0,0,0,0,0,0,0,0,0,0,0,0,0,0,0,0,0,0,0,0,0,0,0,0,0,0,0,0,0,0,0,0,0,0,0,0,0,0,0,0,0,0,0,0,0,3575,3575,3575,0,0,0,0,0,0,3575,3575,3575,0,0,0,0,0,0,0,0,0,0,0,0,0,0,0,0,0,0,0,0,0,0,0,0,0,0,0,0,0,0,0,0,0,0,0,0,0,0,0,0,0,0,0,0,0,0,0,0,0,
0,0,0,0,0,0,0,0,0,0,0,0,0,0,0,0,0,0,0,0,0,0,0,0,0,0,0,0,0,0,0,0,0,0,0,0,0,0,0,0,0,0,0,0,0,0,0,0,0,3575,3575,3575,0,0,0,0,0,0,3575,3575,3575,0,0,0,0,0,0,0,0,0,0,0,0,0,0,0,0,0,0,0,0,0,0,0,0,0,0,0,0,0,0,0,0,0,0,0,0,0,0,0,0,0,0,0,0,0,0,0,0,0,
0,0,0,0,0,0,0,0,0,0,0,0,0,0,0,0,0,0,0,0,0,0,0,0,0,0,0,0,0,0,0,0,0,0,0,0,0,0,0,0,0,0,0,0,0,0,0,0,0,3575,3575,3575,0,0,0,0,0,0,3575,3575,3575,0,0,0,0,0,0,0,0,0,0,0,0,0,0,0,0,0,0,0,0,0,0,0,0,0,0,0,0,0,0,0,0,0,0,0,0,0,0,0,0,0,0,0,0,0,0,0,0,0,
0,0,0,0,0,0,0,0,0,0,0,0,0,0,0,0,0,0,0,0,0,0,0,0,0,0,0,0,0,0,0,0,0,0,0,0,0,0,0,0,0,0,0,0,0,0,0,0,0,0,0,0,0,0,0,0,0,0,0,0,0,0,0,0,0,0,0,0,0,0,0,0,0,0,0,0,0,0,0,0,0,0,0,0,0,0,0,0,0,0,0,0,0,0,0,0,0,0,0,0,0,0,0,0,0,0,0,0,0,0,
0,0,0,0,0,0,0,0,0,0,0,0,0,0,0,0,0,0,0,0,0,0,0,0,0,0,0,0,0,0,0,0,0,0,0,0,0,0,0,0,0,0,0,0,0,0,0,0,0,0,0,0,0,0,0,0,0,0,0,0,0,0,0,0,0,0,0,0,0,0,0,0,0,0,0,0,0,0,0,0,0,0,0,0,0,0,0,0,0,0,0,0,0,0,0,0,0,0,0,0,0,0,0,0,0,0,0,0,0,0,
0,0,0,0,0,0,0,0,0,0,0,0,0,0,0,0,0,0,0,0,0,0,0,0,0,0,0,0,0,0,0,0,0,0,0,0,0,0,0,0,0,0,0,0,0,0,0,0,0,0,0,0,0,0,0,0,0,0,0,0,0,0,0,0,0,0,0,0,0,0,0,0,0,0,0,0,0,0,0,0,0,0,0,0,0,0,0,0,0,0,0,0,0,0,0,0,0,0,0,0,0,0,0,0,0,0,0,0,0,0,
0,0,0,0,0,0,0,0,0,0,0,0,0,0,0,0,0,0,0,0,0,0,0,0,0,0,0,0,0,0,0,0,0,0,0,0,0,0,0,0,0,0,0,0,0,0,0,0,0,0,0,0,0,0,0,0,0,0,0,0,0,0,0,0,0,0,0,0,0,0,0,0,0,0,0,0,0,0,0,0,0,0,0,0,0,0,0,0,0,0,0,0,0,0,0,0,0,0,0,0,0,0,0,0,0,0,0,0,0,0,
0,0,0,0,0,0,0,0,0,0,0,0,0,0,0,0,0,0,0,0,0,0,0,0,0,0,0,0,0,0,0,0,0,0,0,0,0,0,0,0,0,0,0,0,0,0,0,0,0,0,0,0,0,0,0,0,0,0,0,0,0,0,0,0,0,0,0,0,0,0,0,0,0,0,0,0,0,0,0,0,0,0,0,0,0,0,0,0,0,0,0,0,0,0,0,0,0,0,0,0,0,0,0,0,0,0,0,0,0,0,
0,0,0,0,0,0,0,0,0,0,0,0,0,0,0,0,0,0,0,0,0,0,0,0,0,0,0,0,0,0,0,0,0,0,0,0,0,0,0,0,0,0,0,0,0,0,0,0,0,0,0,0,0,0,0,0,0,0,0,0,0,0,0,0,0,0,0,0,0,0,0,0,0,0,0,0,0,0,0,0,0,0,0,0,0,0,0,0,0,0,0,0,0,0,0,0,0,0,0,0,0,0,0,0,0,0,0,0,0,0,
0,0,0,0,0,0,0,0,0,0,0,0,0,0,0,0,0,0,0,0,0,0,0,0,0,0,0,0,0,0,0,0,0,0,0,0,0,0,0,0,0,0,0,0,0,0,0,0,0,0,0,0,0,0,0,0,0,0,0,0,0,0,0,0,0,0,0,0,0,0,0,0,0,0,0,0,0,0,0,0,0,0,0,0,0,0,0,0,0,0,0,0,0,0,0,0,0,0,0,0,0,0,0,0,0,0,0,0,0,0,
0,0,0,0,0,0,0,0,0,0,0,0,0,0,0,0,0,0,0,0,0,0,0,0,0,0,0,0,0,0,0,0,0,0,0,0,0,0,0,0,0,0,0,0,0,0,0,0,0,0,0,0,0,0,0,0,0,0,0,0,0,0,0,0,0,0,0,0,0,0,0,0,0,0,0,0,0,0,0,0,0,0,0,0,0,0,0,0,0,0,0,0,0,0,0,0,0,0,0,0,0,0,0,0,0,0,0,0,0,0,
0,0,0,0,0,0,0,0,0,0,0,0,0,0,0,0,0,0,0,0,0,0,0,0,0,0,0,0,0,0,0,0,0,0,0,0,0,0,0,0,0,0,0,0,0,0,0,0,0,0,0,0,0,0,0,0,0,0,0,0,0,0,0,0,0,0,0,0,0,0,0,0,0,0,0,0,0,0,0,0,0,0,0,0,0,0,0,0,0,0,0,0,0,0,0,0,0,0,0,0,0,0,0,0,0,0,0,0,0,0,
0,0,0,0,0,0,0,0,0,0,0,0,0,0,0,0,0,0,0,0,0,0,0,0,0,0,0,0,0,0,0,0,0,0,0,0,0,0,0,0,0,0,0,0,0,0,0,0,0,0,0,0,0,0,0,0,0,0,0,0,0,0,0,0,0,0,0,0,0,0,0,0,0,0,0,0,0,0,0,0,0,0,0,0,0,0,0,0,0,0,0,0,0,0,0,0,0,0,0,0,0,0,0,0,0,0,0,0,0,0,
0,0,0,0,0,0,0,0,0,0,0,0,0,0,0,0,0,0,0,0,0,0,0,0,0,0,0,0,0,0,0,0,0,0,0,0,0,0,0,0,0,0,0,0,0,0,0,0,0,0,0,0,0,0,0,0,0,0,0,0,0,0,0,0,0,0,0,0,0,0,0,0,0,0,0,0,0,0,0,0,0,0,0,0,0,0,0,0,0,0,0,0,0,0,0,0,0,0,0,0,0,0,0,0,0,0,0,0,0,0,
0,0,0,0,0,0,0,0,0,0,0,0,0,0,0,0,0,0,0,0,0,0,0,0,0,0,0,0,0,0,0,0,0,0,0,0,0,0,0,0,0,0,0,0,0,0,0,0,0,0,0,0,0,0,0,0,0,0,0,0,0,0,0,0,0,0,0,0,0,0,0,0,0,0,0,0,0,0,0,0,0,0,0,0,0,0,0,0,0,0,0,0,0,0,0,0,0,0,0,0,0,0,0,0,0,0,0,0,0,0,
0,0,0,0,0,0,0,0,0,0,0,0,0,0,0,0,0,0,0,0,0,0,0,0,0,0,0,0,0,0,0,0,0,0,0,0,0,0,0,0,0,0,0,0,0,0,0,0,0,0,0,0,0,0,0,0,0,0,0,0,0,0,0,0,0,0,0,0,0,0,0,0,0,0,0,0,0,0,0,0,0,0,0,0,0,0,0,0,0,0,0,0,0,0,0,0,0,0,0,0,0,0,0,0,0,0,0,0,0,0,
0,0,0,0,0,0,0,0,0,0,0,0,0,0,0,0,0,0,0,0,0,0,0,0,0,0,0,0,0,0,0,0,0,0,0,0,0,0,0,0,0,0,0,0,0,0,0,0,0,0,0,0,0,0,0,0,0,0,0,0,0,0,0,0,0,0,0,0,0,0,0,0,0,0,0,0,0,0,0,0,0,0,0,0,0,0,0,0,0,0,0,0,0,0,0,0,0,0,0,0,0,0,0,0,0,0,0,0,0,0,
0,0,0,0,0,0,0,0,0,0,0,0,0,0,0,0,0,0,0,0,0,0,0,0,0,0,0,0,0,0,0,0,0,0,0,0,0,0,0,0,0,0,0,0,0,0,0,0,0,0,0,0,0,0,0,0,0,0,0,0,0,0,0,0,0,0,0,0,0,0,0,0,0,0,0,0,0,0,0,0,0,0,0,0,0,0,0,0,0,0,0,0,0,0,0,0,0,0,0,0,0,0,0,0,0,0,0,0,0,0,
0,0,0,0,0,0,0,0,0,0,0,0,0,0,0,0,0,0,0,0,0,0,0,0,0,0,0,0,0,0,0,0,0,0,0,0,0,0,0,0,0,0,0,0,0,0,0,0,0,0,0,0,0,0,0,0,0,0,0,0,0,0,0,0,0,0,0,0,0,0,0,0,0,0,0,0,0,0,0,0,0,0,0,0,0,0,0,0,0,0,0,0,0,0,0,0,0,0,0,0,0,0,0,0,0,0,0,0,0,0,
0,0,0,0,0,0,0,0,0,0,0,0,0,0,0,0,0,0,0,0,0,0,0,0,0,0,0,0,0,0,0,0,0,0,0,0,0,0,0,0,0,0,0,0,0,0,0,0,0,0,0,0,0,0,0,0,0,0,0,0,0,0,0,0,0,0,0,0,0,0,0,0,0,0,0,0,0,0,0,0,0,0,0,0,0,0,0,0,0,0,0,0,0,0,0,0,0,0,0,0,0,0,0,0,0,0,0,0,0,0,
0,0,0,0,0,0,0,0,0,0,0,0,0,0,0,0,0,0,0,0,0,0,0,0,0,0,0,0,0,0,0,0,0,0,0,0,0,0,0,0,0,0,0,0,0,0,0,0,0,0,0,0,0,0,0,0,0,0,0,0,0,0,0,0,0,0,0,0,0,0,0,0,0,0,0,0,0,0,0,0,0,0,0,0,0,0,0,0,0,0,0,0,0,0,0,0,0,0,0,0,0,0,0,0,0,0,0,0,0,0
</data>
 </layer>
 <layer name="shadow" width="110" height="84" opacity="0.8">
  <data encoding="csv">
0,0,0,0,0,0,0,0,0,0,0,0,0,0,0,0,0,0,0,0,0,0,0,0,0,0,0,0,0,0,0,0,0,0,0,0,0,0,0,0,0,0,0,0,0,0,0,0,0,0,0,0,0,0,0,0,0,0,0,0,0,0,0,0,0,0,0,0,0,0,0,0,0,0,0,0,0,0,0,0,0,0,0,0,0,0,0,0,0,0,0,0,0,0,0,0,0,0,0,0,0,0,0,0,0,0,0,0,0,0,
0,0,0,0,0,0,0,0,0,0,0,0,0,0,0,0,0,0,0,0,0,0,0,0,0,0,0,0,0,0,0,0,0,0,0,0,0,0,0,0,0,0,0,0,0,0,0,0,0,0,0,0,0,0,0,0,0,0,0,0,0,0,0,0,0,0,0,0,0,0,0,0,0,0,0,0,0,0,0,0,0,0,0,0,0,0,0,0,0,0,0,0,0,0,0,0,0,0,0,0,0,0,0,0,0,0,0,0,0,0,
0,0,0,0,0,0,0,0,0,0,0,0,0,0,0,0,0,0,0,0,0,0,0,0,0,0,0,0,0,0,0,0,0,0,0,0,0,0,0,0,0,0,0,0,0,0,0,0,0,0,0,0,0,0,0,0,0,0,0,0,0,0,0,0,0,0,0,0,0,0,0,0,0,0,0,0,0,0,0,0,0,0,0,0,0,0,0,0,0,0,0,0,0,0,0,0,0,0,0,0,0,0,0,0,0,0,0,0,0,0,
0,0,0,0,0,0,0,0,0,0,0,0,0,0,0,0,0,0,0,0,0,0,0,0,0,0,0,0,0,0,0,0,0,0,0,0,0,0,0,0,0,0,0,0,0,0,0,0,0,0,0,0,0,0,0,0,0,0,0,0,0,0,0,0,0,0,0,0,0,0,0,0,0,0,0,0,0,0,0,0,0,0,0,0,0,0,0,0,0,0,0,0,0,0,0,0,0,0,0,0,0,0,0,0,0,0,0,0,0,0,
0,0,0,0,0,0,0,0,0,0,0,0,0,0,0,0,0,0,0,0,0,0,0,0,0,0,0,0,0,0,0,0,0,0,0,0,0,0,0,0,0,0,0,0,0,0,0,0,0,0,0,0,0,0,0,0,0,0,0,0,0,0,0,0,0,0,0,0,0,0,0,0,0,0,0,0,0,0,0,0,0,0,0,0,0,0,0,0,0,0,0,0,0,0,0,0,0,0,0,0,0,0,0,0,0,0,0,0,0,0,
0,0,0,0,0,0,0,0,0,0,0,0,0,0,0,0,0,0,0,0,0,0,0,0,0,0,0,0,0,0,0,0,0,0,0,0,0,0,0,0,0,0,0,0,0,0,0,0,0,0,0,0,0,0,0,0,0,0,0,0,0,0,0,0,0,0,0,0,0,0,0,0,0,0,0,0,0,0,0,0,0,0,0,0,0,0,0,0,0,0,0,0,0,0,0,0,0,0,0,0,0,0,0,0,0,0,0,0,0,0,
0,0,0,0,0,0,0,0,0,0,0,0,0,0,0,0,0,0,0,0,0,0,0,0,0,0,0,0,0,0,0,0,0,0,0,0,0,0,0,0,0,0,0,0,0,0,0,0,0,0,0,0,0,0,0,0,0,0,0,0,0,0,0,0,0,0,0,0,0,0,0,0,0,0,0,0,0,0,0,0,0,0,0,0,0,0,0,0,0,0,0,0,0,0,0,0,0,0,0,0,0,0,0,0,0,0,0,0,0,0,
0,0,0,0,0,0,0,0,0,0,0,0,0,0,0,0,0,0,0,0,0,0,0,0,0,0,0,0,0,0,0,0,0,0,0,0,0,0,0,0,0,0,0,0,0,0,0,0,0,0,0,0,0,0,0,0,0,0,0,0,0,0,0,0,0,0,0,0,0,0,0,0,0,0,0,0,0,0,0,0,0,0,0,0,0,0,0,0,0,0,0,0,0,0,0,0,0,0,0,0,0,0,0,0,0,0,0,0,0,0,
0,0,0,0,0,0,0,0,0,0,0,0,0,0,0,0,0,0,0,0,0,0,0,0,0,0,0,0,0,0,0,0,0,0,0,0,0,0,0,0,0,0,0,0,0,0,0,0,0,0,0,0,0,0,0,0,0,0,0,0,0,0,0,0,0,0,0,0,0,0,0,0,0,0,0,0,0,0,0,0,0,0,0,0,0,0,0,0,0,0,0,0,0,0,0,0,0,0,0,0,0,0,0,0,0,0,0,0,0,0,
0,0,0,0,0,0,0,0,0,0,0,0,0,0,0,0,0,0,0,0,0,0,0,0,0,0,0,0,0,0,0,0,0,0,0,0,0,0,0,0,0,0,0,0,0,0,0,0,0,0,0,0,0,0,0,0,0,0,0,0,0,0,0,0,0,0,0,0,0,0,0,0,0,0,0,0,0,0,0,0,0,0,0,0,0,0,0,0,0,0,0,0,0,0,0,0,0,0,0,0,0,0,0,0,0,0,0,0,0,0,
0,0,0,0,0,0,0,0,0,0,0,0,0,0,0,0,0,0,0,0,0,0,0,0,0,0,0,0,0,0,0,0,0,0,0,0,0,0,0,0,0,0,0,0,0,0,0,0,0,0,0,0,0,0,0,0,0,0,0,0,0,0,0,0,0,0,0,0,0,0,0,0,0,0,0,0,0,0,0,0,0,0,0,0,0,0,0,0,0,0,0,0,0,0,0,0,0,0,0,0,0,0,0,0,0,0,0,0,0,0,
0,0,0,0,0,0,0,0,0,0,0,0,0,0,0,0,0,0,0,0,0,0,0,0,0,0,0,0,0,0,0,0,0,0,0,0,0,0,0,0,0,0,0,0,0,0,0,0,0,0,0,0,0,0,0,0,0,0,0,0,0,0,0,0,0,0,0,0,0,0,0,0,0,0,0,0,0,0,0,0,0,0,0,0,0,0,0,0,0,0,0,0,0,0,0,0,0,0,0,0,0,0,0,0,0,0,0,0,0,0,
0,0,0,0,0,0,0,0,0,0,0,0,0,0,0,0,0,0,0,0,0,0,0,0,0,0,0,0,0,0,0,0,0,0,0,0,0,0,0,0,0,0,0,0,0,0,0,0,0,0,0,0,0,0,0,0,0,0,0,0,0,0,0,0,0,0,0,0,0,0,0,0,0,0,0,0,0,0,0,0,0,0,0,0,0,0,0,0,0,0,0,0,0,0,0,0,0,0,0,0,0,0,0,0,0,0,0,0,0,0,
0,0,0,0,0,0,0,0,0,0,0,0,0,0,0,0,0,0,0,0,0,0,0,0,0,0,0,0,0,0,0,0,0,0,0,0,0,0,0,0,0,0,0,0,0,0,0,0,0,0,0,0,0,0,0,0,0,0,0,0,0,0,0,0,0,0,0,0,0,0,0,0,0,0,0,0,0,0,0,0,0,0,0,0,0,0,0,0,0,0,0,0,0,0,0,0,0,0,0,0,0,0,0,0,0,0,0,0,0,0,
0,0,0,0,0,0,0,0,0,0,0,0,0,0,0,0,0,0,0,0,0,0,0,0,0,0,0,0,0,0,0,0,0,0,0,0,0,0,0,0,0,0,0,0,0,0,0,0,0,0,0,0,0,0,0,0,0,0,0,0,0,0,0,0,0,0,0,0,0,0,0,0,0,0,0,0,0,0,0,0,0,0,0,0,0,0,0,0,0,0,0,0,0,0,0,0,0,0,0,0,0,0,0,0,0,0,0,0,0,0,
0,0,0,0,0,0,0,0,0,0,0,0,0,0,0,0,0,0,0,0,0,0,0,0,0,0,0,0,0,0,0,0,0,0,0,0,0,0,0,0,0,0,0,0,0,0,0,0,0,0,0,0,0,0,0,0,0,0,0,0,0,0,0,0,0,0,0,0,0,0,0,0,0,0,0,0,0,0,0,0,0,0,0,0,0,0,0,0,0,0,0,0,0,0,0,0,0,0,0,0,0,0,0,0,0,0,0,0,0,0,
0,0,0,0,0,0,0,0,0,0,0,0,0,0,0,0,0,0,0,0,0,0,0,0,0,0,0,0,0,0,0,0,0,0,0,0,0,0,0,0,0,0,0,0,0,0,0,0,0,0,0,0,0,0,0,0,0,0,0,0,0,0,0,0,0,0,0,0,0,0,0,0,0,0,0,0,0,0,0,0,0,0,0,0,0,0,0,0,0,0,0,0,0,0,0,0,0,0,0,0,0,0,0,0,0,0,0,0,0,0,
0,0,0,0,0,0,0,0,0,0,0,0,0,0,0,0,0,0,0,0,0,0,0,0,0,0,0,0,0,0,0,0,0,0,0,0,0,0,0,0,0,0,0,0,0,0,0,0,0,0,0,0,0,0,0,0,0,0,0,0,0,0,0,0,0,0,0,0,0,0,0,0,0,0,0,0,0,0,0,0,0,0,0,0,0,0,0,0,0,0,0,0,0,0,0,0,0,0,0,0,0,0,0,0,0,0,0,0,0,0,
0,0,0,0,0,0,0,0,0,0,0,0,0,0,0,0,0,0,0,0,0,0,0,0,0,0,0,0,0,0,0,0,0,0,0,0,0,0,0,0,0,0,0,0,0,0,0,0,0,0,0,0,0,0,0,0,0,0,0,0,0,0,0,0,0,0,0,0,0,0,0,0,0,0,0,0,0,0,0,0,0,0,0,0,0,0,0,0,0,0,0,0,0,0,0,0,0,0,0,0,0,0,0,0,0,0,0,0,0,0,
0,0,0,0,0,0,0,0,0,0,0,0,0,0,0,0,0,0,0,0,0,0,0,0,0,0,0,0,0,0,0,0,0,0,0,0,0,0,0,0,0,0,0,0,0,0,0,0,0,0,0,0,0,0,0,0,0,0,0,0,0,0,0,0,0,0,0,0,0,0,0,0,0,0,0,0,0,0,0,0,0,0,0,0,0,0,0,0,0,0,0,0,0,0,0,0,0,0,0,0,0,0,0,0,0,0,0,0,0,0,
0,0,0,0,0,0,0,0,0,0,0,0,0,0,0,0,0,0,0,0,0,0,0,0,0,0,0,0,0,0,0,0,0,0,0,0,0,0,0,0,0,0,0,0,0,0,0,0,0,0,0,0,0,0,0,0,0,0,0,0,0,0,0,0,0,0,0,0,0,0,0,0,0,0,0,0,0,0,0,0,0,0,0,0,0,0,0,0,0,0,0,0,0,0,0,0,0,0,0,0,0,0,0,0,0,0,0,0,0,0,
0,0,0,0,0,0,0,0,0,0,0,0,0,0,0,0,0,0,0,0,0,0,0,0,0,0,0,0,0,0,0,0,0,0,0,0,0,0,0,0,0,0,0,0,0,0,0,0,0,0,0,0,0,0,0,0,0,0,0,0,0,0,0,0,0,0,0,0,0,0,0,0,0,0,0,0,0,0,0,0,0,0,0,0,0,0,0,0,0,0,0,0,0,0,0,0,0,0,0,0,0,0,0,0,0,0,0,0,0,0,
0,0,0,0,0,0,0,0,0,0,0,0,0,0,0,0,0,0,0,0,0,0,0,0,0,0,0,0,0,0,0,0,0,0,0,0,0,0,0,0,0,0,0,0,0,0,0,0,0,0,0,0,0,0,0,0,0,0,0,0,0,0,0,0,0,0,0,0,0,0,0,0,0,0,0,0,0,0,0,0,0,0,0,0,0,0,0,0,0,0,0,0,0,0,0,0,0,0,0,0,0,0,0,0,0,0,0,0,0,0,
0,0,0,0,0,0,0,0,0,0,0,0,0,0,0,0,0,0,0,0,0,0,0,0,0,0,0,0,0,0,0,0,0,0,0,0,0,0,0,0,0,0,0,0,0,0,0,0,0,0,0,0,0,0,0,0,0,0,0,0,0,0,0,0,0,0,0,0,0,0,0,0,0,0,0,0,0,0,0,0,0,0,0,0,0,0,0,0,0,0,0,0,0,0,0,0,0,0,0,0,0,0,0,0,0,0,0,0,0,0,
0,0,0,0,0,0,0,0,0,0,0,0,0,0,0,0,0,0,0,0,0,0,0,0,0,0,0,0,0,0,0,0,0,0,0,0,0,0,0,0,0,0,0,0,0,0,0,0,0,0,0,0,0,0,0,0,0,0,0,0,0,0,0,0,0,0,0,0,0,0,0,0,0,0,0,0,0,0,0,0,0,0,0,0,0,0,0,0,0,0,0,0,0,0,0,0,0,0,0,0,0,0,0,0,0,0,0,0,0,0,
0,0,0,0,0,0,0,0,0,0,0,0,0,0,0,0,0,0,0,0,0,0,0,0,0,0,0,0,0,0,0,0,0,0,0,0,0,0,0,0,0,0,0,0,0,0,0,0,0,0,0,0,0,0,0,0,0,0,0,0,0,0,0,0,0,0,0,0,0,0,0,0,0,0,0,0,0,0,0,0,0,0,0,0,0,0,0,0,0,0,0,0,0,0,0,0,0,0,0,0,0,0,0,0,0,0,0,0,0,0,
0,0,0,0,0,0,0,0,0,0,0,0,0,0,0,0,0,0,0,0,0,0,0,0,0,0,0,0,0,0,0,0,0,0,0,0,0,0,0,0,0,0,0,0,0,0,0,0,0,0,0,0,0,0,0,0,0,0,0,0,0,0,0,0,0,0,0,0,0,0,0,0,0,0,0,0,0,0,0,0,0,0,0,0,0,0,0,0,0,0,0,0,0,0,0,0,0,0,0,0,0,0,0,0,0,0,0,0,0,0,
0,0,0,0,0,0,0,0,0,0,0,0,0,0,0,0,0,0,0,0,0,0,0,0,0,0,0,0,0,0,0,0,0,0,0,0,0,0,0,0,0,0,0,0,0,0,0,0,0,0,0,0,0,0,0,0,0,0,0,0,0,0,0,0,0,0,0,0,0,0,0,0,0,0,0,0,0,0,0,0,0,0,0,0,0,0,0,0,0,0,0,0,0,0,0,0,0,0,0,0,0,0,0,0,0,0,0,0,0,0,
0,0,0,0,0,0,0,0,0,0,0,0,0,0,0,0,0,0,0,0,0,0,0,0,0,0,0,0,0,0,0,0,0,0,0,0,0,0,0,0,0,0,0,0,0,0,0,0,0,0,0,0,0,0,0,0,0,0,0,0,0,0,0,0,0,0,0,0,0,0,0,0,0,0,0,0,0,0,0,0,0,0,0,0,0,0,0,0,0,0,0,0,0,0,0,0,0,0,0,0,0,0,0,0,0,0,0,0,0,0,
0,0,0,0,0,0,0,0,0,0,0,0,0,0,0,0,0,0,0,0,0,0,0,0,0,0,0,0,0,0,0,0,0,0,0,0,0,0,0,0,0,0,0,0,0,0,0,0,0,0,0,0,0,0,0,0,0,0,0,0,0,0,0,0,0,0,0,0,0,0,0,0,0,0,0,0,0,0,0,0,0,0,0,0,0,0,0,0,0,0,0,0,0,0,0,0,0,0,0,0,0,0,0,0,0,0,0,0,0,0,
0,0,0,0,0,0,0,0,0,0,0,0,0,0,0,0,0,0,0,0,0,0,0,0,0,0,0,0,0,0,0,0,0,0,0,0,0,0,0,0,0,0,0,0,0,0,0,0,0,0,0,0,0,0,0,0,0,0,0,0,0,0,0,0,0,0,0,0,0,0,0,0,0,0,0,0,0,0,0,0,0,0,0,0,0,0,0,0,0,0,0,0,0,0,0,0,0,0,0,0,0,0,0,0,0,0,0,0,0,0,
0,0,0,0,0,0,0,0,0,0,0,0,0,0,0,0,0,0,0,0,0,0,0,0,0,0,0,0,0,0,0,0,0,0,0,0,0,0,0,0,0,0,0,0,0,0,0,0,0,0,0,0,0,0,0,0,0,0,0,0,0,0,0,0,0,0,0,0,0,0,0,0,0,0,0,0,0,0,0,0,0,0,0,0,0,0,0,0,0,0,0,0,0,0,0,0,0,0,0,0,0,0,0,0,0,0,0,0,0,0,
0,0,0,0,0,0,0,0,0,0,0,0,0,0,0,0,0,0,0,0,0,0,0,0,0,0,0,0,0,0,0,0,0,0,0,0,0,0,0,0,0,0,0,0,0,0,0,0,0,0,0,0,0,0,0,0,0,0,0,0,0,0,0,0,0,0,0,0,0,0,0,0,0,0,0,0,0,0,0,0,0,0,0,0,0,0,0,0,0,0,0,0,0,0,0,0,0,0,0,0,0,0,0,0,0,0,0,0,0,0,
0,0,0,0,0,0,0,0,0,0,0,0,0,0,0,0,0,0,0,0,0,0,0,0,0,0,0,0,0,0,0,0,0,0,0,0,0,0,0,0,0,0,0,0,0,0,0,0,0,0,0,0,0,0,0,0,0,0,0,0,0,0,0,0,0,0,0,0,0,0,0,0,0,0,0,0,0,0,0,0,0,0,0,0,0,0,0,0,0,0,0,0,0,0,0,0,0,0,0,0,0,0,0,0,0,0,0,0,0,0,
0,0,0,0,0,0,0,0,0,0,0,0,0,0,0,0,0,0,0,0,0,0,0,0,0,0,0,0,0,0,0,0,0,0,0,0,0,0,0,0,0,0,0,0,0,0,0,0,0,0,0,0,0,0,0,0,0,0,0,0,0,0,0,0,0,0,0,0,0,0,0,0,0,0,0,0,0,0,0,0,0,0,0,0,0,0,0,0,0,0,0,0,0,0,0,0,0,0,0,0,0,0,0,0,0,0,0,0,0,0,
0,0,0,0,0,0,0,0,0,0,0,0,0,0,0,0,0,0,0,0,0,0,0,0,0,0,0,0,0,0,0,0,0,0,0,0,0,0,0,0,0,0,0,0,0,0,0,0,0,0,0,0,0,0,0,0,0,0,0,0,0,0,0,0,0,0,0,0,0,0,0,0,0,0,0,0,0,0,0,0,0,0,0,0,0,0,0,0,0,0,0,0,0,0,0,0,0,0,0,0,0,0,0,0,0,0,0,0,0,0,
0,0,0,0,0,0,0,0,0,0,0,0,0,0,0,0,0,0,0,0,0,0,0,0,0,0,0,0,0,0,0,0,0,0,0,0,0,0,0,0,0,0,0,0,0,0,0,0,0,0,0,0,0,0,0,0,0,0,0,0,0,0,0,0,0,0,0,0,0,0,0,0,0,0,0,0,0,0,0,0,0,0,0,0,0,0,0,0,0,0,0,0,0,0,0,0,0,0,0,0,0,0,0,0,0,0,0,0,0,0,
0,0,0,0,0,0,0,0,0,0,0,0,0,0,0,0,0,0,0,0,0,0,0,0,0,0,0,0,0,0,0,0,0,0,0,0,0,0,0,0,0,0,0,0,0,0,0,0,0,0,0,0,0,0,0,0,0,0,0,0,0,0,0,0,0,0,0,0,0,0,0,0,0,0,0,0,0,0,0,0,0,0,0,0,0,0,0,0,0,0,0,0,0,0,0,0,0,0,0,0,0,0,0,0,0,0,0,0,0,0,
0,0,0,0,0,0,0,0,0,0,0,0,0,0,0,0,0,0,0,0,0,0,0,0,0,0,0,0,0,0,0,0,0,0,0,0,0,0,0,0,0,0,0,0,0,0,0,0,0,0,0,0,0,0,0,0,0,0,0,0,0,0,0,0,0,0,0,0,0,0,0,0,0,0,0,0,0,0,0,0,0,0,0,0,0,0,0,0,0,0,0,0,0,0,0,0,0,0,0,0,0,0,0,0,0,0,0,0,0,0,
0,0,0,0,0,0,0,0,0,0,0,0,0,0,0,0,0,0,0,0,0,0,0,0,0,0,0,0,0,0,0,0,0,0,0,0,0,0,0,0,0,0,0,0,0,0,0,0,0,0,0,0,0,0,0,0,0,0,0,0,0,0,0,0,0,0,0,0,0,0,0,0,0,0,0,0,0,0,0,0,0,0,0,0,0,0,0,0,0,0,0,0,0,0,0,0,0,0,0,0,0,0,0,0,0,0,0,0,0,0,
0,0,0,0,0,0,0,0,0,0,0,0,0,0,0,0,0,0,0,0,0,0,0,0,0,0,0,0,0,0,0,0,0,0,0,0,0,0,0,0,0,0,0,0,0,0,0,0,0,0,0,0,0,0,0,0,0,0,0,0,0,0,0,0,0,0,0,0,0,0,0,0,0,0,0,0,0,0,0,0,0,0,0,0,0,0,0,0,0,0,0,0,0,0,0,0,0,0,0,0,0,0,0,0,0,0,0,0,0,0,
0,0,0,0,0,0,0,0,0,0,0,0,0,0,0,0,0,0,0,0,0,0,0,0,0,0,0,0,0,0,0,0,0,0,0,0,0,0,0,0,0,0,0,0,0,0,0,0,0,0,0,0,0,0,0,0,0,0,0,0,0,0,0,0,0,0,0,0,0,0,0,0,0,0,0,0,0,0,0,0,0,0,0,0,0,0,0,0,0,0,0,0,0,0,0,0,0,0,0,0,0,0,0,0,0,0,0,0,0,0,
0,0,0,0,0,0,0,0,0,0,0,0,0,0,0,0,0,0,0,0,0,0,0,0,0,0,0,0,0,0,0,0,0,0,0,0,0,0,0,0,0,0,0,0,0,0,0,0,0,0,0,0,0,0,0,0,0,0,0,0,0,0,0,0,0,0,0,0,0,0,0,0,0,0,0,0,0,0,0,0,0,0,0,0,0,0,0,0,0,0,0,0,0,0,0,0,0,0,0,0,0,0,0,0,0,0,0,0,0,0,
0,0,0,0,0,0,0,0,0,0,0,0,0,0,0,0,0,0,0,0,0,0,0,0,0,0,0,0,0,0,0,0,0,0,0,0,0,0,0,0,0,0,0,0,0,0,0,0,0,0,0,0,0,0,0,0,0,0,0,0,0,0,0,0,0,0,0,0,0,0,0,0,0,0,0,0,0,0,0,0,0,0,0,0,0,0,0,0,0,0,0,0,0,0,0,0,0,0,0,0,0,0,0,0,0,0,0,0,0,0,
0,0,0,0,0,0,0,0,0,0,0,0,0,0,0,0,0,0,0,0,0,0,0,0,0,0,0,0,0,0,0,0,0,0,0,0,0,0,0,0,0,0,0,0,0,0,0,0,0,0,0,0,0,0,0,0,0,0,0,0,0,0,0,0,0,0,0,0,0,0,0,0,0,0,0,0,0,0,0,0,0,0,0,0,0,0,0,0,0,0,0,0,0,0,0,0,0,0,0,0,0,0,0,0,0,0,0,0,0,0,
0,0,0,0,0,0,0,0,0,0,0,0,0,0,0,0,0,0,0,0,0,0,0,0,0,0,0,0,0,0,0,0,0,0,0,0,0,0,0,0,0,0,0,0,0,0,0,0,0,0,0,0,0,0,0,0,0,0,0,0,0,0,0,0,0,0,0,0,0,0,0,0,0,0,0,0,0,0,0,0,0,0,0,0,0,0,0,0,0,0,0,0,0,0,0,0,0,0,0,0,0,0,0,0,0,0,0,0,0,0,
0,0,0,0,0,0,0,0,0,0,0,0,0,0,0,0,0,0,0,0,0,0,0,0,0,0,0,0,0,0,0,0,0,0,0,0,0,0,0,0,0,0,0,0,0,0,0,0,0,0,0,0,0,0,0,0,0,0,0,0,0,0,0,0,0,0,0,0,0,0,0,0,0,0,0,0,0,0,0,0,0,0,0,0,0,0,0,0,0,0,0,0,0,0,0,0,0,0,0,0,0,0,0,0,0,0,0,0,0,0,
0,0,0,0,0,0,0,0,0,0,0,0,0,0,0,0,0,0,0,0,0,0,0,0,0,0,0,0,0,0,0,0,0,0,0,0,0,0,0,0,0,0,0,0,0,0,0,0,0,0,0,0,0,0,0,0,0,0,0,0,0,0,0,0,0,0,0,0,0,0,0,0,0,0,0,0,0,0,0,0,0,0,0,0,0,0,0,0,0,0,0,0,0,0,0,0,0,0,0,0,0,0,0,0,0,0,0,0,0,0,
0,0,0,0,0,0,0,0,0,0,0,0,0,0,0,0,0,0,0,0,0,0,0,0,0,0,0,0,0,0,0,0,0,0,0,0,0,0,0,0,0,0,0,0,0,0,0,0,0,0,0,0,0,0,0,0,0,0,0,0,0,0,0,0,0,0,0,0,0,0,0,0,0,0,0,0,0,0,0,0,0,0,0,0,0,0,0,0,0,0,0,0,0,0,0,0,0,0,0,0,0,0,0,0,0,0,0,0,0,0,
0,0,0,0,0,0,0,0,0,0,0,0,0,0,0,0,0,0,0,0,0,0,0,0,0,0,0,0,0,0,0,0,0,0,0,0,0,0,0,0,0,0,0,0,0,0,0,0,0,0,0,0,0,0,0,0,0,0,0,0,0,0,0,0,0,0,0,0,0,0,0,0,0,0,0,0,0,0,0,0,0,0,0,0,0,0,0,0,0,0,0,0,0,0,0,0,0,0,0,0,0,0,0,0,0,0,0,0,0,0,
0,0,0,0,0,0,0,0,0,0,0,0,0,0,0,0,0,0,0,0,0,0,0,0,0,0,0,0,0,0,0,0,0,0,0,0,0,0,0,0,0,0,0,0,0,0,0,0,0,0,0,0,0,0,0,0,0,0,0,0,0,0,0,0,0,0,0,0,0,0,0,0,0,0,0,0,0,0,0,0,0,0,0,0,0,0,0,0,0,0,0,0,0,0,0,0,0,0,0,0,0,0,0,0,0,0,0,0,0,0,
0,0,0,0,0,0,0,0,0,0,0,0,0,0,0,0,0,0,0,0,0,0,0,0,0,0,0,0,0,0,0,0,0,0,0,0,0,0,0,0,0,0,0,0,0,0,0,0,0,0,0,0,3597,3597,3597,3597,3597,3597,0,0,0,0,0,0,0,0,0,0,0,0,0,0,0,0,0,0,0,0,0,0,0,0,0,0,0,0,0,0,0,0,0,0,0,0,0,0,0,0,0,0,0,0,0,0,0,0,0,0,0,0,
0,0,0,0,0,0,0,0,0,0,0,0,0,0,0,0,0,0,0,0,0,0,0,0,0,0,0,0,0,0,0,0,0,0,0,0,0,0,0,0,0,0,0,0,0,0,0,0,0,0,0,0,3597,3597,3597,3597,3597,3597,0,0,0,0,0,0,0,0,0,0,0,0,0,0,0,0,0,0,0,0,0,0,0,0,0,0,0,0,0,0,0,0,0,0,0,0,0,0,0,0,0,0,0,0,0,0,0,0,0,0,0,0,
0,0,0,0,0,0,0,0,0,0,0,0,0,0,0,0,0,0,0,0,0,0,0,0,0,0,0,0,0,0,0,0,0,0,0,0,0,0,0,0,0,0,0,0,0,0,0,0,0,0,0,0,3597,3597,3597,3597,3597,3597,0,0,0,0,0,0,0,0,0,0,0,0,0,0,0,0,0,0,0,0,0,0,0,0,0,0,0,0,0,0,0,0,0,0,0,0,0,0,0,0,0,0,0,0,0,0,0,0,0,0,0,0,
0,0,0,0,0,0,0,0,0,0,0,0,0,0,0,0,0,0,0,0,0,0,0,0,0,0,0,0,0,0,0,0,0,0,0,0,0,0,0,0,0,0,0,0,0,0,0,0,0,0,0,0,0,3597,3597,3597,3597,0,0,0,0,0,0,0,0,0,0,0,0,0,0,0,0,0,0,0,0,0,0,0,0,0,0,0,0,0,0,0,0,0,0,0,0,0,0,0,0,0,0,0,0,0,0,0,0,0,0,0,0,0,
0,0,0,0,0,0,0,0,0,0,0,0,0,0,0,0,0,0,0,0,0,0,0,0,0,0,0,0,0,0,0,0,0,0,0,0,0,0,0,0,0,0,0,0,0,0,0,0,0,0,0,0,0,3597,3597,3597,3597,0,0,0,0,0,0,0,0,0,0,0,0,0,0,0,0,0,0,0,0,0,0,0,0,0,0,0,0,0,0,0,0,0,0,0,0,0,0,0,0,0,0,0,0,0,0,0,0,0,0,0,0,0,
0,0,0,0,0,0,0,0,0,0,0,0,0,0,0,0,0,0,0,0,0,0,0,0,0,0,0,0,0,0,0,0,0,0,0,0,0,0,0,0,0,0,0,0,0,0,0,0,0,0,0,0,0,3597,3597,3597,3597,0,0,0,0,0,0,0,0,0,0,0,0,0,0,0,0,0,0,0,0,0,0,0,0,0,0,0,0,0,0,0,0,0,0,0,0,0,0,0,0,0,0,0,0,0,0,0,0,0,0,0,0,0,
0,0,0,0,0,0,0,0,0,0,0,0,0,0,0,0,0,0,0,0,0,0,0,0,0,0,0,0,0,0,0,0,0,0,0,0,0,0,0,0,0,0,0,0,0,0,0,0,0,0,0,0,0,3597,3597,3597,3597,0,0,0,0,0,0,0,0,0,0,0,0,0,0,0,0,0,0,0,0,0,0,0,0,0,0,0,0,0,0,0,0,0,0,0,0,0,0,0,0,0,0,0,0,0,0,0,0,0,0,0,0,0,
0,0,0,0,0,0,0,0,0,0,0,0,0,0,0,0,0,0,0,0,0,0,0,0,0,0,0,0,0,0,0,0,0,0,0,0,0,0,0,0,0,0,0,0,0,0,0,0,0,0,0,0,0,3597,3597,3597,3597,0,0,0,0,0,0,0,0,0,0,0,0,0,0,0,0,0,0,0,0,0,0,0,0,0,0,0,0,0,0,0,0,0,0,0,0,0,0,0,0,0,0,0,0,0,0,0,0,0,0,0,0,0,
0,0,0,0,0,0,0,0,0,0,0,0,0,0,0,0,0,0,0,0,0,0,0,0,0,0,0,0,0,0,0,0,0,0,0,0,0,0,0,0,0,0,0,0,0,0,0,0,0,0,0,0,0,3597,3597,3597,3597,0,0,0,0,0,0,0,0,0,0,0,0,0,0,0,0,0,0,0,0,0,0,0,0,0,0,0,0,0,0,0,0,0,0,0,0,0,0,0,0,0,0,0,0,0,0,0,0,0,0,0,0,0,
0,0,0,0,0,0,0,0,0,0,0,0,0,0,0,0,0,0,0,0,0,0,0,0,0,0,0,0,0,0,0,0,0,0,0,0,0,0,0,0,0,0,0,0,0,0,0,0,0,0,0,0,0,3597,3597,3597,3597,0,0,0,0,0,0,0,0,0,0,0,0,0,0,0,0,0,0,0,0,0,0,0,0,0,0,0,0,0,0,0,0,0,0,0,0,0,0,0,0,0,0,0,0,0,0,0,0,0,0,0,0,0,
0,0,0,0,0,0,0,0,0,0,0,0,0,0,0,0,0,0,0,0,0,0,0,0,0,0,0,0,0,0,0,0,0,0,0,0,0,0,0,0,0,0,0,0,0,0,0,0,0,0,0,0,0,3597,3597,3597,3597,0,0,0,0,0,0,0,0,0,0,0,0,0,0,0,0,0,0,0,0,0,0,0,0,0,0,0,0,0,0,0,0,0,0,0,0,0,0,0,0,0,0,0,0,0,0,0,0,0,0,0,0,0,
0,0,0,0,0,0,0,0,0,0,0,0,0,0,0,0,0,0,0,0,0,0,0,0,0,0,0,0,0,0,0,0,0,0,0,0,0,0,0,0,0,0,0,0,0,0,0,0,0,0,0,0,0,0,0,0,0,0,0,0,0,0,0,0,0,0,0,0,0,0,0,0,0,0,0,0,0,0,0,0,0,0,0,0,0,0,0,0,0,0,0,0,0,0,0,0,0,0,0,0,0,0,0,0,0,0,0,0,0,0,
0,0,0,0,0,0,0,0,0,0,0,0,0,0,0,0,0,0,0,0,0,0,0,0,0,0,0,0,0,0,0,0,0,0,0,0,0,0,0,0,0,0,0,0,0,0,0,0,0,0,0,0,0,0,0,0,0,0,0,0,0,0,0,0,0,0,0,0,0,0,0,0,0,0,0,0,0,0,0,0,0,0,0,0,0,0,0,0,0,0,0,0,0,0,0,0,0,0,0,0,0,0,0,0,0,0,0,0,0,0,
0,0,0,0,0,0,0,0,0,0,0,0,0,0,0,0,0,0,0,0,0,0,0,0,0,0,0,0,0,0,0,0,0,0,0,0,0,0,0,0,0,0,0,0,0,0,0,0,0,0,0,0,0,0,0,0,0,0,0,0,0,0,0,0,0,0,0,0,0,0,0,0,0,0,0,0,0,0,0,0,0,0,0,0,0,0,0,0,0,0,0,0,0,0,0,0,0,0,0,0,0,0,0,0,0,0,0,0,0,0,
0,0,0,0,0,0,0,0,0,0,0,0,0,0,0,0,0,0,0,0,0,0,0,0,0,0,0,0,0,0,0,0,0,0,0,0,0,0,0,0,0,0,0,0,0,0,0,0,0,0,0,0,0,0,0,0,0,0,0,0,0,0,0,0,0,0,0,0,0,0,0,0,0,0,0,0,0,0,0,0,0,0,0,0,0,0,0,0,0,0,0,0,0,0,0,0,0,0,0,0,0,0,0,0,0,0,0,0,0,0,
0,0,0,0,0,0,0,0,0,0,0,0,0,0,0,0,0,0,0,0,0,0,0,0,0,0,0,0,0,0,0,0,0,0,0,0,0,0,0,0,0,0,0,0,0,0,0,0,0,0,0,0,0,0,0,0,0,0,0,0,0,0,0,0,0,0,0,0,0,0,0,0,0,0,0,0,0,0,0,0,0,0,0,0,0,0,0,0,0,0,0,0,0,0,0,0,0,0,0,0,0,0,0,0,0,0,0,0,0,0,
0,0,0,0,0,0,0,0,0,0,0,0,0,0,0,0,0,0,0,0,0,0,0,0,0,0,0,0,0,0,0,0,0,0,0,0,0,0,0,0,0,0,0,0,0,0,0,0,0,0,0,0,0,0,0,0,0,0,0,0,0,0,0,0,0,0,0,0,0,0,0,0,0,0,0,0,0,0,0,0,0,0,0,0,0,0,0,0,0,0,0,0,0,0,0,0,0,0,0,0,0,0,0,0,0,0,0,0,0,0,
0,0,0,0,0,0,0,0,0,0,0,0,0,0,0,0,0,0,0,0,0,0,0,0,0,0,0,0,0,0,0,0,0,0,0,0,0,0,0,0,0,0,0,0,0,0,0,0,0,0,0,0,0,0,0,0,0,0,0,0,0,0,0,0,0,0,0,0,0,0,0,0,0,0,0,0,0,0,0,0,0,0,0,0,0,0,0,0,0,0,0,0,0,0,0,0,0,0,0,0,0,0,0,0,0,0,0,0,0,0,
0,0,0,0,0,0,0,0,0,0,0,0,0,0,0,0,0,0,0,0,0,0,0,0,0,0,0,0,0,0,0,0,0,0,0,0,0,0,0,0,0,0,0,0,0,0,0,0,0,0,0,0,0,0,0,0,0,0,0,0,0,0,0,0,0,0,0,0,0,0,0,0,0,0,0,0,0,0,0,0,0,0,0,0,0,0,0,0,0,0,0,0,0,0,0,0,0,0,0,0,0,0,0,0,0,0,0,0,0,0,
0,0,0,0,0,0,0,0,0,0,0,0,0,0,0,0,0,0,0,0,0,0,0,0,0,0,0,0,0,0,0,0,0,0,0,0,0,0,0,0,0,0,0,0,0,0,0,0,0,0,0,0,0,0,0,0,0,0,0,0,0,0,0,0,0,0,0,0,0,0,0,0,0,0,0,0,0,0,0,0,0,0,0,0,0,0,0,0,0,0,0,0,0,0,0,0,0,0,0,0,0,0,0,0,0,0,0,0,0,0,
0,0,0,0,0,0,0,0,0,0,0,0,0,0,0,0,0,0,0,0,0,0,0,0,0,0,0,0,0,0,0,0,0,0,0,0,0,0,0,0,0,0,0,0,0,0,0,0,0,0,0,0,0,0,0,0,0,0,0,0,0,0,0,0,0,0,0,0,0,0,0,0,0,0,0,0,0,0,0,0,0,0,0,0,0,0,0,0,0,0,0,0,0,0,0,0,0,0,0,0,0,0,0,0,0,0,0,0,0,0,
0,0,0,0,0,0,0,0,0,0,0,0,0,0,0,0,0,0,0,0,0,0,0,0,0,0,0,0,0,0,0,0,0,0,0,0,0,0,0,0,0,0,0,0,0,0,0,0,0,0,0,0,0,0,0,0,0,0,0,0,0,0,0,0,0,0,0,0,0,0,0,0,0,0,0,0,0,0,0,0,0,0,0,0,0,0,0,0,0,0,0,0,0,0,0,0,0,0,0,0,0,0,0,0,0,0,0,0,0,0,
0,0,0,0,0,0,0,0,0,0,0,0,0,0,0,0,0,0,0,0,0,0,0,0,0,0,0,0,0,0,0,0,0,0,0,0,0,0,0,0,0,0,0,0,0,0,0,0,0,0,0,0,0,0,0,0,0,0,0,0,0,0,0,0,0,0,0,0,0,0,0,0,0,0,0,0,0,0,0,0,0,0,0,0,0,0,0,0,0,0,0,0,0,0,0,0,0,0,0,0,0,0,0,0,0,0,0,0,0,0,
0,0,0,0,0,0,0,0,0,0,0,0,0,0,0,0,0,0,0,0,0,0,0,0,0,0,0,0,0,0,0,0,0,0,0,0,0,0,0,0,0,0,0,0,0,0,0,0,0,0,0,0,0,0,0,0,0,0,0,0,0,0,0,0,0,0,0,0,0,0,0,0,0,0,0,0,0,0,0,0,0,0,0,0,0,0,0,0,0,0,0,0,0,0,0,0,0,0,0,0,0,0,0,0,0,0,0,0,0,0,
0,0,0,0,0,0,0,0,0,0,0,0,0,0,0,0,0,0,0,0,0,0,0,0,0,0,0,0,0,0,0,0,0,0,0,0,0,0,0,0,0,0,0,0,0,0,0,0,0,0,0,0,0,0,0,0,0,0,0,0,0,0,0,0,0,0,0,0,0,0,0,0,0,0,0,0,0,0,0,0,0,0,0,0,0,0,0,0,0,0,0,0,0,0,0,0,0,0,0,0,0,0,0,0,0,0,0,0,0,0,
0,0,0,0,0,0,0,0,0,0,0,0,0,0,0,0,0,0,0,0,0,0,0,0,0,0,0,0,0,0,0,0,0,0,0,0,0,0,0,0,0,0,0,0,0,0,0,0,0,0,0,0,0,0,0,0,0,0,0,0,0,0,0,0,0,0,0,0,0,0,0,0,0,0,0,0,0,0,0,0,0,0,0,0,0,0,0,0,0,0,0,0,0,0,0,0,0,0,0,0,0,0,0,0,0,0,0,0,0,0,
0,0,0,0,0,0,0,0,0,0,0,0,0,0,0,0,0,0,0,0,0,0,0,0,0,3598,3598,3598,3598,3598,3598,0,0,0,0,0,0,0,0,0,0,0,0,0,0,0,0,0,0,0,0,0,0,0,0,0,0,0,0,0,0,0,0,0,0,0,0,0,0,0,0,0,0,0,0,0,0,0,0,3598,3598,3598,3598,3598,3598,0,0,0,0,0,0,0,0,0,0,0,0,0,0,0,0,0,0,0,0,0,0,0,0,0,
0,0,0,0,0,0,0,0,0,0,0,0,0,0,0,0,0,0,0,0,0,0,0,0,0,3598,3598,3598,3598,3598,3598,0,0,0,0,0,0,0,0,0,0,0,0,0,0,0,0,0,0,0,0,0,0,0,0,0,0,0,0,0,0,0,0,0,0,0,0,0,0,0,0,0,0,0,0,0,0,0,0,3598,3598,3598,3598,3598,3598,0,0,0,0,0,0,0,0,0,0,0,0,0,0,0,0,0,0,0,0,0,0,0,0,0,
0,0,0,0,0,0,0,0,0,0,0,0,0,0,0,0,0,0,0,0,0,0,0,0,0,3598,3598,3598,3598,3598,3598,0,0,0,0,0,0,0,0,0,0,0,0,0,0,0,0,0,0,0,0,0,0,0,0,0,0,0,0,0,0,0,0,0,0,0,0,0,0,0,0,0,0,0,0,0,0,0,0,3598,3598,3598,3598,3598,3598,0,0,0,0,0,0,0,0,0,0,0,0,0,0,0,0,0,0,0,0,0,0,0,0,0,
0,0,0,0,0,0,0,3598,3598,3598,3598,3598,3598,3598,3598,3598,3598,3598,3598,3598,3598,3598,3598,3598,3598,3598,3598,3598,3598,3598,3598,0,0,3632,3632,3632,3632,3632,3632,3632,3632,0,0,0,0,0,0,0,0,0,0,0,0,0,0,0,0,0,0,0,0,0,0,0,0,0,0,0,0,3632,3632,3632,3632,3632,3632,3632,3632,0,0,3598,3598,3598,3598,3598,3598,3598,3598,3598,3598,3598,3598,3598,3598,3598,3598,3598,3598,3598,3598,3598,3598,3598,3598,0,0,0,0,0,0,0,
0,0,0,0,0,0,0,3597,3597,3597,3597,3597,3597,3597,3597,3597,3597,3597,3597,3597,3597,3597,3597,3597,3597,3597,3597,3597,3597,3597,3597,0,0,3632,3632,3632,3632,3632,3632,3632,3632,0,0,0,0,0,0,0,0,0,0,0,0,0,0,0,0,0,0,0,0,0,0,0,0,0,0,0,0,3632,3632,3632,3632,3632,3632,3632,3632,0,0,3597,3597,3597,3597,3597,3597,3597,3597,3597,3597,3597,3597,3597,3597,3597,3597,3597,3597,3597,3597,3597,3597,3597,3597,0,0,0,0,0,0,0,
0,0,0,0,0,0,0,3597,3597,3597,3597,3597,3597,3597,3597,3597,3597,3597,3597,3597,3597,3597,3597,3597,3597,3597,3597,3597,3597,3597,3597,0,0,3632,3632,3632,3632,3632,3632,3632,3632,0,0,0,0,0,0,0,0,0,0,0,3632,3632,3632,3632,3632,3632,0,0,0,0,0,0,0,0,0,0,0,3632,3632,3632,3632,3632,3632,3632,3632,0,0,3597,3597,3597,3597,3597,3597,3597,3597,3597,3597,3597,3597,3597,3597,3597,3597,3597,3597,3597,3597,3597,3597,3597,3597,0,0,0,0,0,0,0,
0,0,0,0,0,0,0,3597,3597,3597,3597,3597,3597,3597,3597,3597,3597,3597,3597,3597,3597,3597,3597,3597,3597,3597,3597,3597,3597,3597,3597,0,0,3632,3632,3632,3632,3632,3632,3632,3632,0,0,0,0,0,0,0,0,3632,3632,3632,3632,3632,3632,3632,3632,3632,3632,3632,3632,0,0,0,0,0,0,0,0,3632,3632,3632,3632,3632,3632,3632,3632,0,0,3597,3597,3597,3597,3597,3597,3597,3597,3597,3597,3597,3597,3597,3597,3597,3597,3597,3597,3597,3597,3597,3597,3597,3597,0,0,0,0,0,0,0
</data>
 </layer>
 <objectgroup name="lowerobjects"/>
 <objectgroup name="objects">
  <object id="172" name="Spawn 1" type="Player" gid="1586" x="1728" y="2784" width="32" height="32">
   <properties>
    <property name="orientation" value="up"/>
   </properties>
  </object>
  <object id="185" name="Stairs2" type="Stairs" gid="1227" x="1920" y="2400" width="32" height="288">
   <properties>
    <property name="direction" value="up_right"/>
   </properties>
  </object>
  <object id="190" name="Stairs1" type="Stairs" gid="1227" x="1568" y="2400" width="32" height="288">
   <properties>
    <property name="direction" value="up_left"/>
   </properties>
  </object>
  <object id="191" name="Stairs2" type="Stairs" gid="1227" x="1952" y="2336" width="192" height="320">
   <properties>
    <property name="direction" value="up_right"/>
   </properties>
  </object>
  <object id="192" name="Stairs2" type="Stairs" gid="1227" x="2176" y="2176" width="32" height="224">
   <properties>
    <property name="direction" value="up_right"/>
   </properties>
  </object>
  <object id="193" name="Stairs1" type="Stairs" gid="1227" x="1344" y="2304" width="192" height="288">
   <properties>
    <property name="direction" value="up_left"/>
   </properties>
  </object>
  <object id="194" name="Stairs1" type="Stairs" gid="1227" x="1312" y="2176" width="32" height="224">
   <properties>
    <property name="direction" value="up_left"/>
   </properties>
  </object>
  <object id="197" name="Stairs3" type="Stairs" gid="1227" x="1280" y="1440" width="32" height="224">
   <properties>
    <property name="direction" value="up_right"/>
   </properties>
  </object>
  <object id="198" name="Stairs3" type="Stairs" gid="1227" x="1344" y="1344" width="160" height="224">
   <properties>
    <property name="direction" value="up_right"/>
   </properties>
  </object>
  <object id="199" name="Stairs3" type="Stairs" gid="1227" x="1536" y="1248" width="32" height="224">
   <properties>
    <property name="direction" value="up_right"/>
   </properties>
  </object>
  <object id="201" name="LowerDoor" type="BasicNPC" gid="1227" x="1696" y="1600" width="128" height="32">
   <properties>
    <property name="align" value="bottom_left"/>
    <property name="defaultAnim" value="closed"/>
    <property name="onInteract">local Serial = require &quot;actions/Serial&quot;
local MessageBox = require &quot;actions/MessageBox&quot;
local Animate = require &quot;actions/Animate&quot;
local Do = require &quot;actions/Do&quot;
local PlayAudio = require &quot;actions/PlayAudio&quot;

return function(self)
    if not GameState:isFlagSet(&quot;b_speech&quot;) then
        return MessageBox {message = &quot;Locked.&quot;, blocking = true}
    else
        return Serial {
            PlayAudio(&quot;sfx&quot;, &quot;openchasm&quot;, 1.0, true),
            Animate(self.sprite, &quot;opening&quot;),
            Animate(self.sprite, &quot;open&quot;),
            Do(function()
                self:removeCollision()
            end)
        }
    end
end</property>
    <property name="sprite" type="file" value="../art/sprites/door3.png"/>
   </properties>
  </object>
  <object id="203" name="Stairs5" type="Stairs" gid="1227" x="2432" y="2112" width="32" height="224">
   <properties>
    <property name="direction" value="up_right"/>
   </properties>
  </object>
  <object id="204" name="Stairs5" type="Stairs" gid="1227" x="2464" y="2048" width="96" height="160">
   <properties>
    <property name="direction" value="up_right"/>
   </properties>
  </object>
  <object id="206" name="Stairs4" type="Stairs" gid="1227" x="1056" y="2112" width="32" height="224">
   <properties>
    <property name="direction" value="up_left"/>
   </properties>
  </object>
  <object id="207" name="Stairs4" type="Stairs" gid="1227" x="1024" y="2048" width="32" height="160">
   <properties>
    <property name="direction" value="up_left"/>
   </properties>
  </object>
  <object id="211" name="HidingSpot1" type="HidingSpot" gid="3522" x="1696" y="1952" width="128" height="320"/>
  <object id="212" name="Stairs1" type="Stairs" gid="1227" x="1536" y="2272" width="32" height="96">
   <properties>
    <property name="direction" value="up_left"/>
   </properties>
  </object>
  <object id="213" name="Stairs2" type="Stairs" gid="1227" x="2144" y="2144" width="32" height="96">
   <properties>
    <property name="direction" value="up_right"/>
   </properties>
  </object>
  <object id="214" name="Stairs4" type="Stairs" gid="1227" x="960" y="2016" width="64" height="128">
   <properties>
    <property name="direction" value="up_left"/>
   </properties>
  </object>
  <object id="215" name="Stairs3" type="Stairs" gid="1227" x="1504" y="1216" width="32" height="96">
   <properties>
    <property name="direction" value="up_right"/>
   </properties>
  </object>
  <object id="216" name="Stairs3" type="Stairs" gid="1227" x="1312" y="1344" width="32" height="96">
   <properties>
    <property name="direction" value="up_right"/>
   </properties>
  </object>
  <object id="218" name="UpperDoor" type="BasicNPC" gid="1227" x="1696" y="512" width="128" height="32">
   <properties>
    <property name="actions">local Action = require &quot;actions/Action&quot;

return function(self)
    if GameState:isFlagSet(self) then
        self.sprite:setAnimation(&quot;open&quot;)
        self:removeCollision()
    end
    return Action()
end
</property>
    <property name="align" value="bottom_left"/>
    <property name="defaultAnim" value="closed"/>
    <property name="onInteract">local Serial = require &quot;actions/Serial&quot;
local MessageBox = require &quot;actions/MessageBox&quot;
local Animate = require &quot;actions/Animate&quot;
local Do = require &quot;actions/Do&quot;
local PlayAudio = require &quot;actions/PlayAudio&quot;

return function(self)
    self.scene.player:removeKeyHint()
    return MessageBox {message = &quot;Locked.&quot;, blocking = true}
end
</property>
    <property name="onPuzzleSolve">local Serial = require &quot;actions/Serial&quot;
local Animate = require &quot;actions/Animate&quot;
local PlayAudio = require &quot;actions/PlayAudio&quot;
local Do = require &quot;actions/Do&quot;

return function(self)
    return Serial {
        PlayAudio(&quot;sfx&quot;, &quot;openchasm&quot;, 1.0, true),
        Animate(self.sprite, &quot;opening&quot;),
        Animate(self.sprite, &quot;open&quot;),
        Do(function()
            GameState:setFlag(self)
            self:removeCollision()
        end)
    }
end</property>
    <property name="sprite" type="file" value="../art/sprites/door3.png"/>
   </properties>
  </object>
  <object id="219" name="UpperExit" type="SceneEdge" gid="1227" x="1696" y="480" width="128" height="32">
   <properties>
    <property name="ghost" type="bool" value="true"/>
    <property name="key" value="up"/>
    <property name="orientation" value="down"/>
    <property name="scene" type="file" value="forgottenhideout_broom.lua"/>
    <property name="spawn_point" value="Exit1"/>
   </properties>
  </object>
  <object id="221" name="Save" type="SavePoint" gid="2904" x="1728" y="2240" width="32" height="32">
   <properties>
    <property name="sprite" type="file" value="../art/sprites/save.png"/>
   </properties>
  </object>
  <object id="222" name="Spawn 2" type="SpawnPoint" gid="1586" x="1728" y="2336" width="32" height="32">
   <properties>
    <property name="ghost" type="bool" value="true"/>
    <property name="orientation" value="up"/>
   </properties>
  </object>
  <object id="241" name="poster" type="BasicNPC" gid="1227" x="672" y="1792" width="64" height="32">
   <properties>
    <property name="align" value="bottom_center"/>
    <property name="defaultAnim" value="idleup"/>
    <property name="ghost" type="bool" value="true"/>
    <property name="onInteract">local Serial = require &quot;actions/Serial&quot;
local MessageBox = require &quot;actions/MessageBox&quot;
local Animate = require &quot;actions/Animate&quot;
local Do = require &quot;actions/Do&quot;

return function(self)
    local walkout, walkin, sprites = self.scene.player:split()
    self.scene.player:removeKeyHint()
    self.scene.player.cinematicStack = self.scene.player.cinematicStack + 1
    return Serial {
        walkout,
        Animate(sprites.sonic.sprite, &quot;idleup&quot;),
        Animate(sprites.sally.sprite, &quot;idleup&quot;),
        MessageBox {message = &quot;Sally: Definitely not under Robotnik's control...&quot;, blocking = true},
        Animate(sprites.sonic.sprite, &quot;pose&quot;),
        MessageBox {message = &quot;Sonic: These are my kinda people!&quot;, blocking = true},
        walkin,
        Do(function()
            self.scene.player.x = self.scene.player.x + 60
            self.scene.player.y = self.scene.player.y + 60
            self.scene.player.cinematicStack = self.scene.player.cinematicStack - 1
        end)
    }
end</property>
   </properties>
  </object>
  <object id="246" name="LowerExit" type="SceneEdge" gid="1227" x="1728" y="1568" width="64" height="32">
   <properties>
    <property name="fade_in_speed" type="float" value="0.2"/>
    <property name="fade_out_speed" type="float" value="0.2"/>
    <property name="ghost" type="bool" value="true"/>
    <property name="key" value="up"/>
    <property name="orientation" value="down"/>
    <property name="scene" type="file" value="sewer1.lua"/>
    <property name="spawn_point" value="Spawn 1"/>
   </properties>
  </object>
  <object id="247" name="Flames1" type="BasicNPC" gid="2904" x="1600" y="2400" width="64" height="64">
   <properties>
    <property name="defaultAnim" value="burn"/>
    <property name="ghost" type="bool" value="true"/>
    <property name="sprite" type="file" value="../art/sprites/flametrail.png"/>
   </properties>
  </object>
  <object id="248" name="Flames2" type="BasicNPC" gid="2904" x="1856" y="2400" width="64" height="64">
   <properties>
    <property name="defaultAnim" value="burn"/>
    <property name="ghost" type="bool" value="true"/>
    <property name="sprite" type="file" value="../art/sprites/flametrail.png"/>
   </properties>
  </object>
  <object id="249" name="Flames3" type="BasicNPC" gid="2904" x="1632" y="2176" width="64" height="64">
   <properties>
    <property name="defaultAnim" value="burn"/>
    <property name="ghost" type="bool" value="true"/>
    <property name="sprite" type="file" value="../art/sprites/flametrail.png"/>
   </properties>
  </object>
  <object id="250" name="Flames4" type="BasicNPC" gid="2904" x="1824" y="2176" width="64" height="64">
   <properties>
    <property name="defaultAnim" value="burn"/>
    <property name="ghost" type="bool" value="true"/>
    <property name="sprite" type="file" value="../art/sprites/flametrail.png"/>
   </properties>
  </object>
  <object id="251" name="Flames5" type="BasicNPC" gid="2904" x="1088" y="1952" width="64" height="64">
   <properties>
    <property name="defaultAnim" value="burn"/>
    <property name="ghost" type="bool" value="true"/>
    <property name="sprite" type="file" value="../art/sprites/flametrail.png"/>
   </properties>
  </object>
  <object id="252" name="Flames6" type="BasicNPC" gid="2904" x="1216" y="2176" width="64" height="64">
   <properties>
    <property name="defaultAnim" value="burn"/>
    <property name="ghost" type="bool" value="true"/>
    <property name="sprite" type="file" value="../art/sprites/flametrail.png"/>
   </properties>
  </object>
  <object id="254" name="Flames7" type="BasicNPC" gid="2904" x="2336" y="2144" width="64" height="64">
   <properties>
    <property name="defaultAnim" value="burn"/>
    <property name="ghost" type="bool" value="true"/>
    <property name="sprite" type="file" value="../art/sprites/flametrail.png"/>
   </properties>
  </object>
  <object id="256" name="BWaypoint1" type="BasicNPC" gid="2904" x="1472" y="2144" width="32" height="32">
   <properties>
    <property name="ghost" type="bool" value="true"/>
   </properties>
  </object>
  <object id="257" name="BWaypoint2" type="BasicNPC" gid="2904" x="1280" y="2016" width="32" height="32">
   <properties>
    <property name="ghost" type="bool" value="true"/>
   </properties>
  </object>
  <object id="259" name="BAngry" type="BasicNPC" gid="2904" x="672" y="1920" width="64" height="96">
   <properties>
    <property name="align" value="bottom_left"/>
    <property name="alignOffsetX" type="float" value="-8"/>
    <property name="alignOffsetY" type="float" value="-32"/>
    <property name="defaultAnim" value="idleup"/>
    <property name="onInteract">local BlockPlayer = require &quot;actions/BlockPlayer&quot;
local Parallel = require &quot;actions/Parallel&quot;
local Animate = require &quot;actions/Animate&quot;
local MessageBox = require &quot;actions/MessageBox&quot;
local Wait = require &quot;actions/Wait&quot;
local Repeat = require &quot;actions/Repeat&quot;
local Serial = require &quot;actions/Serial&quot;
local Parallel = require &quot;actions/Parallel&quot;
local Ease = require &quot;actions/Ease&quot;
local PlayAudio = require &quot;actions/PlayAudio&quot;
local AudioFade = require &quot;actions/AudioFade&quot;
local Do = require &quot;actions/Do&quot;

return function(self)
    self.scene.player.x = self.x
    self.scene.player.y = self.y + 64

    local walkout, walkin, sprites = self.scene.player:split()
    return BlockPlayer {
        walkout,
        Parallel {
            Animate(sprites.sonic.sprite, &quot;idleup&quot;),
            Animate(sprites.sally.sprite, &quot;idleup&quot;)
        },
        MessageBox{message=&quot;B: ...&quot;},
        Wait(1),
        PlayAudio(&quot;music&quot;, &quot;btragic&quot;, 0.8, true),
        Animate(self.sprite, &quot;holdrarm&quot;),
        MessageBox{message=&quot;B: ...{p40}R's arm...&quot;,textSpeed=3},
        Wait(1),
        MessageBox{message=&quot;B: ...{p40}Sh-{p40}Should have come sooner...&quot;,textSpeed=3},
        Wait(2),
        Animate(sprites.sonic.sprite, &quot;cry&quot;),
        MessageBox{message=&quot;Sonic: ...&quot;, textSpeed=3},
        Wait(2),
        Animate(sprites.sally.sprite, &quot;cry&quot;),
        MessageBox{message=&quot;Sally: I'm so sorry, B...&quot;, textSpeed=3},
        AudioFade(&quot;music&quot;, 0.8, 0, 1),
        Wait(2),
        Animate(self.sprite, &quot;focus&quot;),
        Parallel {
            MessageBox{message=&quot;B: Sh-Sh-Sh-Sh-{p80} zzzzzt. {p80}ZZZZZT.&quot;},
            Repeat(Serial {
                Ease(self, &quot;x&quot;, function() return self.x - 2 end, 12, &quot;linear&quot;),
                Ease(self, &quot;x&quot;, function() return self.x + 2 end, 12, &quot;linear&quot;)
            }, 30),
            Serial {
                Wait(0.2),
                Animate(sprites.sonic.sprite, &quot;idleup&quot;),
                Animate(sprites.sally.sprite, &quot;idleup&quot;)
            }
        },
        Animate(self.sprite, &quot;hurt&quot;),
        self:hop(),
        MessageBox{message=&quot;B: Arg!!&quot;},
        Wait(1),
        MessageBox{message=&quot;Sonic: Yo B, are you ok?!&quot;},
        Wait(2),
        MessageBox{message=&quot;B: ...&quot;},
        Wait(2),
        Animate(self.sprite, &quot;idledown&quot;),
        Wait(3),
        MessageBox{message=&quot;B: Where am I?... {p80}Who are you?&quot;, textSpeed=3},
        MessageBox{message=&quot;Sally: ...{p80}You don't remember us, B?&quot;},
        Wait(1),
        MessageBox{message=&quot;B: Who is B?&quot;},
        Wait(2),
        PlayAudio(&quot;music&quot;, &quot;bsad2&quot;, 1, true),
        Animate(sprites.sonic.sprite, &quot;cry&quot;),
        Animate(sprites.sally.sprite, &quot;cry&quot;),
        Wait(1),
        MessageBox{message=&quot;Sally: ...{p80}H-He forgot...{p80}he forgot everything...&quot;, textSpeed=3},
        Wait(1),
        MessageBox{message=&quot;Sonic: You think I can bring him back with a {h Power Ring}?&quot;, textSpeed=3},
        Wait(1),
        MessageBox{message=&quot;Sally: *sniff*{p60} L-Let's just get him back to\nKnothole first...&quot;, textSpeed=3},
        Parallel {
            Ease(sprites.sonic, &quot;x&quot;, function() return sprites.sonic.x + 50 end, 2),
            Ease(sprites.sally, &quot;x&quot;, function() return sprites.sally.x - 50 end, 2),
            Ease(self, &quot;y&quot;, function() return self.y + 50 end, 2)
        },
        Do(function()
            sprites.sonic:remove()
            sprites.sally:remove()
            self.scene.player.x = self.scene.player.x + 60
            self.scene.player.y = self.scene.player.y + 32
            self.scene.player.sprite.visible = true
            self.scene.player.dropShadow.hidden = false
            self.scene.player.state = &quot;idledown&quot;

            self.scene.objectLookup.Cheetah.hidden = false

            GameState:addToParty(&quot;b&quot;, 1, true)
            GameState:setFlag(&quot;ep6_tragic_scene&quot;)

            self:remove()
        end)
    }
end</property>
    <property name="sprite" type="file" value="../art/sprites/b.png"/>
   </properties>
  </object>
  <object id="261" name="BWaypoint3" type="BasicNPC" gid="2904" x="1184" y="1984" width="32" height="32">
   <properties>
    <property name="ghost" type="bool" value="true"/>
   </properties>
  </object>
  <object id="262" name="Flames9" type="BasicNPC" gid="2904" x="512" y="2080" width="64" height="64">
   <properties>
    <property name="defaultAnim" value="burn"/>
    <property name="ghost" type="bool" value="true"/>
    <property name="sprite" type="file" value="../art/sprites/flametrail.png"/>
   </properties>
  </object>
  <object id="263" name="Flames10" type="BasicNPC" gid="2904" x="2912" y="1824" width="64" height="64">
   <properties>
    <property name="defaultAnim" value="burn"/>
    <property name="ghost" type="bool" value="true"/>
    <property name="sprite" type="file" value="../art/sprites/flametrail.png"/>
   </properties>
  </object>
  <object id="264" name="Flames11" type="BasicNPC" gid="2904" x="2784" y="2048" width="64" height="64">
   <properties>
    <property name="defaultAnim" value="burn"/>
    <property name="ghost" type="bool" value="true"/>
    <property name="sprite" type="file" value="../art/sprites/flametrail.png"/>
   </properties>
  </object>
  <object id="266" name="Cheetah" type="BasicNPC" gid="2904" x="1696" y="2304" width="128" height="96">
   <properties>
    <property name="align" value="bottom_left"/>
    <property name="alignOffsetX" type="float" value="-8"/>
    <property name="alignOffsetY" type="float" value="-32"/>
    <property name="defaultAnim" value="idleleft"/>
    <property name="hidden" type="bool" value="true"/>
    <property name="nocollision" type="bool" value="true"/>
    <property name="sprite" type="file" value="../art/sprites/cheeta.png"/>
   </properties>
  </object>
  <object id="267" name="CheetahEvent1" type="TouchTrigger" gid="2904" x="1056" y="2208" width="64" height="352">
   <properties>
    <property name="activationFlag" value="ep6_tragic_scene"/>
    <property name="atMostOnce" type="bool" value="true"/>
    <property name="script">local PlayAudio = require &quot;actions/PlayAudio&quot;

return function(self)
    return PlayAudio(&quot;sfx&quot;, &quot;cheetabreathe&quot;, 1)
end</property>
   </properties>
  </object>
  <object id="269" name="CheetahEvent2" type="TouchTrigger" gid="2904" x="1440" y="2368" width="64" height="352">
   <properties>
    <property name="activationFlag" value="ep6_tragic_scene"/>
    <property name="atMostOnce" type="bool" value="true"/>
    <property name="script">local PlayAudio = require &quot;actions/PlayAudio&quot;
local BlockPlayer = require &quot;actions/BlockPlayer&quot;
local Ease = require &quot;actions/Ease&quot;
local Serial = require &quot;actions/Serial&quot;
local Parallel = require &quot;actions/Parallel&quot;
local MessageBox = require &quot;actions/MessageBox&quot;
local Wait = require &quot;actions/Wait&quot;

return function(self)
    return BlockPlayer {
        PlayAudio(&quot;sfx&quot;, &quot;cheetabreathe&quot;, 1, true),
        Parallel {
            Ease(self.scene.camPos, &quot;x&quot;, -200, 0.5),
            Ease(self.scene.camPos, &quot;y&quot;, -100, 0.5),
            Serial {
                Wait(0.5),
                PlayAudio(&quot;sfx&quot;, &quot;cheetabreathe&quot;, 1, true)
            }
        },
        Wait(1),
        MessageBox{message=&quot;Sonic: What's this guy doin' here?...&quot;}
    }
end</property>
   </properties>
  </object>
 </objectgroup>
 <layer name="upper" width="110" height="84">
  <data encoding="csv">
0,0,0,0,0,0,0,0,0,0,0,0,0,0,0,0,0,0,0,0,0,0,0,0,0,0,0,0,0,0,0,0,0,0,0,0,0,0,0,0,0,0,0,0,0,0,0,0,0,0,0,0,0,1522,1521,1522,1521,0,0,0,0,0,0,0,0,0,0,0,0,0,0,0,0,0,0,0,0,0,0,0,0,0,0,0,0,0,0,0,0,0,0,0,0,0,0,0,0,0,0,0,0,0,0,0,0,0,0,0,0,0,
0,0,0,0,0,0,0,0,0,0,0,0,0,0,0,0,0,0,0,0,0,0,0,0,0,0,0,0,0,0,0,0,0,0,0,0,0,0,0,0,0,0,0,0,0,0,0,0,0,0,0,0,0,1522,1521,1522,1521,0,0,0,0,0,0,0,0,0,0,0,0,0,0,0,0,0,0,0,0,0,0,0,0,0,0,0,0,0,0,0,0,0,0,0,0,0,0,0,0,0,0,0,0,0,0,0,0,0,0,0,0,0,
0,0,0,0,0,0,0,0,0,0,0,0,0,0,0,0,0,0,0,0,0,0,0,0,0,0,0,0,0,0,0,0,0,0,0,0,0,0,0,0,0,0,0,0,0,0,0,0,0,0,0,0,0,1522,1521,1522,1521,0,0,0,0,0,0,0,0,0,0,0,0,0,0,0,0,0,0,0,0,0,0,0,0,0,0,0,0,0,0,0,0,0,0,0,0,0,0,0,0,0,0,0,0,0,0,0,0,0,0,0,0,0,
0,0,0,0,0,0,0,0,0,0,0,0,0,0,0,0,0,0,0,0,0,0,0,0,0,0,0,0,0,0,0,0,0,0,0,0,0,0,0,0,0,0,0,0,0,0,0,0,0,0,0,0,0,1522,1521,1522,1521,0,0,0,0,0,0,0,0,0,0,0,0,0,0,0,0,0,0,0,0,0,0,0,0,0,0,0,0,0,0,0,0,0,0,0,0,0,0,0,0,0,0,0,0,0,0,0,0,0,0,0,0,0,
0,0,0,0,0,0,0,0,0,0,0,0,0,0,0,0,0,0,0,0,0,0,0,0,0,0,0,0,0,0,0,0,0,0,0,0,0,0,0,0,0,0,0,0,0,0,0,0,0,0,0,0,0,1522,1521,1522,1521,0,0,0,0,0,0,0,0,0,0,0,0,0,0,0,0,0,0,0,0,0,0,0,0,0,0,0,0,0,0,0,0,0,0,0,0,0,0,0,0,0,0,0,0,0,0,0,0,0,0,0,0,0,
0,0,0,0,0,0,0,0,0,0,0,0,0,0,0,0,0,0,0,0,0,0,0,0,0,0,0,0,0,0,0,0,0,0,0,0,0,0,0,0,0,0,0,0,0,0,0,0,0,0,0,0,0,1522,1521,1522,1521,0,0,0,0,0,0,0,0,0,0,0,0,0,0,0,0,0,0,0,0,0,0,0,0,0,0,0,0,0,0,0,0,0,0,0,0,0,0,0,0,0,0,0,0,0,0,0,0,0,0,0,0,0,
0,0,0,0,0,0,0,0,0,0,0,0,0,0,0,0,0,0,0,0,0,0,0,0,0,0,0,0,0,0,0,0,0,0,0,0,0,0,0,0,0,0,0,0,0,0,0,0,0,0,0,0,0,1522,1521,1522,1521,0,0,0,0,0,0,0,0,0,0,0,0,0,0,0,0,0,0,0,0,0,0,0,0,0,0,0,0,0,0,0,0,0,0,0,0,0,0,0,0,0,0,0,0,0,0,0,0,0,0,0,0,0,
0,0,0,0,0,0,0,0,0,0,0,0,0,0,0,0,0,0,0,0,0,0,0,0,0,0,0,0,0,0,0,0,0,0,0,0,0,0,0,0,0,0,0,0,0,0,0,0,0,0,0,0,0,1522,1521,1522,1521,0,0,0,0,0,0,0,0,0,0,0,0,0,0,0,0,0,0,0,0,0,0,0,0,0,0,0,0,0,0,0,0,0,0,0,0,0,0,0,0,0,0,0,0,0,0,0,0,0,0,0,0,0,
0,0,0,0,0,0,0,0,0,0,0,0,0,0,0,0,0,0,0,0,0,0,0,0,0,0,0,0,0,0,0,0,0,0,0,0,0,0,0,0,0,0,0,0,0,0,0,0,0,0,0,0,0,1522,1521,1522,1521,0,0,0,0,0,0,0,0,0,0,0,0,0,0,0,0,0,0,0,0,0,0,0,0,0,0,0,0,0,0,0,0,0,0,0,0,0,0,0,0,0,0,0,0,0,0,0,0,0,0,0,0,0,
0,0,0,0,0,0,0,0,0,0,0,0,0,0,0,0,0,0,0,0,0,0,0,0,0,0,0,0,0,0,0,0,0,0,0,0,0,0,0,0,0,0,0,0,0,0,0,0,0,0,0,0,0,1522,1521,1522,1521,0,0,0,0,0,0,0,0,0,0,0,0,0,0,0,0,0,0,0,0,0,0,0,0,0,0,0,0,0,0,0,0,0,0,0,0,0,0,0,0,0,0,0,0,0,0,0,0,0,0,0,0,0,
0,0,0,0,0,0,0,0,0,0,0,0,0,0,0,0,0,0,0,0,0,0,0,0,0,0,0,0,0,0,0,0,0,0,0,0,0,0,0,0,0,0,0,0,0,0,0,0,0,0,0,0,0,1522,1521,1522,1521,0,0,0,0,0,0,0,0,0,0,0,0,0,0,0,0,0,0,0,0,0,0,0,0,0,0,0,0,0,0,0,0,0,0,0,0,0,0,0,0,0,0,0,0,0,0,0,0,0,0,0,0,0,
0,0,0,0,0,0,0,0,0,0,0,0,0,0,0,0,0,0,0,0,0,0,0,0,0,0,0,0,0,0,0,0,0,0,0,0,0,0,0,0,0,0,0,0,0,0,0,0,0,0,0,0,0,1522,1521,1522,1521,0,0,0,0,0,0,0,0,0,0,0,0,0,0,0,0,0,0,0,0,0,0,0,0,0,0,0,0,0,0,0,0,0,0,0,0,0,0,0,0,0,0,0,0,0,0,0,0,0,0,0,0,0,
0,0,0,0,0,0,0,0,0,0,0,0,0,0,0,0,0,0,0,0,0,0,0,0,0,0,0,0,0,0,0,0,0,0,0,0,0,0,0,0,0,0,0,0,0,0,0,0,0,0,0,0,0,0,0,0,0,0,0,0,0,0,0,0,0,0,0,0,0,0,0,0,0,0,0,0,0,0,0,0,0,0,0,0,0,0,0,0,0,0,0,0,0,0,0,0,0,0,0,0,0,0,0,0,0,0,0,0,0,0,
0,0,0,0,0,0,0,0,0,0,0,0,0,0,0,0,0,0,0,0,0,0,0,0,0,0,0,0,0,0,0,0,0,0,0,0,0,0,0,0,0,0,0,0,0,0,0,0,0,0,0,0,0,0,0,0,0,0,0,0,0,0,0,0,0,0,0,0,0,0,0,0,0,0,0,0,0,0,0,0,0,0,0,0,0,0,0,0,0,0,0,0,0,0,0,0,0,0,0,0,0,0,0,0,0,0,0,0,0,0,
0,0,0,0,0,0,0,0,0,0,0,0,0,0,0,0,0,0,0,0,0,0,0,0,0,0,0,0,0,0,0,0,0,0,0,0,0,0,0,0,0,0,0,0,0,0,0,0,0,0,0,0,0,0,0,0,0,0,0,0,0,0,0,0,0,0,0,0,0,0,0,0,0,0,0,0,0,0,0,0,0,0,0,0,0,0,0,0,0,0,0,0,0,0,0,0,0,0,0,0,0,0,0,0,0,0,0,0,0,0,
0,0,0,0,0,0,0,0,0,0,0,0,0,0,0,0,0,0,0,0,0,0,0,0,0,0,0,0,0,0,0,0,0,0,0,0,0,0,0,0,0,0,0,0,0,0,0,0,0,0,0,0,0,0,0,0,0,0,0,0,0,0,0,0,0,0,0,0,0,0,0,0,0,0,0,0,0,0,0,0,0,0,0,0,0,0,0,0,0,0,0,0,0,0,0,0,0,0,0,0,0,0,0,0,0,0,0,0,0,0,
0,0,0,0,0,0,0,0,0,0,0,0,0,0,0,0,0,0,0,0,0,0,0,0,0,0,0,0,0,0,0,0,0,0,0,0,0,0,0,0,0,0,0,0,0,0,0,0,0,0,0,0,0,0,0,0,0,0,0,0,0,0,0,0,0,0,0,0,0,0,0,0,0,0,0,0,0,0,0,0,0,0,0,0,0,0,0,0,0,0,0,0,0,0,0,0,0,0,0,0,0,0,0,0,0,0,0,0,0,0,
0,0,0,0,0,0,0,0,0,0,0,0,0,0,0,0,0,0,0,0,0,0,0,0,0,0,0,0,0,0,0,0,0,0,0,0,0,0,0,0,0,0,0,0,0,0,0,0,0,0,0,0,0,0,0,0,0,0,0,0,0,0,0,0,0,0,0,0,0,0,0,0,0,0,0,0,0,0,0,0,0,0,0,0,0,0,0,0,0,0,0,0,0,0,0,0,0,0,0,0,0,0,0,0,0,0,0,0,0,0,
0,0,0,0,0,0,0,0,0,0,0,0,0,0,0,0,0,0,0,0,0,0,0,0,0,0,0,0,0,0,0,0,0,0,0,0,0,0,0,0,0,0,0,0,0,0,0,0,0,0,0,0,0,0,0,0,0,0,0,0,0,0,0,0,0,0,0,0,0,0,0,0,0,0,0,0,0,0,0,0,0,0,0,0,0,0,0,0,0,0,0,0,0,0,0,0,0,0,0,0,0,0,0,0,0,0,0,0,0,0,
0,0,0,0,0,0,0,0,0,0,0,0,0,0,0,0,0,0,0,0,0,0,0,0,0,0,0,0,0,0,0,0,0,0,0,0,0,0,0,0,0,0,0,0,0,0,0,0,0,0,0,0,0,0,0,0,0,0,0,0,0,0,0,0,0,0,0,0,0,0,0,0,0,0,0,0,0,0,0,0,0,0,0,0,0,0,0,0,0,0,0,0,0,0,0,0,0,0,0,0,0,0,0,0,0,0,0,0,0,0,
0,0,0,0,0,0,0,0,0,0,0,0,0,0,0,0,0,0,0,0,0,0,0,0,0,0,0,0,0,0,0,0,0,0,0,0,0,0,0,0,0,0,0,0,0,0,0,0,0,0,0,0,0,0,0,0,0,0,0,0,0,0,0,0,0,0,0,0,0,0,0,0,0,0,0,0,0,0,0,0,0,0,0,0,0,0,0,0,0,0,0,0,0,0,0,0,0,0,0,0,0,0,0,0,0,0,0,0,0,0,
0,0,0,0,0,0,0,0,0,0,0,0,0,0,0,0,0,0,0,0,0,0,0,0,0,0,0,0,0,0,0,0,0,0,0,0,0,0,0,0,0,0,0,0,0,0,0,0,0,0,0,0,0,0,0,0,0,0,0,0,0,0,0,0,0,0,0,0,0,0,0,0,0,0,0,0,0,0,0,0,0,0,0,0,0,0,0,0,0,0,0,0,0,0,0,0,0,0,0,0,0,0,0,0,0,0,0,0,0,0,
0,0,0,0,0,0,0,0,0,0,0,0,0,0,0,0,0,0,0,0,0,0,0,0,0,0,0,0,0,0,0,0,0,0,0,0,0,0,0,0,0,0,0,0,0,0,0,0,0,0,0,0,0,0,0,0,0,0,0,0,0,0,0,0,0,0,0,0,0,0,0,0,0,0,0,0,0,0,0,0,0,0,0,0,0,0,0,0,0,0,0,0,0,0,0,0,0,0,0,0,0,0,0,0,0,0,0,0,0,0,
0,0,0,0,0,0,0,0,0,0,0,0,0,0,0,0,0,0,0,0,0,0,0,0,0,0,0,0,0,0,0,0,0,0,0,0,0,0,0,0,0,0,0,0,0,0,0,0,0,0,0,0,0,0,0,0,0,0,0,0,0,0,0,0,0,0,0,0,0,0,0,0,0,0,0,0,0,0,0,0,0,0,0,0,0,0,0,0,0,0,0,0,0,0,0,0,0,0,0,0,0,0,0,0,0,0,0,0,0,0,
0,0,0,0,0,0,0,0,0,0,0,0,0,0,0,0,0,0,0,0,0,0,0,0,0,0,0,0,0,0,0,0,0,0,0,0,0,0,0,0,0,0,0,0,0,0,0,0,0,0,0,0,0,0,0,0,0,0,0,0,0,0,0,0,0,0,0,0,0,0,0,0,0,0,0,0,0,0,0,0,0,0,0,0,0,0,0,0,0,0,0,0,0,0,0,0,0,0,0,0,0,0,0,0,0,0,0,0,0,0,
0,0,0,0,0,0,0,0,0,0,0,0,0,0,0,0,0,0,0,0,0,0,0,0,0,0,0,0,0,0,0,0,0,0,0,0,0,0,0,0,0,0,0,0,0,0,0,0,0,0,0,0,0,0,0,0,0,0,0,0,0,0,0,0,0,0,0,0,0,0,0,0,0,0,0,0,0,0,0,0,0,0,0,0,0,0,0,0,0,0,0,0,0,0,0,0,0,0,0,0,0,0,0,0,0,0,0,0,0,0,
0,0,0,0,0,0,0,0,0,0,0,0,0,0,0,0,0,0,0,0,0,0,0,0,0,0,0,0,0,0,0,0,0,0,0,0,0,0,0,0,0,0,0,0,0,0,0,0,0,0,0,0,0,0,0,0,0,0,0,0,0,0,0,0,0,0,0,0,0,0,0,0,0,0,0,0,0,0,0,0,0,0,0,0,0,0,0,0,0,0,0,0,0,0,0,0,0,0,0,0,0,0,0,0,0,0,0,0,0,0,
0,0,0,0,0,0,0,0,0,0,0,0,0,0,0,0,0,0,0,0,0,0,0,0,0,0,0,0,0,0,0,0,0,0,0,0,0,0,0,0,0,0,0,0,0,0,0,0,0,0,0,0,0,0,0,0,0,0,0,0,0,0,0,0,0,0,0,0,0,0,0,0,0,0,0,0,0,0,0,0,0,0,0,0,0,0,0,0,0,0,0,0,0,0,0,0,0,0,0,0,0,0,0,0,0,0,0,0,0,0,
0,0,0,0,0,0,0,0,0,0,0,0,0,0,0,0,0,0,0,0,0,0,0,0,0,0,0,0,0,0,0,0,0,0,0,0,0,0,0,0,0,0,0,0,0,0,0,0,0,0,0,0,0,0,0,0,0,0,0,0,0,0,0,0,0,0,0,0,0,0,0,0,0,0,0,0,0,0,0,0,0,0,0,0,0,0,0,0,0,0,0,0,0,0,0,0,0,0,0,0,0,0,0,0,0,0,0,0,0,0,
0,0,0,0,0,0,0,0,0,0,0,0,0,0,0,0,0,0,0,0,0,0,0,0,0,0,0,0,0,0,0,0,0,0,0,0,0,0,0,0,0,0,0,0,0,0,0,0,0,0,0,0,0,0,0,0,0,0,0,0,0,0,0,0,0,0,0,0,0,0,0,0,0,0,0,0,0,0,0,0,0,0,0,0,0,0,0,0,0,0,0,0,0,0,0,0,0,0,0,0,0,0,0,0,0,0,0,0,0,0,
0,0,0,0,0,0,0,0,0,0,0,0,0,0,0,0,0,0,0,0,0,0,0,0,0,0,0,0,0,0,0,0,0,0,0,0,0,0,0,0,0,0,0,0,0,0,0,0,0,0,0,0,0,0,0,0,0,0,0,0,0,0,0,0,0,0,0,0,0,0,0,0,0,0,0,0,0,0,0,0,0,0,0,0,0,0,0,0,0,0,0,0,0,0,0,0,0,0,0,0,0,0,0,0,0,0,0,0,0,0,
0,0,0,0,0,0,0,0,0,0,0,0,0,0,0,0,0,0,0,0,0,0,0,0,0,0,0,0,0,0,0,0,0,0,0,0,0,0,0,0,0,0,0,0,0,0,0,0,0,0,0,0,0,0,0,0,0,0,0,0,0,0,0,0,0,0,0,0,0,0,0,0,0,0,0,0,0,0,0,0,0,0,0,0,0,0,0,0,0,0,0,0,0,0,0,0,0,0,0,0,0,0,0,0,0,0,0,0,0,0,
0,0,0,0,0,0,0,0,0,0,0,0,0,0,0,0,0,0,0,0,0,0,0,0,0,0,0,0,0,0,0,0,0,0,0,0,0,0,0,0,0,0,0,0,0,0,0,0,0,0,0,0,0,0,0,0,0,0,0,0,0,0,0,0,0,0,0,0,0,0,0,0,0,0,0,0,0,0,0,0,0,0,0,0,0,0,0,0,0,0,0,0,0,0,0,0,0,0,0,0,0,0,0,0,0,0,0,0,0,0,
0,0,0,0,0,0,0,0,0,0,0,0,0,0,0,0,0,0,0,0,0,0,0,0,0,0,0,0,0,0,0,0,0,0,0,0,0,0,0,0,0,0,0,0,0,0,0,0,0,0,0,0,0,0,0,0,0,0,0,0,0,0,0,0,0,0,0,0,0,0,0,0,0,0,0,0,0,0,0,0,0,0,0,0,0,0,0,0,0,0,0,0,0,0,0,0,0,0,0,0,0,0,0,0,0,0,0,0,0,0,
0,0,0,0,0,0,0,0,0,0,0,0,0,0,0,0,0,0,0,0,0,0,0,0,0,0,0,0,0,0,0,0,0,0,0,0,0,0,0,0,0,0,0,0,0,0,0,0,0,0,0,0,0,0,0,0,0,0,0,0,0,0,0,0,0,0,0,0,0,0,0,0,0,0,0,0,0,0,0,0,0,0,0,0,0,0,0,0,0,0,0,0,0,0,0,0,0,0,0,0,0,0,0,0,0,0,0,0,0,0,
0,0,0,0,0,0,0,0,0,0,0,0,0,0,0,0,0,0,0,0,0,0,0,0,0,0,0,0,0,0,0,0,0,0,0,0,0,0,0,0,0,0,0,0,0,0,0,0,0,0,0,0,0,0,0,0,0,0,0,0,0,0,0,0,0,0,0,0,0,0,0,0,0,0,0,0,0,0,0,0,0,0,0,0,0,0,0,0,0,0,0,0,0,0,0,0,0,0,0,0,0,0,0,0,0,0,0,0,0,0,
0,0,0,0,0,0,0,0,0,0,0,0,0,0,0,0,0,0,0,0,0,0,0,0,0,0,0,0,0,0,0,0,0,0,0,0,0,0,0,0,0,0,0,0,0,0,0,0,0,0,0,0,0,0,0,0,0,0,0,0,0,0,0,0,0,0,0,0,0,0,0,0,0,0,0,0,0,0,0,0,0,0,0,0,0,0,0,0,0,0,0,0,0,0,0,0,0,0,0,0,0,0,0,0,0,0,0,0,0,0,
0,0,0,0,0,0,0,0,0,0,0,0,0,0,0,0,0,0,0,0,0,0,0,0,0,0,0,0,0,0,0,0,0,0,0,0,0,0,0,0,0,0,0,0,0,0,0,0,0,0,0,0,0,0,0,0,0,0,0,0,0,0,0,0,0,0,0,0,0,0,0,0,0,0,0,0,0,0,0,0,0,0,0,0,0,0,0,0,0,0,0,0,0,0,0,0,0,0,0,0,0,0,0,0,0,0,0,0,0,0,
0,0,0,0,0,0,0,0,0,0,0,0,0,0,0,0,0,0,0,0,0,0,0,0,0,0,0,0,0,0,0,0,0,0,0,0,0,0,0,0,0,0,0,0,0,0,0,0,0,0,0,0,0,0,0,0,0,0,0,0,0,0,0,0,0,0,0,0,0,0,0,0,0,0,0,0,0,0,0,0,0,0,0,0,0,0,0,0,0,0,0,0,0,0,0,0,0,0,0,0,0,0,0,0,0,0,0,0,0,0,
0,0,0,0,0,0,0,0,0,0,0,0,0,0,0,0,0,0,0,0,0,0,0,0,0,0,0,0,0,0,0,0,0,0,0,0,0,0,0,0,0,0,0,0,0,0,0,0,0,0,0,0,0,0,0,0,0,0,0,0,0,0,0,0,0,0,0,0,0,0,0,0,0,0,0,0,0,0,0,0,0,0,0,0,0,0,0,0,0,0,0,0,0,0,0,0,0,0,0,0,0,0,0,0,0,0,0,0,0,0,
0,0,0,0,0,0,0,0,0,0,0,0,0,0,0,0,0,0,0,0,0,0,0,0,0,0,0,0,0,0,0,0,0,0,0,0,0,0,0,0,0,0,0,0,0,0,0,0,0,3575,3575,3575,0,0,3575,3575,3575,3575,3575,3575,3575,0,0,0,0,0,0,0,0,0,0,0,0,0,0,0,0,0,0,0,0,0,0,0,0,0,0,0,0,0,0,0,0,0,0,0,0,0,0,0,0,0,0,0,0,0,0,0,0,0,
0,0,0,0,0,0,0,0,0,0,0,0,0,0,0,0,0,0,0,0,0,0,0,0,0,0,0,0,0,0,0,0,0,0,0,0,0,0,0,0,0,0,0,0,0,0,0,0,0,3575,3575,3575,3575,3575,3575,3575,3575,3575,3575,3575,3575,0,0,0,0,0,0,0,0,0,0,0,0,0,0,0,0,0,0,0,0,0,0,0,0,0,0,0,0,0,0,0,0,0,0,0,0,0,0,0,0,0,0,0,0,0,0,0,0,0,
0,0,0,0,0,0,0,0,0,0,0,0,0,0,0,0,0,0,0,0,0,0,0,0,0,0,0,0,0,0,0,0,0,0,0,0,0,0,0,0,0,0,0,0,0,0,0,0,0,3575,3575,3575,3575,3575,3575,3575,3575,3575,3575,3575,3575,0,0,0,0,0,0,0,0,0,0,0,0,0,0,0,0,0,0,0,0,0,0,0,0,0,0,0,0,0,0,0,0,0,0,0,0,0,0,0,0,0,0,0,0,0,0,0,0,0,
0,0,0,0,0,0,0,2419,2559,2560,2561,2562,2561,2562,2559,2560,2561,2562,2559,2560,2561,2562,2562,2422,0,0,0,0,0,0,0,0,0,0,0,0,0,0,0,0,0,0,0,0,0,0,0,0,0,3575,3575,3575,3575,3575,3575,3575,3575,3575,3575,3575,3575,0,0,0,0,0,0,0,0,0,0,0,0,0,0,0,0,0,0,0,0,0,0,0,0,0,0,0,0,0,0,0,0,0,0,0,0,0,0,0,0,0,0,0,0,0,0,0,0,0,
0,0,0,0,0,0,0,2454,2417,2417,2417,2417,2417,2417,2417,2417,2417,2417,2417,2417,2417,2417,2417,2453,0,0,0,0,0,0,0,0,0,0,0,0,0,0,0,0,0,0,0,0,0,0,0,0,0,3575,3575,3575,3610,3610,3610,3610,3610,3610,3575,3575,3575,0,0,0,0,0,0,0,0,0,0,0,0,0,0,0,0,0,0,0,0,0,0,0,0,0,2419,2559,2560,2561,2562,2560,2561,2562,2559,2560,2561,2562,2559,2560,2561,2562,2422,0,0,0,0,0,0,0,
0,0,0,0,0,0,0,2489,2417,2417,2417,2417,2417,2417,2417,2417,2417,2417,2417,2417,2417,2417,2417,2488,0,0,0,0,0,0,0,0,0,0,0,0,0,0,0,0,0,0,0,0,0,0,0,0,0,3575,3575,3575,1521,1522,1521,1522,1521,1522,3575,3575,3575,0,0,0,0,0,0,0,0,0,0,0,0,0,0,0,0,0,0,0,0,0,0,0,0,0,2454,2417,2417,2417,2417,2417,2417,2417,2417,2417,2417,2417,2417,2417,2417,2417,2492,0,0,0,0,0,0,0,
0,0,0,0,0,0,0,2489,2417,2417,2417,2417,2417,2417,2417,2417,2417,2417,2417,2417,2417,2417,2417,2418,0,0,0,0,0,0,0,0,0,0,0,0,0,0,0,0,0,0,0,0,0,0,0,0,0,3575,3575,3575,0,0,0,0,0,0,3575,3575,3575,0,0,0,0,0,0,0,0,0,0,0,0,0,0,0,0,0,0,0,0,0,0,0,0,0,2489,2417,2417,2417,2417,2417,2417,2417,2417,2417,2417,2417,2417,2417,2417,2417,2457,0,0,0,0,0,0,0,
0,0,0,0,0,0,0,2454,2417,2417,2417,2417,2417,2417,2417,2417,2417,2417,2417,2417,2417,2417,2417,2453,0,0,0,0,0,0,0,0,0,0,0,0,0,0,0,0,0,0,0,0,0,0,0,0,0,0,0,0,0,0,0,0,0,0,3575,3575,3575,0,0,0,0,0,0,0,0,0,0,0,0,0,0,0,0,0,0,0,0,0,0,0,0,0,2454,2417,2417,2417,2417,2417,2417,2417,2417,2417,2417,2417,2417,2417,2417,2417,2492,0,0,0,0,0,0,0,
0,0,0,0,0,0,0,2489,2417,2417,2417,2417,2417,2417,2417,2417,2417,2417,2417,2417,2417,2417,2417,2488,0,0,0,0,0,0,0,0,0,0,0,0,0,0,0,0,0,0,0,0,0,0,0,0,0,0,0,0,0,0,0,0,0,0,0,0,0,0,0,0,0,0,0,0,0,0,0,0,0,0,0,0,0,0,0,0,0,0,0,0,0,0,2489,2417,2417,2417,2417,2417,2417,2417,2417,2417,2417,2417,2417,2417,2417,2417,2457,0,0,0,0,0,0,0,
0,0,0,0,0,0,0,2489,2417,2383,2384,2386,2387,2388,2384,2385,2386,2387,2388,2384,2385,2386,2387,2601,0,0,0,0,0,0,0,0,0,0,0,0,0,0,0,0,0,0,0,0,0,0,0,0,0,0,0,0,0,0,0,0,0,0,0,0,0,0,0,0,0,0,0,0,0,0,0,0,0,0,0,0,0,0,0,0,0,0,0,0,0,0,2600,2384,2385,2386,2387,2388,2384,2385,2386,2387,2388,2384,2385,2386,2389,2417,2492,0,0,0,0,0,0,0,
0,0,0,0,0,0,0,2489,2417,2457,0,0,0,0,0,0,0,0,0,0,0,0,0,0,0,0,0,0,0,0,0,0,0,0,0,0,0,0,0,0,0,0,0,0,0,0,0,0,0,0,0,0,0,0,0,0,0,0,0,0,0,0,0,0,0,0,0,0,0,0,0,0,0,0,0,0,0,0,0,0,0,0,0,0,0,0,0,0,0,0,0,0,0,0,0,0,0,0,0,0,2489,2417,2457,0,0,0,0,0,0,0,
0,0,0,0,0,0,0,2489,2417,2492,0,0,0,0,0,0,0,0,0,0,0,0,0,0,0,0,0,0,0,0,0,0,0,0,0,0,0,0,0,0,0,0,0,0,0,0,0,0,0,0,0,0,0,0,0,0,0,0,0,0,0,0,0,0,0,0,0,0,0,0,0,0,0,0,0,0,0,0,0,0,0,0,0,0,0,0,0,0,0,0,0,0,0,0,0,0,0,0,0,0,2454,2417,2492,0,0,0,0,0,0,0,
0,0,0,0,0,0,0,2489,2417,2492,0,0,0,0,0,0,0,0,0,0,0,0,0,0,0,0,0,0,0,0,0,0,0,0,0,0,0,0,0,0,0,0,0,0,0,0,0,0,0,0,0,0,0,0,0,0,0,0,0,0,0,0,0,0,0,0,0,0,0,0,0,0,0,0,0,0,0,0,0,0,0,0,0,0,0,0,0,0,0,0,0,0,0,0,0,0,0,0,0,0,2489,2417,2457,0,0,0,0,0,0,0,
0,0,0,0,0,0,0,2489,2417,2492,0,0,0,0,0,0,0,0,0,0,0,0,0,0,0,0,0,0,0,0,0,0,0,0,0,0,0,0,0,0,0,0,0,0,0,0,0,0,0,0,0,0,0,0,0,0,0,0,0,0,0,0,0,0,0,0,0,0,0,0,0,0,0,0,0,0,0,0,0,0,0,0,0,0,0,0,0,0,0,0,0,0,0,0,0,0,0,0,0,0,2454,2417,2492,0,0,0,0,0,0,0,
0,0,0,0,0,0,0,2489,2417,2492,0,0,0,0,0,0,0,0,0,0,0,0,0,0,0,0,0,0,0,0,0,0,0,0,0,0,0,0,0,0,0,0,0,0,0,0,0,0,0,0,0,0,0,0,0,0,0,0,0,0,0,0,0,0,0,0,0,0,0,0,0,0,0,0,0,0,0,0,0,0,0,0,0,0,0,0,0,0,0,0,0,0,0,0,0,0,0,0,0,0,2489,2417,2457,0,0,0,0,0,0,0,
0,0,0,0,0,0,0,2489,2417,2492,0,0,0,0,0,0,0,0,0,0,0,0,0,0,0,0,0,0,0,0,0,0,0,0,0,0,0,0,0,0,0,0,0,0,0,0,0,0,0,0,0,0,0,0,0,0,0,0,0,0,0,0,0,0,0,0,0,0,0,0,0,0,0,0,0,0,0,0,0,0,0,0,0,0,0,0,0,0,0,0,0,0,0,0,0,0,0,0,0,0,2454,2417,2492,0,0,0,0,0,0,0,
0,0,0,0,0,0,0,2489,2417,2492,0,0,0,0,0,0,0,0,0,0,0,0,0,0,0,0,0,0,0,0,0,0,0,0,0,0,0,0,0,0,0,0,0,0,0,0,0,0,0,0,0,0,0,0,0,0,0,0,0,0,0,0,0,0,0,0,0,0,0,0,0,0,0,0,0,0,0,0,0,0,0,0,0,0,0,0,0,0,0,0,0,0,0,0,0,0,0,0,0,0,2489,2417,2457,0,0,0,0,0,0,0,
0,0,0,0,0,0,0,2489,2417,2492,0,0,0,0,0,0,0,0,0,0,0,0,0,0,0,0,0,0,0,0,0,0,0,0,0,0,0,0,0,0,0,0,0,0,0,0,0,0,0,0,0,0,0,0,0,0,0,0,0,0,0,0,0,0,0,0,0,0,0,0,0,0,0,0,0,0,0,0,0,0,0,0,0,0,0,0,0,0,0,0,0,0,0,0,0,0,0,0,0,0,2454,2417,2492,0,0,0,0,0,0,0,
0,0,0,0,0,0,0,2489,2417,2492,0,0,0,0,0,0,0,0,0,0,0,0,0,0,0,0,0,0,0,0,0,0,0,0,0,0,0,0,0,0,0,0,0,0,0,0,0,0,0,0,0,0,0,0,0,0,0,0,0,0,0,0,0,0,0,0,0,0,0,0,0,0,0,0,0,0,0,0,0,0,0,0,0,0,0,0,0,0,0,0,0,0,0,0,0,0,0,0,0,0,2489,2417,2457,0,0,0,0,0,0,0,
0,0,0,0,0,0,0,2489,2417,2492,0,0,0,0,0,0,0,0,0,0,0,0,0,0,0,0,0,0,0,0,0,0,0,0,0,0,0,0,0,0,0,0,0,0,0,0,0,0,0,0,0,0,0,0,0,0,0,0,0,0,0,0,0,0,0,0,0,0,0,0,0,0,0,0,0,0,0,0,0,0,0,0,0,0,0,0,0,0,0,0,0,0,0,0,0,0,0,0,0,0,2454,2417,2492,0,0,0,0,0,0,0,
0,0,0,0,0,0,0,2489,2417,2492,0,0,0,0,0,0,0,0,0,0,0,0,0,0,0,0,0,0,0,0,0,0,0,0,0,0,0,0,0,0,0,0,0,0,0,0,0,0,0,0,0,0,0,0,0,0,0,0,0,0,0,0,0,0,0,0,0,0,0,0,0,0,0,0,0,0,0,0,0,0,0,0,0,0,0,0,0,0,0,0,0,0,0,0,0,0,0,0,0,0,2489,2417,2457,0,0,0,0,0,0,0,
0,0,0,0,0,0,0,2489,2417,2492,0,0,0,0,0,0,0,0,0,0,0,0,0,0,0,0,0,0,0,0,0,0,0,0,0,0,0,0,0,0,0,0,0,0,0,0,0,0,0,0,0,0,0,0,0,0,0,0,0,0,0,0,0,0,0,0,0,0,0,0,0,0,0,0,0,0,0,0,0,0,0,0,0,0,0,0,0,0,0,0,0,0,0,0,0,0,0,0,0,0,2454,2417,2492,0,0,0,0,0,0,0,
0,0,0,0,0,0,0,2489,2417,2492,0,0,0,4262,0,0,0,0,0,0,0,0,0,0,0,0,0,0,0,0,0,0,0,0,0,0,0,0,0,0,0,0,0,0,0,0,0,0,0,0,0,0,0,0,0,0,0,0,0,0,0,0,0,0,0,0,0,0,0,0,0,0,0,0,0,0,0,0,0,0,0,0,0,0,0,0,0,0,0,0,0,0,0,0,0,0,0,0,0,0,2489,2417,2457,0,0,0,0,0,0,0,
0,0,0,0,0,0,0,2489,2417,2492,0,0,0,0,0,0,0,0,0,0,0,0,0,0,0,0,0,0,0,0,0,0,0,0,0,0,0,0,0,0,0,0,0,0,0,0,0,0,0,0,0,0,0,0,0,0,0,0,0,0,0,0,0,0,0,0,0,0,0,0,0,0,0,0,0,0,0,0,0,0,0,0,0,0,0,0,0,0,0,0,0,0,0,0,0,0,0,0,0,2419,2417,2417,2492,0,0,0,0,0,0,0,
0,0,0,0,0,0,0,2489,2417,2421,2422,0,0,0,0,0,0,0,0,0,0,0,0,0,0,0,0,0,0,0,0,0,0,0,0,0,0,0,0,0,0,0,0,0,0,0,0,0,0,0,0,0,0,0,0,0,0,0,0,0,0,0,0,0,0,0,0,0,0,0,0,0,0,0,0,0,0,0,0,0,0,0,0,0,0,0,0,0,0,0,0,0,0,0,0,0,0,0,2419,2417,2417,2417,2457,0,0,0,0,0,0,0,
0,0,0,0,0,0,0,2489,2417,2417,2421,2422,0,0,0,0,0,0,0,0,0,0,0,0,0,0,0,0,0,0,0,0,0,0,0,0,0,0,0,0,0,0,0,0,0,0,0,0,0,0,0,0,0,0,0,0,0,0,0,0,0,0,0,0,0,0,0,0,0,0,0,0,0,0,0,0,0,0,0,0,0,0,0,0,0,0,0,0,0,0,0,0,0,0,0,0,0,2419,2417,2417,2417,2417,2492,0,0,0,0,0,0,0,
0,0,0,0,0,0,0,2489,2417,2417,2417,2421,2559,2560,2560,2560,2560,2560,2560,2560,2560,2560,2560,2560,2422,0,0,0,0,0,0,0,0,0,0,0,0,0,0,0,0,0,0,0,0,0,0,0,0,0,0,0,0,0,0,0,0,0,0,0,0,0,0,0,0,0,0,0,0,0,0,0,0,0,0,0,0,0,0,0,0,0,0,0,0,2419,2560,2560,2560,2560,2560,2560,2560,2559,2560,2559,2560,2417,2417,2417,2417,2417,2457,0,0,0,0,0,0,0,
0,0,0,0,0,0,0,2489,2417,2417,2417,2417,2417,2417,2417,2417,2417,2417,2417,2417,2417,2417,2417,2417,2457,0,0,0,0,0,0,0,0,0,0,0,0,0,0,0,0,0,0,0,0,0,0,0,0,0,0,0,0,0,0,0,0,0,0,0,0,0,0,0,0,0,0,0,0,0,0,0,0,0,0,0,0,0,0,0,0,0,0,0,0,2454,2417,2417,2417,2417,2417,2417,2417,2417,2417,2417,2417,2417,2417,2417,2417,2417,2492,0,0,0,0,0,0,0,
0,0,0,0,0,0,0,2489,2417,2417,2417,2417,2417,2417,2417,2417,2417,2417,2417,2417,2417,2417,2417,2417,2492,0,0,0,0,0,0,0,0,0,0,0,0,0,0,0,0,0,0,0,0,0,0,0,0,0,0,0,0,0,0,0,0,0,0,0,0,0,0,0,0,0,0,0,0,0,0,0,0,0,0,0,0,0,0,0,0,0,0,0,0,2489,2417,2417,2417,2417,2417,2417,2417,2417,2417,2417,2417,2417,2417,2417,2417,2417,2457,0,0,0,0,0,0,0,
0,0,0,0,0,0,0,2489,2417,2417,2417,2417,2417,2417,2417,2417,2417,2417,2417,2417,2417,2417,2417,2417,2457,0,0,0,0,0,0,0,0,0,0,0,0,0,0,0,0,0,0,0,0,0,0,0,0,0,0,0,0,0,0,0,0,0,0,0,0,0,0,0,0,0,0,0,0,0,0,0,0,0,0,0,0,0,0,0,0,0,0,0,0,2454,2417,2417,2417,2417,2417,2417,2417,2417,2417,2417,2417,2417,2417,2417,2417,2417,2492,0,0,0,0,0,0,0,
0,0,0,0,0,0,0,2489,2417,2417,2417,2417,2417,2417,2417,2417,2417,2417,2417,2417,2417,2417,2417,2417,2488,0,0,0,0,0,0,0,0,0,0,0,0,0,0,0,0,0,0,0,0,0,0,0,0,0,0,0,0,0,0,0,0,0,0,0,0,0,0,0,0,0,0,0,0,0,0,0,0,0,0,0,0,0,0,0,0,0,0,0,0,2600,2384,2385,2386,2387,2388,2384,2385,2386,2387,2388,2384,2385,2386,2387,2388,2384,2601,0,0,0,0,0,0,0,
0,0,0,0,0,0,0,2600,2387,2388,2384,2385,2386,2387,2388,2384,2385,2386,2387,2388,2384,2385,2386,2387,2601,0,0,0,0,0,0,0,0,0,0,0,0,0,0,0,0,0,0,0,0,0,0,0,0,0,0,0,0,0,0,0,0,0,0,0,0,0,0,0,0,0,0,0,0,0,0,0,0,0,0,0,0,0,0,0,0,0,0,0,0,0,0,0,0,0,0,0,0,0,0,0,0,0,0,0,0,0,0,0,0,0,0,0,0,0,
0,0,0,0,0,0,0,0,0,0,0,0,0,0,0,0,0,0,0,0,0,0,0,0,0,0,0,0,0,0,0,0,0,0,0,0,0,0,0,0,0,0,0,0,0,0,0,0,0,0,0,0,0,0,0,0,0,0,0,0,0,0,0,0,0,0,0,0,0,0,0,0,0,0,0,0,0,0,0,0,0,0,0,0,0,0,0,0,0,0,0,0,0,0,0,0,0,0,0,0,0,0,0,0,0,0,0,0,0,0,
0,0,0,0,0,0,0,0,0,0,0,0,0,0,0,0,0,0,0,0,0,0,0,0,0,0,0,0,0,0,0,0,0,0,0,0,0,0,0,0,0,0,0,0,0,0,0,0,0,0,0,0,0,0,0,0,0,0,0,0,0,0,0,0,0,0,0,0,0,0,0,0,0,0,0,0,0,0,0,0,0,0,0,0,0,0,0,0,0,0,0,0,0,0,0,0,0,0,0,0,0,0,0,0,0,0,0,0,0,0,
0,0,0,0,0,0,0,0,0,0,0,0,0,0,0,0,0,0,0,0,0,0,0,0,0,0,0,0,0,0,0,0,0,0,0,0,0,0,0,0,0,0,0,0,0,0,0,0,0,0,0,0,0,0,0,0,0,0,0,0,0,0,0,0,0,0,0,0,0,0,0,0,0,0,0,0,0,0,0,0,0,0,0,0,0,0,0,0,0,0,0,0,0,0,0,0,0,0,0,0,0,0,0,0,0,0,0,0,0,0,
0,0,0,0,0,0,0,0,0,0,0,0,0,0,0,0,0,0,0,0,0,0,0,0,0,0,0,0,0,0,0,0,0,0,0,0,0,0,0,0,0,0,0,0,0,0,0,0,0,0,0,0,0,0,0,0,0,0,0,0,0,0,0,0,0,0,0,0,0,0,0,0,0,0,0,0,0,0,0,0,0,0,0,0,0,0,0,0,0,0,0,0,0,0,0,0,0,0,0,0,0,0,0,0,0,0,0,0,0,0,
0,0,0,0,0,0,0,0,0,0,0,0,0,0,0,0,0,0,0,0,0,0,0,0,0,0,0,0,0,0,0,0,0,0,0,0,0,0,0,0,0,0,0,0,0,0,0,0,0,0,0,0,0,0,0,0,0,0,0,0,0,0,0,0,0,0,0,0,0,0,0,0,0,0,0,0,0,0,0,0,0,0,0,0,0,0,0,0,0,0,0,0,0,0,0,0,0,0,0,0,0,0,0,0,0,0,0,0,0,0,
0,0,0,0,0,0,0,0,0,0,0,0,0,0,0,0,0,0,0,0,0,0,0,0,0,0,0,0,0,0,0,0,0,0,0,0,0,0,0,0,0,0,0,0,0,0,0,0,0,0,0,0,0,0,0,0,0,0,0,0,0,0,0,0,0,0,0,0,0,0,0,0,0,0,0,0,0,0,0,0,0,0,0,0,0,0,0,0,0,0,0,0,0,0,0,0,0,0,0,0,0,0,0,0,0,0,0,0,0,0,
0,0,0,0,0,0,0,0,0,0,0,0,0,0,0,0,0,0,0,0,0,0,0,0,0,0,0,0,0,0,0,0,0,0,0,0,0,0,0,0,0,0,0,0,0,0,0,0,0,0,0,0,0,0,0,0,0,0,0,0,0,0,0,0,0,0,0,0,0,0,0,0,0,0,0,0,0,0,0,0,0,0,0,0,0,0,0,0,0,0,0,0,0,0,0,0,0,0,0,0,0,0,0,0,0,0,0,0,0,0,
0,0,0,0,0,0,0,0,0,0,0,0,0,0,0,0,0,0,0,0,0,0,0,0,0,0,0,0,0,0,0,0,0,0,0,0,0,0,0,0,0,0,0,0,0,0,0,0,0,0,0,0,0,0,0,0,0,0,0,0,0,0,0,0,0,0,0,0,0,0,0,0,0,0,0,0,0,0,0,0,0,0,0,0,0,0,0,0,0,0,0,0,0,0,0,0,0,0,0,0,0,0,0,0,0,0,0,0,0,0,
0,0,0,0,0,0,0,0,0,0,0,0,0,0,0,0,0,0,0,0,0,0,0,0,0,0,0,0,0,0,0,0,0,0,0,0,0,0,0,0,0,0,0,0,0,0,0,0,0,0,0,0,0,0,0,0,0,0,0,0,0,0,0,0,0,0,0,0,0,0,0,0,0,0,0,0,0,0,0,0,0,0,0,0,0,0,0,0,0,0,0,0,0,0,0,0,0,0,0,0,0,0,0,0,0,0,0,0,0,0,
0,0,0,0,0,0,0,0,0,0,0,0,0,0,0,0,0,0,0,0,0,0,0,0,0,0,0,0,0,0,0,0,0,0,0,0,0,0,0,0,0,0,0,0,0,0,0,0,0,0,0,0,0,0,0,0,0,0,0,0,0,0,0,0,0,0,0,0,0,0,0,0,0,0,0,0,0,0,0,0,0,0,0,0,0,0,0,0,0,0,0,0,0,0,0,0,0,0,0,0,0,0,0,0,0,0,0,0,0,0,
0,0,0,0,0,0,0,0,0,0,0,0,0,0,0,0,0,0,0,0,0,0,0,0,0,0,0,0,0,0,0,0,0,0,0,0,0,0,0,0,0,0,0,0,0,0,0,0,0,0,0,0,0,0,0,0,0,0,0,0,0,0,0,0,0,0,0,0,0,0,0,0,0,0,0,0,0,0,0,0,0,0,0,0,0,0,0,0,0,0,0,0,0,0,0,0,0,0,0,0,0,0,0,0,0,0,0,0,0,0,
0,0,0,0,0,0,0,0,0,0,0,0,0,0,0,0,0,0,0,0,0,0,0,0,0,0,0,0,0,0,0,0,0,0,0,0,0,0,0,0,0,0,0,0,0,0,0,0,0,0,0,0,0,0,0,0,0,0,0,0,0,0,0,0,0,0,0,0,0,0,0,0,0,0,0,0,0,0,0,0,0,0,0,0,0,0,0,0,0,0,0,0,0,0,0,0,0,0,0,0,0,0,0,0,0,0,0,0,0,0
</data>
 </layer>
 <layer name="Collision" width="110" height="84" visible="0">
  <data encoding="csv">
0,0,0,0,0,0,0,0,0,0,0,0,0,0,0,0,0,0,0,0,0,0,0,0,0,0,0,0,0,0,0,0,0,0,0,0,0,0,0,0,0,0,0,0,0,0,0,0,0,0,0,0,0,0,0,0,0,0,0,0,0,0,0,0,0,0,0,0,0,0,0,0,0,0,0,0,0,0,0,0,0,0,0,0,0,0,0,0,0,0,0,0,0,0,0,0,0,0,0,0,0,0,0,0,0,0,0,0,0,0,
0,0,0,0,0,0,0,0,0,0,0,0,0,0,0,0,0,0,0,0,0,0,0,0,0,0,0,0,0,0,0,0,0,0,0,0,0,0,0,0,0,0,0,0,0,0,0,0,0,0,0,0,0,0,0,0,0,0,0,0,0,0,0,0,0,0,0,0,0,0,0,0,0,0,0,0,0,0,0,0,0,0,0,0,0,0,0,0,0,0,0,0,0,0,0,0,0,0,0,0,0,0,0,0,0,0,0,0,0,0,
0,0,0,0,0,0,0,0,0,0,0,0,0,0,0,0,0,0,0,0,0,0,0,0,0,0,0,0,0,0,0,0,0,0,0,0,0,0,0,0,0,0,0,0,0,0,0,0,0,0,0,0,0,0,0,0,0,0,0,0,0,0,0,0,0,0,0,0,0,0,0,0,0,0,0,0,0,0,0,0,0,0,0,0,0,0,0,0,0,0,0,0,0,0,0,0,0,0,0,0,0,0,0,0,0,0,0,0,0,0,
0,0,0,0,0,0,0,0,0,0,0,0,0,0,0,0,0,0,0,0,0,0,0,0,0,0,0,0,0,0,0,0,0,0,0,0,0,0,0,0,0,0,0,0,0,0,0,0,0,0,0,0,0,0,0,0,0,0,0,0,0,0,0,0,0,0,0,0,0,0,0,0,0,0,0,0,0,0,0,0,0,0,0,0,0,0,0,0,0,0,0,0,0,0,0,0,0,0,0,0,0,0,0,0,0,0,0,0,0,0,
0,0,0,0,0,0,0,0,0,0,0,0,0,0,0,0,0,0,0,0,0,0,0,0,0,0,0,0,0,0,0,0,0,0,0,0,0,0,0,0,0,0,0,0,0,0,0,0,0,0,0,0,0,0,0,0,0,0,0,0,0,0,0,0,0,0,0,0,0,0,0,0,0,0,0,0,0,0,0,0,0,0,0,0,0,0,0,0,0,0,0,0,0,0,0,0,0,0,0,0,0,0,0,0,0,0,0,0,0,0,
0,0,0,0,0,0,0,0,0,0,0,0,0,0,0,0,0,0,0,0,0,0,0,0,0,0,0,0,0,0,0,0,0,0,0,0,0,0,0,0,0,0,0,0,0,0,0,0,0,0,0,0,0,0,0,0,0,0,0,0,0,0,0,0,0,0,0,0,0,0,0,0,0,0,0,0,0,0,0,0,0,0,0,0,0,0,0,0,0,0,0,0,0,0,0,0,0,0,0,0,0,0,0,0,0,0,0,0,0,0,
0,0,0,0,0,0,0,0,0,0,0,0,0,0,0,0,0,0,0,0,0,0,0,0,0,0,0,0,0,0,0,0,0,0,0,0,0,0,0,0,0,0,0,0,0,0,0,0,0,0,0,0,0,0,0,0,0,0,0,0,0,0,0,0,0,0,0,0,0,0,0,0,0,0,0,0,0,0,0,0,0,0,0,0,0,0,0,0,0,0,0,0,0,0,0,0,0,0,0,0,0,0,0,0,0,0,0,0,0,0,
0,0,0,0,0,0,0,0,0,0,0,0,0,0,0,0,0,0,0,0,0,0,0,0,0,0,0,0,0,0,0,0,0,0,0,0,0,0,0,0,0,0,0,0,0,0,0,0,0,0,0,0,0,0,0,0,0,0,0,0,0,0,0,0,0,0,0,0,0,0,0,0,0,0,0,0,0,0,0,0,0,0,0,0,0,0,0,0,0,0,0,0,0,0,0,0,0,0,0,0,0,0,0,0,0,0,0,0,0,0,
0,0,0,0,0,0,0,0,0,0,0,0,0,0,0,0,0,0,0,0,0,0,0,0,0,0,0,0,0,0,0,0,0,0,0,0,0,0,0,0,0,0,0,0,0,0,0,0,0,0,0,0,0,0,0,0,0,0,0,0,0,0,0,0,0,0,0,0,0,0,0,0,0,0,0,0,0,0,0,0,0,0,0,0,0,0,0,0,0,0,0,0,0,0,0,0,0,0,0,0,0,0,0,0,0,0,0,0,0,0,
0,0,0,0,0,0,0,0,0,0,0,0,0,0,0,0,0,0,0,0,0,0,0,0,0,0,0,0,0,0,0,0,0,0,0,0,0,0,0,0,0,0,0,0,0,0,0,0,0,0,0,0,0,0,0,0,0,0,0,0,0,0,0,0,0,0,0,0,0,0,0,0,0,0,0,0,0,0,0,0,0,0,0,0,0,0,0,0,0,0,0,0,0,0,0,0,0,0,0,0,0,0,0,0,0,0,0,0,0,0,
0,0,0,0,0,0,0,0,0,0,0,0,0,0,0,0,0,0,0,0,0,0,0,0,0,0,0,0,0,0,0,0,0,0,0,0,0,0,0,0,0,0,0,0,0,0,0,0,0,0,0,0,0,0,0,0,0,0,0,0,0,0,0,0,0,0,0,0,0,0,0,0,0,0,0,0,0,0,0,0,0,0,0,0,0,0,0,0,0,0,0,0,0,0,0,0,0,0,0,0,0,0,0,0,0,0,0,0,0,0,
0,0,0,0,0,0,0,0,0,0,0,0,0,0,0,0,0,0,0,0,0,0,0,0,0,0,0,0,0,0,0,0,0,0,0,0,0,0,0,0,0,0,0,0,0,0,0,0,0,0,0,0,0,0,0,0,0,0,0,0,0,0,0,0,0,0,0,0,0,0,0,0,0,0,0,0,0,0,0,0,0,0,0,0,0,0,0,0,0,0,0,0,0,0,0,0,0,0,0,0,0,0,0,0,0,0,0,0,0,0,
0,0,0,0,0,0,0,0,0,0,0,0,0,0,0,0,0,0,0,0,0,0,0,0,0,0,0,0,0,0,0,0,0,0,0,0,0,0,0,0,0,0,0,0,0,0,0,0,0,0,0,0,0,0,0,0,0,0,0,0,0,0,0,0,0,0,0,0,0,0,0,0,0,0,0,0,0,0,0,0,0,0,0,0,0,0,0,0,0,0,0,0,0,0,0,0,0,0,0,0,0,0,0,0,0,0,0,0,0,0,
0,0,0,0,0,0,0,0,0,0,0,0,0,0,0,0,0,0,0,0,0,0,0,0,0,0,0,0,0,0,0,0,0,0,0,0,0,0,0,0,0,0,0,0,0,0,0,0,0,0,0,0,0,0,0,0,0,0,0,0,0,0,0,0,0,0,0,0,0,0,0,0,0,0,0,0,0,0,0,0,0,0,0,0,0,0,0,0,0,0,0,0,0,0,0,0,0,0,0,0,0,0,0,0,0,0,0,0,0,0,
0,0,0,0,0,0,0,0,0,0,0,0,0,0,0,0,0,0,0,0,0,0,0,0,0,0,0,0,0,0,0,0,0,0,0,0,0,0,0,0,0,0,0,0,0,0,0,0,0,0,0,0,0,0,0,0,0,0,0,0,0,0,0,0,0,0,0,0,0,0,0,0,0,0,0,0,0,0,0,0,0,0,0,0,0,0,0,0,0,0,0,0,0,0,0,0,0,0,0,0,0,0,0,0,0,0,0,0,0,0,
0,0,0,0,0,0,0,0,0,0,0,0,0,0,0,0,0,0,0,0,0,0,0,0,0,0,0,0,0,0,0,0,0,0,0,0,0,0,0,0,0,0,0,0,0,0,0,0,0,0,0,2965,2965,0,0,0,0,2965,2965,0,0,0,0,0,0,0,0,0,0,0,0,0,0,0,0,0,0,0,0,0,0,0,0,0,0,0,0,0,0,0,0,0,0,0,0,0,0,0,0,0,0,0,0,0,0,0,0,0,0,0,
0,0,0,0,0,0,0,0,0,0,0,0,0,0,0,0,0,0,0,0,0,0,0,0,0,0,0,0,0,0,0,0,0,0,0,0,0,0,0,0,0,0,0,0,0,0,0,0,0,0,0,2965,2965,0,0,0,0,2965,2965,0,0,0,0,0,0,0,0,0,0,0,0,0,0,0,0,0,0,0,0,0,0,0,0,0,0,0,0,0,0,0,0,0,0,0,0,0,0,0,0,0,0,0,0,0,0,0,0,0,0,0,
0,0,0,0,0,0,0,0,0,0,0,0,0,0,0,0,0,0,0,0,0,0,0,0,0,0,0,0,0,0,0,0,0,0,0,0,0,0,0,0,0,0,0,0,0,0,0,0,0,0,0,2965,2965,0,0,0,0,2965,2965,0,0,0,0,0,0,0,0,0,0,0,0,0,0,0,0,0,0,0,0,0,0,0,0,0,0,0,0,0,0,0,0,0,0,0,0,0,0,0,0,0,0,0,0,0,0,0,0,0,0,0,
0,0,0,0,0,0,0,0,0,0,0,0,0,0,0,0,0,0,0,0,0,0,0,0,0,0,0,0,0,0,0,0,0,0,0,0,0,0,0,0,0,0,0,0,0,0,0,0,0,0,0,2965,2965,0,0,0,0,2965,2965,0,0,0,0,0,0,0,0,0,0,0,0,0,0,0,0,0,0,0,0,0,0,0,0,0,0,0,0,0,0,0,0,0,0,0,0,0,0,0,0,0,0,0,0,0,0,0,0,0,0,0,
0,0,0,0,0,0,0,0,0,0,0,0,0,0,0,0,0,0,0,0,0,0,0,0,0,0,0,0,0,0,0,0,0,0,0,0,0,0,0,0,0,0,0,0,0,0,0,0,0,0,0,2965,2965,0,0,0,0,2965,2965,0,0,0,0,0,0,0,0,0,0,0,0,0,0,0,0,0,0,0,0,0,0,0,0,0,0,0,0,0,0,0,0,0,0,0,0,0,0,0,0,0,0,0,0,0,0,0,0,0,0,0,
0,0,0,0,0,0,0,0,0,0,0,0,0,0,0,0,0,0,0,0,0,0,0,0,0,0,0,0,0,0,0,0,0,0,0,0,0,0,0,0,0,0,0,0,0,0,0,0,0,0,0,2965,2965,0,0,0,0,2965,2965,0,0,0,0,0,0,0,0,0,0,0,0,0,0,0,0,0,0,0,0,0,0,0,0,0,0,0,0,0,0,0,0,0,0,0,0,0,0,0,0,0,0,0,0,0,0,0,0,0,0,0,
0,0,0,0,0,0,0,0,0,0,0,0,0,0,0,0,0,0,0,0,0,0,0,0,0,0,0,0,0,0,0,0,0,0,0,0,0,0,0,0,0,0,0,0,0,0,0,0,0,0,0,2965,2965,0,0,0,0,2965,2965,0,0,0,0,0,0,0,0,0,0,0,0,0,0,0,0,0,0,0,0,0,0,0,0,0,0,0,0,0,0,0,0,0,0,0,0,0,0,0,0,0,0,0,0,0,0,0,0,0,0,0,
0,0,0,0,0,0,0,0,0,0,0,0,0,0,0,0,0,0,0,0,0,0,0,0,0,0,0,0,0,0,0,0,0,0,0,0,0,0,0,0,0,0,0,0,0,0,0,0,0,0,0,2965,2965,0,0,0,0,2965,2965,0,0,0,0,0,0,0,0,0,0,0,0,0,0,0,0,0,0,0,0,0,0,0,0,0,0,0,0,0,0,0,0,0,0,0,0,0,0,0,0,0,0,0,0,0,0,0,0,0,0,0,
0,0,0,0,0,0,0,0,0,0,0,0,0,0,0,0,0,0,0,0,0,0,0,0,0,0,0,0,0,0,0,0,0,0,0,0,0,0,0,0,0,0,0,0,0,0,0,0,0,0,0,2965,2965,0,0,0,0,2965,2965,0,0,0,0,0,0,0,0,0,0,0,0,0,0,0,0,0,0,0,0,0,0,0,0,0,0,0,0,0,0,0,0,0,0,0,0,0,0,0,0,0,0,0,0,0,0,0,0,0,0,0,
0,0,0,0,0,0,0,0,0,0,0,0,0,0,0,0,0,0,0,0,0,0,0,0,0,0,0,0,0,0,0,0,0,0,0,0,0,0,0,0,0,0,0,0,0,0,0,0,0,0,0,2965,2965,0,0,0,0,2965,2965,0,0,0,0,0,0,0,0,0,0,0,0,0,0,0,0,0,0,0,0,0,0,0,0,0,0,0,0,0,0,0,0,0,0,0,0,0,0,0,0,0,0,0,0,0,0,0,0,0,0,0,
0,0,0,0,0,0,0,0,0,0,0,0,0,0,0,0,0,0,0,0,0,0,0,0,0,0,0,0,0,0,0,0,0,0,0,0,0,0,0,0,0,0,0,0,0,0,0,0,0,0,0,2965,2965,0,0,0,0,2965,2965,0,0,0,0,0,0,0,0,0,0,0,0,0,0,0,0,0,0,0,0,0,0,0,0,0,0,0,0,0,0,0,0,0,0,0,0,0,0,0,0,0,0,0,0,0,0,0,0,0,0,0,
0,0,0,0,0,0,0,0,0,0,0,0,0,0,0,0,0,0,0,0,0,0,0,0,0,0,0,0,0,0,0,0,0,0,0,0,0,0,0,0,0,0,0,0,0,0,0,0,0,0,0,2965,2965,0,0,0,0,2965,2965,0,0,0,0,0,0,0,0,0,0,0,0,0,0,0,0,0,0,0,0,0,0,0,0,0,0,0,0,0,0,0,0,0,0,0,0,0,0,0,0,0,0,0,0,0,0,0,0,0,0,0,
0,0,0,0,0,0,0,0,0,0,0,0,0,0,0,0,0,0,0,0,0,0,0,0,0,0,0,0,0,0,0,0,0,0,0,0,0,0,0,0,0,0,0,0,0,0,0,0,0,0,0,2965,2965,0,0,0,0,2965,2965,0,0,0,0,0,0,0,0,0,0,0,0,0,0,0,0,0,0,0,0,0,0,0,0,0,0,0,0,0,0,0,0,0,0,0,0,0,0,0,0,0,0,0,0,0,0,0,0,0,0,0,
0,0,0,0,0,0,0,0,0,0,0,0,0,0,0,0,0,0,0,0,0,0,0,0,0,0,0,0,0,0,0,0,0,0,0,0,0,0,0,0,0,0,0,0,0,0,0,0,0,0,0,2965,2965,0,0,0,0,2965,2965,0,0,0,0,0,0,0,0,0,0,0,0,0,0,0,0,0,0,0,0,0,0,0,0,0,0,0,0,0,0,0,0,0,0,0,0,0,0,0,0,0,0,0,0,0,0,0,0,0,0,0,
0,0,0,0,0,0,0,0,0,0,0,0,0,0,0,0,0,0,0,0,0,0,0,0,0,0,0,0,0,0,0,0,0,0,0,0,0,0,0,0,0,0,0,0,0,0,0,0,0,0,0,2965,2965,0,0,0,0,2965,2965,0,0,0,0,0,0,0,0,0,0,0,0,0,0,0,0,0,0,0,0,0,0,0,0,0,0,0,0,0,0,0,0,0,0,0,0,0,0,0,0,0,0,0,0,0,0,0,0,0,0,0,
0,0,0,0,0,0,0,0,0,0,0,0,0,0,0,0,0,0,0,0,0,0,0,0,0,0,0,0,0,0,0,0,0,0,0,0,0,0,0,0,0,0,0,0,0,0,0,0,2965,2965,2965,2965,2965,0,0,0,0,2965,2965,2965,2965,2965,2965,0,0,0,0,0,0,0,0,0,0,0,0,0,0,0,0,0,0,0,0,0,0,0,0,0,0,0,0,0,0,0,0,0,0,0,0,0,0,0,0,0,0,0,0,0,0,0,
0,0,0,0,0,0,0,0,0,0,0,0,0,0,0,0,0,0,0,0,0,0,0,0,0,0,0,0,0,0,0,0,0,0,0,0,0,0,0,0,0,0,0,0,0,0,0,0,2965,2965,2965,2965,2965,0,0,0,0,2965,2965,2965,2965,2965,2965,0,0,0,0,0,0,0,0,0,0,0,0,0,0,0,0,0,0,0,0,0,0,0,0,0,0,0,0,0,0,0,0,0,0,0,0,0,0,0,0,0,0,0,0,0,0,0,
0,0,0,0,0,0,0,0,0,0,0,0,0,0,0,0,0,0,0,0,0,0,0,0,0,0,0,0,0,0,0,0,0,0,0,0,0,0,0,0,0,0,0,0,0,0,0,0,0,0,0,0,0,0,0,0,0,0,0,0,0,2965,2965,0,0,0,0,0,0,0,0,0,0,0,0,0,0,0,0,0,0,0,0,0,0,0,0,0,0,0,0,0,0,0,0,0,0,0,0,0,0,0,0,0,0,0,0,0,0,0,
0,0,0,0,0,0,0,0,0,0,0,0,0,0,0,0,0,0,0,0,0,0,0,0,0,0,0,0,0,0,0,0,0,0,0,0,0,0,0,0,0,0,0,0,0,0,0,0,0,0,0,0,0,0,0,0,0,0,0,0,0,2965,2965,0,0,0,0,0,0,0,0,0,0,0,0,0,0,0,0,0,0,0,0,0,0,0,0,0,0,0,0,0,0,0,0,0,0,0,0,0,0,0,0,0,0,0,0,0,0,0,
0,0,0,0,0,0,0,0,0,0,0,0,0,0,0,0,0,0,0,0,0,0,0,0,0,0,0,0,0,0,0,0,0,0,0,0,0,0,0,0,0,0,0,0,0,0,0,0,0,0,0,0,0,0,0,0,0,0,0,0,0,2965,2965,0,0,0,0,0,0,0,0,0,0,0,0,0,0,0,0,0,0,0,0,0,0,0,0,0,0,0,0,0,0,0,0,0,0,0,0,0,0,0,0,0,0,0,0,0,0,0,
0,0,0,0,0,0,0,0,0,0,0,0,0,0,0,0,0,0,0,0,0,0,0,0,0,0,0,0,0,0,0,0,0,0,0,0,0,0,0,0,0,0,0,0,0,0,0,0,0,0,0,0,0,0,0,0,0,0,0,0,0,2965,2965,0,0,0,0,0,0,0,0,0,0,0,0,0,0,0,0,0,0,0,0,0,0,0,0,0,0,0,0,0,0,0,0,0,0,0,0,0,0,0,0,0,0,0,0,0,0,0,
0,0,0,0,0,0,0,0,0,0,0,0,0,0,0,0,0,0,0,0,0,0,0,0,0,0,0,0,0,0,0,0,0,0,0,0,0,0,0,0,0,0,0,0,0,0,0,0,0,0,0,0,0,0,0,0,0,0,0,0,0,2965,2965,0,0,0,0,0,0,0,0,0,0,0,0,0,0,0,0,0,0,0,0,0,0,0,0,0,0,0,0,0,0,0,0,0,0,0,0,0,0,0,0,0,0,0,0,0,0,0,
0,0,0,0,0,0,0,0,0,0,0,0,0,0,0,0,0,0,0,0,0,0,0,0,0,0,0,0,0,0,0,2965,2965,2965,2965,2965,2965,2965,2965,2965,0,0,0,0,0,0,0,0,0,0,0,0,0,0,0,0,0,0,0,0,0,2965,2965,0,0,0,0,2965,2965,2965,2965,2965,2965,2965,2965,2965,2965,2965,2965,0,0,0,0,0,0,0,0,0,0,0,0,0,0,0,0,0,0,0,0,0,0,0,0,0,0,0,0,0,0,0,
0,0,0,0,0,0,0,0,0,0,0,0,0,0,0,0,0,0,0,0,0,0,0,0,0,0,0,0,0,0,0,2965,2965,2965,2965,2965,2965,2965,2965,2965,0,0,0,0,0,0,0,0,0,2965,2965,2965,2965,2965,2965,2965,2965,2965,2965,2965,2965,2965,2965,0,0,0,0,2965,2965,2965,2965,2965,2965,2965,2965,2965,2965,2965,2965,0,0,0,0,0,0,0,0,0,0,0,0,0,0,0,0,0,0,0,0,0,0,0,0,0,0,0,0,0,0,0,
0,0,0,0,0,0,0,0,0,0,0,0,0,0,0,0,0,0,0,0,0,0,0,0,0,0,0,0,0,0,0,2965,2965,0,0,0,0,0,0,0,0,0,0,0,0,0,0,0,0,2965,2965,2965,2965,2965,2965,2965,2965,2965,2965,2965,2965,2965,2965,0,0,0,0,2965,2965,0,0,0,0,0,0,0,0,2965,2965,0,0,0,0,0,0,0,0,0,0,0,0,0,0,0,0,0,0,0,0,0,0,0,0,0,0,0,0,0,0,0,
0,0,0,0,0,0,0,0,0,0,0,0,0,0,0,0,0,0,0,0,0,0,0,0,0,0,0,0,0,0,0,2965,2965,0,0,0,0,0,0,0,0,0,0,0,0,0,0,0,0,0,0,0,0,0,0,0,0,0,0,0,0,0,0,0,0,0,0,2965,2965,0,0,0,0,0,0,0,0,2965,2965,0,0,0,0,0,0,0,0,0,0,0,0,0,0,0,0,0,0,0,0,0,0,0,0,0,0,0,0,0,0,0,
0,0,0,0,0,0,0,0,0,0,0,0,0,0,0,0,0,0,0,0,0,0,0,0,0,0,0,0,0,0,0,2965,2965,0,0,0,0,0,0,0,0,0,0,0,0,0,0,0,0,0,0,0,0,0,0,0,0,0,0,0,0,0,0,0,0,0,0,2965,2965,0,0,0,0,0,0,0,0,2965,2965,0,0,0,0,0,0,0,0,0,0,0,0,0,0,0,0,0,0,0,0,0,0,0,0,0,0,0,0,0,0,0,
0,0,0,0,0,0,0,0,0,0,0,0,0,0,0,0,0,0,0,0,0,0,0,0,0,0,0,0,0,0,0,2965,2965,0,0,0,0,0,0,0,0,0,0,0,0,0,0,0,0,0,0,0,0,0,0,0,0,0,0,0,0,0,0,0,0,0,0,2965,2965,0,0,0,0,0,0,0,0,2965,2965,0,0,0,0,0,0,0,0,0,0,0,0,0,0,0,0,0,0,0,0,0,0,0,0,0,0,0,0,0,0,0,
0,0,0,0,0,0,0,0,0,0,0,0,0,0,0,0,0,0,0,0,0,0,0,0,0,0,0,0,0,0,0,2965,2965,0,0,0,0,0,0,0,0,0,0,0,0,0,0,0,0,0,0,0,0,0,0,0,0,0,0,0,0,0,0,0,0,0,0,2965,2965,0,0,0,0,0,0,0,0,2965,2965,0,0,0,0,0,0,0,0,0,0,0,0,0,0,0,0,0,0,0,0,0,0,0,0,0,0,0,0,0,0,0,
0,0,0,0,0,0,0,0,0,0,0,0,0,0,0,0,0,0,0,0,0,0,0,0,0,0,0,0,0,0,0,2965,2965,0,0,0,0,0,0,0,0,2965,2965,0,0,0,0,0,0,0,0,2965,2965,2965,2965,2965,2965,2965,2965,0,0,0,0,0,0,0,0,2965,2965,0,0,0,0,0,0,0,0,2965,2965,0,0,0,0,0,0,0,0,0,0,0,0,0,0,0,0,0,0,0,0,0,0,0,0,0,0,0,0,0,0,0,
0,0,0,0,0,0,0,0,0,0,0,0,0,0,0,0,0,0,0,0,0,0,0,0,0,0,0,0,0,0,0,2965,2965,2965,2965,0,0,0,0,2965,2965,2965,2965,0,0,0,0,0,0,0,0,2965,2965,2965,2965,2965,2965,2965,2965,0,0,0,0,0,0,0,0,2965,2965,2965,2965,0,0,0,0,2965,2965,2965,2965,0,0,0,0,0,0,0,0,0,0,0,0,0,0,0,0,0,0,0,0,0,0,0,0,0,0,0,0,0,0,0,
0,0,0,0,0,0,0,0,0,0,0,0,0,0,0,0,0,0,0,0,0,0,0,0,0,0,0,0,0,0,0,2965,2965,2965,2965,0,0,0,0,2965,2965,2965,2965,0,0,0,0,0,0,0,0,2965,2965,2965,2965,2965,2965,2965,2965,0,0,0,0,0,0,0,0,2965,2965,2965,2965,0,0,0,0,2965,2965,2965,2965,0,0,0,0,0,0,0,0,0,0,0,0,0,0,0,0,0,0,0,0,0,0,0,0,0,0,0,0,0,0,0,
0,0,0,0,0,0,0,0,0,0,0,0,0,0,0,0,0,0,0,0,0,0,0,0,0,0,0,0,0,0,0,0,0,2965,2965,0,0,0,0,2965,2965,0,0,0,0,0,0,0,0,0,0,2965,2965,2965,2965,2965,2965,2965,2965,0,0,0,0,0,0,0,0,0,0,2965,2965,0,0,0,0,2965,2965,0,0,0,0,0,0,0,0,0,0,0,0,0,0,0,0,0,0,0,0,0,0,0,0,0,0,0,0,0,0,0,0,0,
0,0,0,0,0,0,0,0,0,0,0,0,0,0,0,0,0,0,0,0,0,0,0,0,0,0,0,0,0,0,0,0,0,2965,2965,0,0,0,0,2965,2965,0,0,0,0,0,0,0,0,0,0,2965,2965,0,0,0,0,2965,2965,0,0,0,0,0,0,0,0,0,0,2965,2965,0,0,0,0,2965,2965,0,0,0,0,0,0,0,0,0,0,0,0,0,0,0,0,0,0,0,0,0,0,0,0,0,0,0,0,0,0,0,0,0,
0,0,0,0,0,0,0,0,0,0,0,0,0,0,0,0,0,0,0,0,0,0,0,0,0,0,0,0,0,0,0,0,0,2965,2965,0,0,0,0,2965,2965,0,0,0,0,0,0,0,0,0,0,2965,2965,0,0,0,0,2965,2965,0,0,0,0,0,0,0,0,0,0,2965,2965,0,0,0,0,2965,2965,0,0,0,0,0,0,0,0,0,0,0,0,0,0,0,0,0,0,0,0,0,0,0,0,0,0,0,0,0,0,0,0,0,
0,0,0,0,0,0,0,0,0,0,0,0,0,0,0,0,0,0,0,0,0,0,0,0,0,0,0,0,0,0,0,0,0,2965,2965,0,0,0,0,2965,2965,0,0,0,0,0,0,0,0,0,0,2965,2965,0,0,0,0,2965,2965,0,0,0,0,0,0,0,0,0,0,2965,2965,0,0,0,0,2965,2965,0,0,0,0,0,0,0,0,0,0,0,0,0,0,0,0,0,0,0,0,0,0,0,0,0,0,0,0,0,0,0,0,0,
0,0,0,0,0,0,0,0,0,0,0,0,0,0,0,0,0,0,0,0,0,0,0,0,0,0,0,0,0,0,0,0,0,2965,2965,0,0,0,0,2965,2965,0,0,0,0,0,0,0,0,0,0,2965,2965,0,0,0,0,2965,2965,0,0,0,0,0,0,0,0,0,0,2965,2965,0,0,0,0,2965,2965,0,0,0,0,0,0,0,0,0,0,0,0,0,0,0,0,0,0,0,0,0,0,0,0,0,0,0,0,0,0,0,0,0,
0,0,0,0,0,0,0,0,0,0,0,0,0,0,0,0,0,0,0,0,2965,2965,2965,2965,0,0,0,0,0,0,0,0,0,2965,2965,0,0,0,0,2965,2965,0,0,0,0,0,0,0,0,0,0,2965,2965,0,0,0,0,2965,2965,0,0,0,0,0,0,0,0,0,0,2965,2965,0,0,0,0,2965,2965,0,0,0,0,0,0,0,0,0,0,0,0,0,0,0,0,0,0,0,0,0,0,0,0,0,0,0,0,0,0,0,0,0,
0,0,0,0,0,0,0,0,0,0,0,0,0,0,0,0,0,0,0,0,2965,2965,2965,2965,0,0,0,0,0,0,0,0,0,2965,2965,0,0,0,0,2965,2965,0,0,0,0,0,0,0,0,0,0,2965,2965,0,0,0,0,2965,2965,0,0,0,0,0,0,0,0,0,0,2965,2965,0,0,0,0,2965,2965,0,0,0,0,0,0,0,0,0,0,0,0,0,0,0,0,0,0,0,0,0,0,0,0,0,0,0,0,0,0,0,0,0,
0,0,0,0,0,0,0,2965,2965,2965,2965,2965,2965,2965,2965,2965,2965,2965,2965,2965,2965,2965,2965,2965,2965,2965,2965,2965,2965,2965,2965,2965,0,2965,2965,0,0,0,0,2965,2965,0,0,0,0,0,0,0,0,0,0,2965,2965,0,0,0,0,2965,2965,0,0,0,0,0,0,0,0,0,0,2965,2965,0,0,0,0,2965,2965,2965,2965,2965,2965,2965,2965,2965,2965,2965,2965,2965,2965,2965,2965,2965,2965,2965,2965,2965,2965,2965,2965,2965,2965,2965,2965,0,0,0,0,0,0,0,
0,0,0,0,0,0,0,2965,2965,2965,2965,2965,2965,2965,2965,2965,2965,2965,2965,2965,2965,2965,2965,2965,2965,2965,2965,2965,2965,2965,2965,2965,0,2965,2965,0,0,0,0,2965,2965,0,0,0,0,0,0,0,0,0,0,2965,2965,0,0,0,0,2965,2965,0,0,0,0,0,0,0,0,0,0,2965,2965,0,0,0,0,2965,2965,2965,2965,2965,2965,2965,2965,2965,2965,2965,2965,2965,2965,2965,2965,2965,2965,2965,2965,2965,2965,2965,2965,2965,2965,2965,2965,0,0,0,0,0,0,0,
0,0,0,0,0,0,0,2965,2965,0,0,0,0,0,0,2965,2965,2965,2965,2965,0,0,0,0,0,0,0,0,0,0,0,2965,2965,2965,2965,0,0,0,0,2965,2965,2965,2965,2965,0,0,0,0,0,0,0,2965,2965,0,0,0,0,2965,2965,0,0,0,0,0,0,0,0,2965,2965,2965,2965,0,0,0,0,2965,2965,2965,0,0,0,0,0,0,0,0,0,2965,2965,2965,2965,0,0,2965,2965,2965,2965,0,0,0,0,2965,2965,0,0,0,0,0,0,0,
0,0,0,0,0,0,0,2965,2965,0,0,0,0,0,0,2965,2965,2965,2965,2965,0,0,0,0,0,0,0,0,0,0,0,0,2965,2965,2965,0,0,0,0,2965,2965,2965,0,0,0,0,0,0,0,0,0,2965,2965,0,0,0,0,2965,2965,0,0,0,0,0,0,0,0,2965,2965,2965,2965,0,0,0,0,2965,2965,2965,0,0,0,0,0,0,0,0,0,0,0,0,0,0,0,0,0,2965,2965,2965,2965,2965,2965,2965,2965,0,0,0,0,0,0,0,
0,0,0,0,0,0,0,2965,2965,0,0,0,0,0,0,0,0,0,0,0,0,0,0,0,0,0,0,0,0,0,0,0,0,0,0,0,0,0,0,0,0,2965,0,0,0,0,0,0,0,0,0,2965,2965,0,0,0,0,2965,2965,0,0,0,0,0,0,0,0,2965,2965,0,0,0,0,0,0,0,0,0,0,0,0,0,0,0,0,0,0,0,0,0,0,0,0,0,0,2965,2965,2965,2965,2965,2965,2965,2965,0,0,0,0,0,0,0,
0,0,0,0,0,0,0,2965,2965,0,0,0,0,0,0,0,0,0,0,0,0,0,0,0,0,0,0,0,0,0,0,0,0,0,0,0,0,0,0,0,0,2965,0,0,0,0,0,0,0,0,0,2965,2965,0,0,0,0,2965,2965,0,0,0,0,0,0,0,0,2965,2965,0,0,0,0,0,0,0,0,0,0,0,0,0,0,0,0,0,0,0,0,0,0,0,0,0,0,0,0,0,0,0,0,2965,2965,0,0,0,0,0,0,0,
0,0,0,0,0,0,0,2965,2965,0,0,0,0,0,0,0,0,0,0,0,0,0,0,0,0,0,0,0,0,0,0,0,0,0,0,0,0,0,0,0,0,2965,0,0,0,0,0,0,0,0,0,2965,2965,0,0,0,0,2965,2965,0,0,0,0,0,0,0,0,2965,2965,0,0,0,0,0,0,0,0,0,0,0,0,0,0,0,0,0,0,0,0,0,0,0,0,0,0,0,0,0,0,0,0,2965,2965,0,0,0,0,0,0,0,
0,0,0,0,0,0,0,2965,2965,0,0,0,0,0,0,0,0,0,0,0,0,0,0,0,0,0,0,0,0,0,0,0,0,0,0,0,0,0,0,0,0,2965,0,0,0,0,0,0,0,0,0,2965,2965,0,0,0,0,2965,2965,0,0,0,0,0,0,0,0,2965,2965,0,0,0,0,0,0,0,0,0,0,0,0,0,0,0,0,0,0,0,0,0,0,0,0,0,0,0,0,0,0,0,0,2965,2965,0,0,0,0,0,0,0,
0,0,0,0,0,0,0,2965,2965,0,0,0,0,0,0,0,0,0,0,0,0,0,0,0,0,0,0,0,0,0,0,0,0,0,0,0,0,0,0,0,0,0,0,0,0,0,0,0,0,0,0,2965,2965,0,0,0,0,2965,2965,0,0,0,0,0,0,0,0,0,0,0,0,0,0,0,0,0,0,0,0,0,0,0,0,0,0,0,0,0,0,0,0,0,0,0,0,0,0,0,0,2965,2965,2965,2965,0,0,0,0,0,0,0,
0,0,0,0,0,0,0,2965,2965,0,0,0,0,0,0,0,0,0,0,0,0,0,0,0,0,0,0,0,0,0,0,0,0,0,0,0,0,0,0,0,0,0,0,0,0,0,0,0,0,0,0,2965,2965,0,0,0,0,2965,2965,0,0,0,0,0,0,0,0,0,0,0,0,0,0,0,0,0,0,0,0,0,0,0,0,0,0,0,0,0,0,0,0,0,0,0,0,0,0,0,0,2965,2965,2965,2965,0,0,0,0,0,0,0,
0,0,0,0,0,0,0,2965,2965,0,0,0,0,0,0,0,0,0,0,0,0,0,0,0,0,0,0,0,0,0,0,0,2965,0,0,0,0,0,0,0,0,0,0,0,0,0,0,0,2965,2965,2965,2965,2965,0,0,0,0,2965,2965,2965,2965,2965,0,0,0,0,0,0,0,0,0,0,0,0,0,0,0,0,0,0,0,0,0,0,0,0,0,0,0,0,0,0,0,0,0,0,0,0,0,0,0,2965,2965,0,0,0,0,0,0,0,
0,0,0,0,0,0,0,2965,2965,0,0,0,0,0,0,0,0,0,0,0,0,0,0,0,0,0,0,0,0,0,0,0,2965,0,0,0,0,0,0,0,0,0,0,0,0,0,0,0,2965,2965,2965,2965,2965,0,0,0,0,2965,2965,2965,2965,2965,0,0,0,0,0,0,0,0,0,0,0,0,0,0,0,2965,2965,0,0,0,0,0,0,0,0,0,0,0,0,0,0,0,0,0,0,0,0,0,0,2965,2965,0,0,0,0,0,0,0,
0,0,0,0,0,0,0,2965,2965,0,0,0,0,0,0,0,0,0,0,0,0,0,0,0,0,0,0,0,0,0,0,0,2965,0,0,0,0,0,0,0,0,0,0,0,0,0,0,0,0,0,0,0,0,0,0,0,0,0,0,0,0,0,0,0,0,0,0,0,0,0,0,0,0,0,0,0,0,2965,2965,0,0,0,0,0,0,0,0,0,0,0,0,0,0,0,0,0,0,0,0,0,0,2965,2965,0,0,0,0,0,0,0,
0,0,0,0,0,0,0,2965,2965,2965,2965,2965,2965,2965,2965,2965,2965,2965,2965,2965,2965,2965,2965,2965,2965,2965,2965,2965,2965,2965,2965,0,2965,0,0,0,0,0,0,0,0,0,0,0,0,0,0,0,0,0,0,0,0,0,0,0,0,0,0,0,0,0,0,0,0,0,0,0,0,0,0,0,0,0,0,0,0,2965,2965,2965,2965,2965,2965,2965,2965,2965,2965,2965,2965,2965,2965,2965,2965,2965,2965,2965,2965,2965,2965,2965,2965,2965,2965,0,0,0,0,0,0,0,
0,0,0,0,0,0,0,2965,2965,2965,2965,2965,2965,2965,2965,2965,2965,2965,2965,2965,2965,2965,2965,2965,2965,2965,2965,2965,2965,2965,2965,0,2965,0,0,0,0,0,0,0,0,2965,0,0,0,0,0,0,0,0,0,0,0,0,0,0,0,0,0,0,0,0,0,0,0,0,0,0,2965,0,0,0,0,0,0,0,0,2965,2965,2965,2965,2965,2965,2965,2965,2965,2965,2965,2965,2965,2965,2965,2965,2965,2965,2965,2965,2965,2965,2965,2965,2965,2965,0,0,0,0,0,0,0,
0,0,0,0,0,0,0,0,0,0,0,0,0,0,0,0,0,0,0,0,0,0,0,0,0,0,0,0,0,0,0,0,2965,2965,2965,2965,2965,2965,2965,2965,2965,2965,0,0,0,0,0,0,0,0,0,0,0,0,0,0,0,0,0,0,0,0,0,0,0,0,0,2965,2965,2965,2965,2965,2965,2965,2965,2965,2965,2965,2965,0,0,0,0,0,0,0,0,0,0,0,0,0,0,0,0,0,0,0,0,0,0,0,0,0,0,0,0,0,0,0,
0,0,0,0,0,0,0,0,0,0,0,0,0,0,0,0,0,0,0,0,0,0,0,0,0,0,0,0,0,0,0,0,0,0,0,0,0,0,0,0,0,0,0,0,0,0,0,0,0,0,0,0,0,0,0,0,0,0,0,0,0,0,0,0,0,0,0,2965,2965,2965,2965,2965,2965,2965,2965,2965,2965,2965,2965,0,0,0,0,0,0,0,0,0,0,0,0,0,0,0,0,0,0,0,0,0,0,0,0,0,0,0,0,0,0,0,
0,0,0,0,0,0,0,0,0,0,0,0,0,0,0,0,0,0,0,0,0,0,0,0,0,0,0,0,0,0,0,0,0,0,0,0,0,0,0,0,0,0,0,0,0,0,0,0,0,0,0,0,0,0,0,0,0,0,0,0,0,0,0,0,0,0,0,0,0,0,0,0,0,0,0,0,0,0,0,0,0,0,0,0,0,0,0,0,0,0,0,0,0,0,0,0,0,0,0,0,0,0,0,0,0,0,0,0,0,0,
0,0,0,0,0,0,0,0,0,0,0,0,0,0,0,0,0,0,0,0,0,0,0,0,0,0,0,0,0,0,0,0,0,0,0,0,0,0,0,0,0,0,0,0,0,0,0,0,0,0,0,0,0,0,0,0,0,0,0,0,0,0,0,0,0,0,0,0,0,0,0,0,0,0,0,0,0,0,0,0,0,0,0,0,0,0,0,0,0,0,0,0,0,0,0,0,0,0,0,0,0,0,0,0,0,0,0,0,0,0,
0,0,0,0,0,0,0,0,0,0,0,0,0,0,0,0,0,0,0,0,0,0,0,0,0,0,0,0,0,0,0,0,0,0,0,0,0,0,0,0,0,0,0,0,0,0,0,0,2965,0,0,0,0,0,0,0,0,0,0,0,0,2965,0,0,0,0,0,0,0,0,0,0,0,0,0,0,0,0,0,0,0,0,0,0,0,0,0,0,0,0,0,0,0,0,0,0,0,0,0,0,0,0,0,0,0,0,0,0,0,0,
0,0,0,0,0,0,0,0,0,0,0,0,0,0,0,0,0,0,0,0,0,0,0,0,0,0,0,0,0,0,0,0,0,0,0,0,0,0,0,0,0,0,0,0,0,0,0,0,2965,0,0,0,0,0,0,0,0,0,0,0,0,2965,0,0,0,0,0,0,0,0,0,0,0,0,0,0,0,0,0,0,0,0,0,0,0,0,0,0,0,0,0,0,0,0,0,0,0,0,0,0,0,0,0,0,0,0,0,0,0,0,
0,0,0,0,0,0,0,0,0,0,0,0,0,0,0,0,0,0,0,0,0,0,0,0,0,0,0,0,0,0,0,0,0,0,0,0,0,0,0,0,0,0,0,0,0,0,0,0,2965,0,0,0,0,0,0,0,0,0,0,0,0,2965,0,0,0,0,0,0,0,0,0,0,0,0,0,0,0,0,0,0,0,0,0,0,0,0,0,0,0,0,0,0,0,0,0,0,0,0,0,0,0,0,0,0,0,0,0,0,0,0,
0,0,0,0,0,0,0,0,0,0,0,0,0,0,0,0,0,0,0,0,0,0,0,0,0,0,0,0,0,0,0,0,0,0,0,0,0,0,0,0,0,0,0,0,0,0,0,0,2965,2965,2965,2965,0,0,0,0,0,0,2965,2965,2965,2965,0,0,0,0,0,0,0,0,0,0,0,0,0,0,0,0,0,0,0,0,0,0,0,0,0,0,0,0,0,0,0,0,0,0,0,0,0,0,0,0,0,0,0,0,0,0,0,0,
0,0,0,0,0,0,0,0,0,0,0,0,0,0,0,0,0,0,0,0,0,0,0,0,0,0,0,0,0,0,0,0,0,0,0,0,0,0,0,0,0,0,0,0,0,0,0,0,2965,2965,2965,2965,0,0,0,0,0,0,2965,2965,2965,2965,0,0,0,0,0,0,0,0,0,0,0,0,0,0,0,0,0,0,0,0,0,0,0,0,0,0,0,0,0,0,0,0,0,0,0,0,0,0,0,0,0,0,0,0,0,0,0,0,
0,0,0,0,0,0,0,0,0,0,0,0,0,0,0,0,0,0,0,0,0,0,0,0,0,0,0,0,0,0,0,0,0,0,0,0,0,0,0,0,0,0,0,0,0,0,0,0,0,0,0,2965,0,0,0,0,0,0,2965,0,0,0,0,0,0,0,0,0,0,0,0,0,0,0,0,0,0,0,0,0,0,0,0,0,0,0,0,0,0,0,0,0,0,0,0,0,0,0,0,0,0,0,0,0,0,0,0,0,0,0,
0,0,0,0,0,0,0,0,0,0,0,0,0,0,0,0,0,0,0,0,0,0,0,0,0,0,0,0,0,0,0,0,0,0,0,0,0,0,0,0,0,0,0,0,0,0,0,0,0,0,0,2965,0,0,0,0,0,0,2965,0,0,0,0,0,0,0,0,0,0,0,0,0,0,0,0,0,0,0,0,0,0,0,0,0,0,0,0,0,0,0,0,0,0,0,0,0,0,0,0,0,0,0,0,0,0,0,0,0,0,0,
0,0,0,0,0,0,0,0,0,0,0,0,0,0,0,0,0,0,0,0,0,0,0,0,0,0,0,0,0,0,0,0,0,0,0,0,0,0,0,0,0,0,0,0,0,0,0,0,0,0,0,2965,0,0,0,0,0,0,2965,0,0,0,0,0,0,0,0,0,0,0,0,0,0,0,0,0,0,0,0,0,0,0,0,0,0,0,0,0,0,0,0,0,0,0,0,0,0,0,0,0,0,0,0,0,0,0,0,0,0,0,
0,0,0,0,0,0,0,0,0,0,0,0,0,0,0,0,0,0,0,0,0,0,0,0,0,0,0,0,0,0,0,0,0,0,0,0,0,0,0,0,0,0,0,0,0,0,0,0,0,0,0,2965,0,0,0,0,0,0,2965,0,0,0,0,0,0,0,0,0,0,0,0,0,0,0,0,0,0,0,0,0,0,0,0,0,0,0,0,0,0,0,0,0,0,0,0,0,0,0,0,0,0,0,0,0,0,0,0,0,0,0,
0,0,0,0,0,0,0,0,0,0,0,0,0,0,0,0,0,0,0,0,0,0,0,0,0,0,0,0,0,0,0,0,0,0,0,0,0,0,0,0,0,0,0,0,0,0,0,0,0,0,0,2965,0,0,0,0,0,0,2965,0,0,0,0,0,0,0,0,0,0,0,0,0,0,0,0,0,0,0,0,0,0,0,0,0,0,0,0,0,0,0,0,0,0,0,0,0,0,0,0,0,0,0,0,0,0,0,0,0,0,0,
0,0,0,0,0,0,0,0,0,0,0,0,0,0,0,0,0,0,0,0,0,0,0,0,0,0,0,0,0,0,0,0,0,0,0,0,0,0,0,0,0,0,0,0,0,0,0,0,0,0,0,2965,0,0,0,0,0,0,2965,0,0,0,0,0,0,0,0,0,0,0,0,0,0,0,0,0,0,0,0,0,0,0,0,0,0,0,0,0,0,0,0,0,0,0,0,0,0,0,0,0,0,0,0,0,0,0,0,0,0,0
</data>
 </layer>
 <layer name="BunnyExtCollision" width="110" height="84" visible="0">
  <data encoding="csv">
0,0,0,0,0,0,0,0,0,0,0,0,0,0,0,0,0,0,0,0,0,0,0,0,0,0,0,0,0,0,0,0,0,0,0,0,0,0,0,0,0,0,0,0,0,0,0,0,0,0,0,0,0,0,0,0,0,0,0,0,0,0,0,0,0,0,0,0,0,0,0,0,0,0,0,0,0,0,0,0,0,0,0,0,0,0,0,0,0,0,0,0,0,0,0,0,0,0,0,0,0,0,0,0,0,0,0,0,0,0,
0,0,0,0,0,0,0,0,0,0,0,0,0,0,0,0,0,0,0,0,0,0,0,0,0,0,0,0,0,0,0,0,0,0,0,0,0,0,0,0,0,0,0,0,0,0,0,0,0,0,0,0,0,0,0,0,0,0,0,0,0,0,0,0,0,0,0,0,0,0,0,0,0,0,0,0,0,0,0,0,0,0,0,0,0,0,0,0,0,0,0,0,0,0,0,0,0,0,0,0,0,0,0,0,0,0,0,0,0,0,
0,0,0,0,0,0,0,0,0,0,0,0,0,0,0,0,0,0,0,0,0,0,0,0,0,0,0,0,0,0,0,0,0,0,0,0,0,0,0,0,0,0,0,0,0,0,0,0,0,0,0,0,0,0,0,0,0,0,0,0,0,0,0,0,0,0,0,0,0,0,0,0,0,0,0,0,0,0,0,0,0,0,0,0,0,0,0,0,0,0,0,0,0,0,0,0,0,0,0,0,0,0,0,0,0,0,0,0,0,0,
0,0,0,0,0,0,0,0,0,0,0,0,0,0,0,0,0,0,0,0,0,0,0,0,0,0,0,0,0,0,0,0,0,0,0,0,0,0,0,0,0,0,0,0,0,0,0,0,0,0,0,0,0,0,0,0,0,0,0,0,0,0,0,0,0,0,0,0,0,0,0,0,0,0,0,0,0,0,0,0,0,0,0,0,0,0,0,0,0,0,0,0,0,0,0,0,0,0,0,0,0,0,0,0,0,0,0,0,0,0,
0,0,0,0,0,0,0,0,0,0,0,0,0,0,0,0,0,0,0,0,0,0,0,0,0,0,0,0,0,0,0,0,0,0,0,0,0,0,0,0,0,0,0,0,0,0,0,0,0,0,0,0,0,0,0,0,0,0,0,0,0,0,0,0,0,0,0,0,0,0,0,0,0,0,0,0,0,0,0,0,0,0,0,0,0,0,0,0,0,0,0,0,0,0,0,0,0,0,0,0,0,0,0,0,0,0,0,0,0,0,
0,0,0,0,0,0,0,0,0,0,0,0,0,0,0,0,0,0,0,0,0,0,0,0,0,0,0,0,0,0,0,0,0,0,0,0,0,0,0,0,0,0,0,0,0,0,0,0,0,0,0,0,0,0,0,0,0,0,0,0,0,0,0,0,0,0,0,0,0,0,0,0,0,0,0,0,0,0,0,0,0,0,0,0,0,0,0,0,0,0,0,0,0,0,0,0,0,0,0,0,0,0,0,0,0,0,0,0,0,0,
0,0,0,0,0,0,0,0,0,0,0,0,0,0,0,0,0,0,0,0,0,0,0,0,0,0,0,0,0,0,0,0,0,0,0,0,0,0,0,0,0,0,0,0,0,0,0,0,0,0,0,0,0,0,0,0,0,0,0,0,0,0,0,0,0,0,0,0,0,0,0,0,0,0,0,0,0,0,0,0,0,0,0,0,0,0,0,0,0,0,0,0,0,0,0,0,0,0,0,0,0,0,0,0,0,0,0,0,0,0,
0,0,0,0,0,0,0,0,0,0,0,0,0,0,0,0,0,0,0,0,0,0,0,0,0,0,0,0,0,0,0,0,0,0,0,0,0,0,0,0,0,0,0,0,0,0,0,0,0,0,0,0,0,0,0,0,0,0,0,0,0,0,0,0,0,0,0,0,0,0,0,0,0,0,0,0,0,0,0,0,0,0,0,0,0,0,0,0,0,0,0,0,0,0,0,0,0,0,0,0,0,0,0,0,0,0,0,0,0,0,
0,0,0,0,0,0,0,0,0,0,0,0,0,0,0,0,0,0,0,0,0,0,0,0,0,0,0,0,0,0,0,0,0,0,0,0,0,0,0,0,0,0,0,0,0,0,0,0,0,0,0,0,0,0,0,0,0,0,0,0,0,0,0,0,0,0,0,0,0,0,0,0,0,0,0,0,0,0,0,0,0,0,0,0,0,0,0,0,0,0,0,0,0,0,0,0,0,0,0,0,0,0,0,0,0,0,0,0,0,0,
0,0,0,0,0,0,0,0,0,0,0,0,0,0,0,0,0,0,0,0,0,0,0,0,0,0,0,0,0,0,0,0,0,0,0,0,0,0,0,0,0,0,0,0,0,0,0,0,0,0,0,0,0,0,0,0,0,0,0,0,0,0,0,0,0,0,0,0,0,0,0,0,0,0,0,0,0,0,0,0,0,0,0,0,0,0,0,0,0,0,0,0,0,0,0,0,0,0,0,0,0,0,0,0,0,0,0,0,0,0,
0,0,0,0,0,0,0,0,0,0,0,0,0,0,0,0,0,0,0,0,0,0,0,0,0,0,0,0,0,0,0,0,0,0,0,0,0,0,0,0,0,0,0,0,0,0,0,0,0,0,0,0,0,0,0,0,0,0,0,0,0,0,0,0,0,0,0,0,0,0,0,0,0,0,0,0,0,0,0,0,0,0,0,0,0,0,0,0,0,0,0,0,0,0,0,0,0,0,0,0,0,0,0,0,0,0,0,0,0,0,
0,0,0,0,0,0,0,0,0,0,0,0,0,0,0,0,0,0,0,0,0,0,0,0,0,0,0,0,0,0,0,0,0,0,0,0,0,0,0,0,0,0,0,0,0,0,0,0,0,0,0,0,0,0,0,0,0,0,0,0,0,0,0,0,0,0,0,0,0,0,0,0,0,0,0,0,0,0,0,0,0,0,0,0,0,0,0,0,0,0,0,0,0,0,0,0,0,0,0,0,0,0,0,0,0,0,0,0,0,0,
0,0,0,0,0,0,0,0,0,0,0,0,0,0,0,0,0,0,0,0,0,0,0,0,0,0,0,0,0,0,0,0,0,0,0,0,0,0,0,0,0,0,0,0,0,0,0,0,0,0,0,0,0,0,0,0,0,0,0,0,0,0,0,0,0,0,0,0,0,0,0,0,0,0,0,0,0,0,0,0,0,0,0,0,0,0,0,0,0,0,0,0,0,0,0,0,0,0,0,0,0,0,0,0,0,0,0,0,0,0,
0,0,0,0,0,0,0,0,0,0,0,0,0,0,0,0,0,0,0,0,0,0,0,0,0,0,0,0,0,0,0,0,0,0,0,0,0,0,0,0,0,0,0,0,0,0,0,0,0,0,0,0,0,0,0,0,0,0,0,0,0,0,0,0,0,0,0,0,0,0,0,0,0,0,0,0,0,0,0,0,0,0,0,0,0,0,0,0,0,0,0,0,0,0,0,0,0,0,0,0,0,0,0,0,0,0,0,0,0,0,
0,0,0,0,0,0,0,0,0,0,0,0,0,0,0,0,0,0,0,0,0,0,0,0,0,0,0,0,0,0,0,0,0,0,0,0,0,0,0,0,0,0,0,0,0,0,0,0,0,0,0,0,0,0,0,0,0,0,0,0,0,0,0,0,0,0,0,0,0,0,0,0,0,0,0,0,0,0,0,0,0,0,0,0,0,0,0,0,0,0,0,0,0,0,0,0,0,0,0,0,0,0,0,0,0,0,0,0,0,0,
0,0,0,0,0,0,0,0,0,0,0,0,0,0,0,0,0,0,0,0,0,0,0,0,0,0,0,0,0,0,0,0,0,0,0,0,0,0,0,0,0,0,0,0,0,0,0,0,0,0,0,0,0,0,0,0,0,0,0,0,0,0,0,0,0,0,0,0,0,0,0,0,0,0,0,0,0,0,0,0,0,0,0,0,0,0,0,0,0,0,0,0,0,0,0,0,0,0,0,0,0,0,0,0,0,0,0,0,0,0,
0,0,0,0,0,0,0,0,0,0,0,0,0,0,0,0,0,0,0,0,0,0,0,0,0,0,0,0,0,0,0,0,0,0,0,0,0,0,0,0,0,0,0,0,0,0,0,0,0,0,0,0,0,0,0,0,0,0,0,0,0,0,0,0,0,0,0,0,0,0,0,0,0,0,0,0,0,0,0,0,0,0,0,0,0,0,0,0,0,0,0,0,0,0,0,0,0,0,0,0,0,0,0,0,0,0,0,0,0,0,
0,0,0,0,0,0,0,0,0,0,0,0,0,0,0,0,0,0,0,0,0,0,0,0,0,0,0,0,0,0,0,0,0,0,0,0,0,0,0,0,0,0,0,0,0,0,0,0,0,0,0,0,0,0,0,0,0,0,0,0,0,0,0,0,0,0,0,0,0,0,0,0,0,0,0,0,0,0,0,0,0,0,0,0,0,0,0,0,0,0,0,0,0,0,0,0,0,0,0,0,0,0,0,0,0,0,0,0,0,0,
0,0,0,0,0,0,0,0,0,0,0,0,0,0,0,0,0,0,0,0,0,0,0,0,0,0,0,0,0,0,0,0,0,0,0,0,0,0,0,0,0,0,0,0,0,0,0,0,0,0,0,0,0,0,0,0,0,0,0,0,0,0,0,0,0,0,0,0,0,0,0,0,0,0,0,0,0,0,0,0,0,0,0,0,0,0,0,0,0,0,0,0,0,0,0,0,0,0,0,0,0,0,0,0,0,0,0,0,0,0,
0,0,0,0,0,0,0,0,0,0,0,0,0,0,0,0,0,0,0,0,0,0,0,0,0,0,0,0,0,0,0,0,0,0,0,0,0,0,0,0,0,0,0,0,0,0,0,0,0,0,0,0,0,0,0,0,0,0,0,0,0,0,0,0,0,0,0,0,0,0,0,0,0,0,0,0,0,0,0,0,0,0,0,0,0,0,0,0,0,0,0,0,0,0,0,0,0,0,0,0,0,0,0,0,0,0,0,0,0,0,
0,0,0,0,0,0,0,0,0,0,0,0,0,0,0,0,0,0,0,0,0,0,0,0,0,0,0,0,0,0,0,0,0,0,0,0,0,0,0,0,0,0,0,0,0,0,0,0,0,0,0,0,0,0,0,0,0,0,0,0,0,0,0,0,0,0,0,0,0,0,0,0,0,0,0,0,0,0,0,0,0,0,0,0,0,0,0,0,0,0,0,0,0,0,0,0,0,0,0,0,0,0,0,0,0,0,0,0,0,0,
0,0,0,0,0,0,0,0,0,0,0,0,0,0,0,0,0,0,0,0,0,0,0,0,0,0,0,0,0,0,0,0,0,0,0,0,0,0,0,0,0,0,0,0,0,0,0,0,0,0,0,0,0,0,0,0,0,0,0,0,0,0,0,0,0,0,0,0,0,0,0,0,0,0,0,0,0,0,0,0,0,0,0,0,0,0,0,0,0,0,0,0,0,0,0,0,0,0,0,0,0,0,0,0,0,0,0,0,0,0,
0,0,0,0,0,0,0,0,0,0,0,0,0,0,0,0,0,0,0,0,0,0,0,0,0,0,0,0,0,0,0,0,0,0,0,0,0,0,0,0,0,0,0,0,0,0,0,0,0,0,0,0,0,0,0,0,0,0,0,0,0,0,0,0,0,0,0,0,0,0,0,0,0,0,0,0,0,0,0,0,0,0,0,0,0,0,0,0,0,0,0,0,0,0,0,0,0,0,0,0,0,0,0,0,0,0,0,0,0,0,
0,0,0,0,0,0,0,0,0,0,0,0,0,0,0,0,0,0,0,0,0,0,0,0,0,0,0,0,0,0,0,0,0,0,0,0,0,0,0,0,0,0,0,0,0,0,0,0,0,0,0,0,0,0,0,0,0,0,0,0,0,0,0,0,0,0,0,0,0,0,0,0,0,0,0,0,0,0,0,0,0,0,0,0,0,0,0,0,0,0,0,0,0,0,0,0,0,0,0,0,0,0,0,0,0,0,0,0,0,0,
0,0,0,0,0,0,0,0,0,0,0,0,0,0,0,0,0,0,0,0,0,0,0,0,0,0,0,0,0,0,0,0,0,0,0,0,0,0,0,0,0,0,0,0,0,0,0,0,0,0,0,0,0,0,0,0,0,0,0,0,0,0,0,0,0,0,0,0,0,0,0,0,0,0,0,0,0,0,0,0,0,0,0,0,0,0,0,0,0,0,0,0,0,0,0,0,0,0,0,0,0,0,0,0,0,0,0,0,0,0,
0,0,0,0,0,0,0,0,0,0,0,0,0,0,0,0,0,0,0,0,0,0,0,0,0,0,0,0,0,0,0,0,0,0,0,0,0,0,0,0,0,0,0,0,0,0,0,0,0,0,0,0,0,0,0,0,0,0,0,0,0,0,0,0,0,0,0,0,0,0,0,0,0,0,0,0,0,0,0,0,0,0,0,0,0,0,0,0,0,0,0,0,0,0,0,0,0,0,0,0,0,0,0,0,0,0,0,0,0,0,
0,0,0,0,0,0,0,0,0,0,0,0,0,0,0,0,0,0,0,0,0,0,0,0,0,0,0,0,0,0,0,0,0,0,0,0,0,0,0,0,0,0,0,0,0,0,0,0,0,0,0,0,0,0,0,0,0,0,0,0,0,0,0,0,0,0,0,0,0,0,0,0,0,0,0,0,0,0,0,0,0,0,0,0,0,0,0,0,0,0,0,0,0,0,0,0,0,0,0,0,0,0,0,0,0,0,0,0,0,0,
0,0,0,0,0,0,0,0,0,0,0,0,0,0,0,0,0,0,0,0,0,0,0,0,0,0,0,0,0,0,0,0,0,0,0,0,0,0,0,0,0,0,0,0,0,0,0,0,0,0,0,0,0,0,0,0,0,0,0,0,0,0,0,0,0,0,0,0,0,0,0,0,0,0,0,0,0,0,0,0,0,0,0,0,0,0,0,0,0,0,0,0,0,0,0,0,0,0,0,0,0,0,0,0,0,0,0,0,0,0,
0,0,0,0,0,0,0,0,0,0,0,0,0,0,0,0,0,0,0,0,0,0,0,0,0,0,0,0,0,0,0,0,0,0,0,0,0,0,0,0,0,0,0,0,0,0,0,0,0,0,0,0,0,0,0,0,0,0,0,0,0,0,0,0,0,0,0,0,0,0,0,0,0,0,0,0,0,0,0,0,0,0,0,0,0,0,0,0,0,0,0,0,0,0,0,0,0,0,0,0,0,0,0,0,0,0,0,0,0,0,
0,0,0,0,0,0,0,0,0,0,0,0,0,0,0,0,0,0,0,0,0,0,0,0,0,0,0,0,0,0,0,0,0,0,0,0,0,0,0,0,0,0,0,0,0,0,0,0,0,0,0,0,0,0,0,0,0,0,0,0,0,0,0,0,0,0,0,0,0,0,0,0,0,0,0,0,0,0,0,0,0,0,0,0,0,0,0,0,0,0,0,0,0,0,0,0,0,0,0,0,0,0,0,0,0,0,0,0,0,0,
0,0,0,0,0,0,0,0,0,0,0,0,0,0,0,0,0,0,0,0,0,0,0,0,0,0,0,0,0,0,0,0,0,0,0,0,0,0,0,0,0,0,0,0,0,0,0,0,0,0,0,0,0,0,0,0,0,0,0,0,0,0,0,0,0,0,0,0,0,0,0,0,0,0,0,0,0,0,0,0,0,0,0,0,0,0,0,0,0,0,0,0,0,0,0,0,0,0,0,0,0,0,0,0,0,0,0,0,0,0,
0,0,0,0,0,0,0,0,0,0,0,0,0,0,0,0,0,0,0,0,0,0,0,0,0,0,0,0,0,0,0,0,0,0,0,0,0,0,0,0,0,0,0,0,0,0,0,0,0,0,0,0,0,0,0,0,0,0,0,0,0,0,0,0,0,0,0,0,0,0,0,0,0,0,0,0,0,0,0,0,0,0,0,0,0,0,0,0,0,0,0,0,0,0,0,0,0,0,0,0,0,0,0,0,0,0,0,0,0,0,
0,0,0,0,0,0,0,0,0,0,0,0,0,0,0,0,0,0,0,0,0,0,0,0,0,0,0,0,0,0,0,0,0,0,0,0,0,0,0,0,0,0,0,0,0,0,0,0,0,0,0,0,0,0,0,0,0,0,0,0,0,0,0,0,0,0,0,0,0,0,0,0,0,0,0,0,0,0,0,0,0,0,0,0,0,0,0,0,0,0,0,0,0,0,0,0,0,0,0,0,0,0,0,0,0,0,0,0,0,0,
0,0,0,0,0,0,0,0,0,0,0,0,0,0,0,0,0,0,0,0,0,0,0,0,0,0,0,0,0,0,0,0,0,0,0,0,0,0,0,0,0,0,0,0,0,0,0,0,0,0,0,0,0,0,0,0,0,0,0,0,0,0,0,0,0,0,0,0,0,0,0,0,0,0,0,0,0,0,0,0,0,0,0,0,0,0,0,0,0,0,0,0,0,0,0,0,0,0,0,0,0,0,0,0,0,0,0,0,0,0,
0,0,0,0,0,0,0,0,0,0,0,0,0,0,0,0,0,0,0,0,0,0,0,0,0,0,0,0,0,0,0,0,0,0,0,0,0,0,0,0,0,0,0,0,0,0,0,0,0,0,0,0,0,0,0,0,0,0,0,0,0,0,0,0,0,0,0,0,0,0,0,0,0,0,0,0,0,0,0,0,0,0,0,0,0,0,0,0,0,0,0,0,0,0,0,0,0,0,0,0,0,0,0,0,0,0,0,0,0,0,
0,0,0,0,0,0,0,0,0,0,0,0,0,0,0,0,0,0,0,0,0,0,0,0,0,0,0,0,0,0,0,0,0,0,0,0,0,0,0,0,0,0,0,0,0,0,0,0,0,0,0,0,0,0,0,0,0,0,0,0,0,0,0,0,0,0,0,0,0,0,0,0,0,0,0,0,0,0,0,0,0,0,0,0,0,0,0,0,0,0,0,0,0,0,0,0,0,0,0,0,0,0,0,0,0,0,0,0,0,0,
0,0,0,0,0,0,0,0,0,0,0,0,0,0,0,0,0,0,0,0,0,0,0,0,0,0,0,0,0,0,0,0,0,0,0,0,0,0,0,0,0,0,0,0,0,0,0,0,0,0,0,0,0,0,0,0,0,0,0,0,0,0,0,0,0,0,0,0,0,0,0,0,0,0,0,0,0,0,0,0,0,0,0,0,0,0,0,0,0,0,0,0,0,0,0,0,0,0,0,0,0,0,0,0,0,0,0,0,0,0,
0,0,0,0,0,0,0,0,0,0,0,0,0,0,0,0,0,0,0,0,0,0,0,0,0,0,0,0,0,0,0,0,0,0,0,0,0,0,0,0,0,0,0,0,0,0,0,0,0,0,0,0,0,0,0,0,0,0,0,0,0,0,0,0,0,0,0,0,0,0,0,0,0,0,0,0,0,0,0,0,0,0,0,0,0,0,0,0,0,0,0,0,0,0,0,0,0,0,0,0,0,0,0,0,0,0,0,0,0,0,
0,0,0,0,0,0,0,0,0,0,0,0,0,0,0,0,0,0,0,0,0,0,0,0,0,0,0,0,0,0,0,0,0,0,0,0,0,0,0,0,0,0,0,0,0,0,0,0,0,0,0,0,0,0,0,0,0,0,0,0,0,0,0,0,0,0,0,0,0,0,0,0,0,0,0,0,0,0,0,0,0,0,0,0,0,0,0,0,0,0,0,0,0,0,0,0,0,0,0,0,0,0,0,0,0,0,0,0,0,0,
0,0,0,0,0,0,0,0,0,0,0,0,0,0,0,0,0,0,0,0,0,0,0,0,0,0,0,0,0,0,0,0,0,0,0,0,0,0,0,0,0,0,0,0,0,0,0,0,0,0,0,0,0,0,0,0,0,0,0,0,0,0,0,0,0,0,0,0,0,0,0,0,0,0,0,0,0,0,0,0,0,0,0,0,0,0,0,0,0,0,0,0,0,0,0,0,0,0,0,0,0,0,0,0,0,0,0,0,0,0,
0,0,0,0,0,0,0,0,0,0,0,0,0,0,0,0,0,0,0,0,0,0,0,0,0,0,0,0,0,0,0,0,0,0,0,0,0,0,0,0,0,0,0,0,0,0,0,0,0,0,0,0,0,0,0,0,0,0,0,0,0,0,0,0,0,0,0,0,0,0,0,0,0,0,0,0,0,0,0,0,0,0,0,0,0,0,0,0,0,0,0,0,0,0,0,0,0,0,0,0,0,0,0,0,0,0,0,0,0,0,
0,0,0,0,0,0,0,0,0,0,0,0,0,0,0,0,0,0,0,0,0,0,0,0,0,0,0,0,0,0,0,0,0,0,0,0,0,0,0,0,0,0,0,0,0,0,0,0,0,0,0,0,0,0,0,0,0,0,0,0,0,0,0,0,0,0,0,0,0,0,0,0,0,0,0,0,0,0,0,0,0,0,0,0,0,0,0,0,0,0,0,0,0,0,0,0,0,0,0,0,0,0,0,0,0,0,0,0,0,0,
0,0,0,0,0,0,0,0,0,0,0,0,0,0,0,0,0,0,0,0,0,0,0,0,0,0,0,0,0,0,0,0,0,0,0,0,0,0,0,0,0,0,0,0,0,0,0,0,0,0,0,0,0,0,0,0,0,0,0,0,0,0,0,0,0,0,0,0,0,0,0,0,0,0,0,0,0,0,0,0,0,0,0,0,0,0,0,0,0,0,0,0,0,0,0,0,0,0,0,0,0,0,0,0,0,0,0,0,0,0,
0,0,0,0,0,0,0,0,0,0,0,0,0,0,0,0,0,0,0,0,0,0,0,0,0,0,0,0,0,0,0,0,0,0,0,0,0,0,0,0,0,0,0,0,0,0,0,0,0,0,0,0,0,0,0,0,0,0,0,0,0,0,0,0,0,0,0,0,0,0,0,0,0,0,0,0,0,0,0,0,0,0,0,0,0,0,0,0,0,0,0,0,0,0,0,0,0,0,0,0,0,0,0,0,0,0,0,0,0,0,
0,0,0,0,0,0,0,0,0,0,0,0,0,0,0,0,0,0,0,0,0,0,0,0,0,0,0,0,0,0,0,0,0,0,0,0,0,0,0,0,0,0,0,0,0,0,0,0,0,0,0,0,0,0,0,0,0,0,0,0,0,0,0,0,0,0,0,0,0,0,0,0,0,0,0,0,0,0,0,0,0,0,0,0,0,0,0,0,0,0,0,0,0,0,0,0,0,0,0,0,0,0,0,0,0,0,0,0,0,0,
0,0,0,0,0,0,0,0,0,0,0,0,0,0,0,0,0,0,0,0,0,0,0,0,0,0,0,0,0,0,0,0,0,0,0,0,0,0,0,0,0,0,0,0,0,0,0,0,0,0,0,0,0,0,0,0,0,0,0,0,0,0,0,0,0,0,0,0,0,0,0,0,0,0,0,0,0,0,0,0,0,0,0,0,0,0,0,0,0,0,0,0,0,0,0,0,0,0,0,0,0,0,0,0,0,0,0,0,0,0,
0,0,0,0,0,0,0,0,0,0,0,0,0,0,0,0,0,0,0,0,0,0,0,0,0,0,0,0,0,0,0,0,0,0,0,0,0,0,0,0,0,0,0,0,0,0,0,0,0,0,0,0,0,0,0,0,0,0,0,0,0,0,0,0,0,0,0,0,0,0,0,0,0,0,0,0,0,0,0,0,0,0,0,0,0,0,0,0,0,0,0,0,0,0,0,0,0,0,0,0,0,0,0,0,0,0,0,0,0,0,
0,0,0,0,0,0,0,0,0,0,0,0,0,0,0,0,0,0,0,0,0,0,0,0,0,0,0,0,0,0,0,0,0,0,0,0,0,0,0,0,0,0,0,0,0,0,0,0,0,0,0,0,0,0,0,0,0,0,0,0,0,0,0,0,0,0,0,0,0,0,0,0,0,0,0,0,0,0,0,0,0,0,0,0,0,0,0,0,0,0,0,0,0,0,0,0,0,0,0,0,0,0,0,0,0,0,0,0,0,0,
0,0,0,0,0,0,0,0,0,0,0,0,0,0,0,0,0,0,0,0,0,0,0,0,0,0,0,0,0,0,0,0,0,0,0,0,0,0,0,0,0,0,0,0,0,0,0,0,0,0,0,0,0,0,0,0,0,0,0,0,0,0,0,0,0,0,0,0,0,0,0,0,0,0,0,0,0,0,0,0,0,0,0,0,0,0,0,0,0,0,0,0,0,0,0,0,0,0,0,0,0,0,0,0,0,0,0,0,0,0,
0,0,0,0,0,0,0,0,0,0,0,0,0,0,0,0,0,0,0,0,0,0,0,0,0,0,0,0,0,0,0,0,0,0,0,0,0,0,0,0,0,0,0,0,0,0,0,0,0,0,0,0,0,0,0,0,0,0,0,0,0,0,0,0,0,0,0,0,0,0,0,0,0,0,0,0,0,0,0,0,0,0,0,0,0,0,0,0,0,0,0,0,0,0,0,0,0,0,0,0,0,0,0,0,0,0,0,0,0,0,
0,0,0,0,0,0,0,0,0,0,0,0,0,0,0,0,0,0,0,0,0,0,0,0,0,0,0,0,0,0,0,0,0,0,0,0,0,0,0,0,0,0,0,0,0,0,0,0,0,0,0,0,0,0,0,0,0,0,0,0,0,0,0,0,0,0,0,0,0,0,0,0,0,0,0,0,0,0,0,0,0,0,0,0,0,0,0,0,0,0,0,0,0,0,0,0,0,0,0,0,0,0,0,0,0,0,0,0,0,0,
0,0,0,0,0,0,0,0,0,0,0,0,0,0,0,0,0,0,0,0,0,0,0,0,0,0,0,0,0,0,0,0,0,0,0,0,0,0,0,0,0,0,0,0,0,0,0,0,0,0,0,0,0,0,0,0,0,0,0,0,0,0,0,0,0,0,0,0,0,0,0,0,0,0,0,0,0,0,0,0,0,0,0,0,0,0,0,0,0,0,0,0,0,0,0,0,0,0,0,0,0,0,0,0,0,0,0,0,0,0,
0,0,0,0,0,0,0,0,0,0,0,0,0,0,0,0,0,0,0,0,0,0,0,0,0,0,0,0,0,0,0,0,0,0,0,0,0,0,0,0,0,0,0,0,0,0,0,0,0,0,0,0,0,0,0,0,0,0,0,0,0,0,0,0,0,0,0,0,0,0,0,0,0,0,0,0,0,0,0,0,0,0,0,0,0,0,0,0,0,0,0,0,0,0,0,0,0,0,0,0,0,0,0,0,0,0,0,0,0,0,
0,0,0,0,0,0,0,0,0,0,0,0,0,0,0,0,0,0,0,0,0,0,0,0,0,0,0,0,0,0,0,0,0,0,0,0,0,0,0,0,0,0,0,0,0,0,0,0,0,0,0,0,0,0,0,0,0,0,0,0,0,0,0,0,0,0,0,0,0,0,0,0,0,0,0,0,0,0,0,0,0,0,0,0,0,0,0,0,0,0,0,0,0,0,0,0,0,0,0,0,0,0,0,0,0,0,0,0,0,0,
0,0,0,0,0,0,0,0,0,0,0,0,0,0,0,0,0,0,0,0,0,0,0,0,0,0,0,0,0,0,0,0,0,0,0,0,0,0,0,0,0,0,0,0,0,0,0,0,0,0,0,0,0,0,0,0,0,0,0,0,0,0,0,0,0,0,0,0,0,0,0,0,0,0,0,0,0,0,0,0,0,0,0,0,0,0,0,0,0,0,0,0,0,0,0,0,0,0,0,0,0,0,0,0,0,0,0,0,0,0,
0,0,0,0,0,0,0,0,0,0,0,0,0,0,0,0,0,0,0,0,0,0,0,0,0,0,0,0,0,0,0,0,0,0,0,0,0,0,0,0,0,0,0,0,0,0,0,0,0,0,0,0,0,0,0,0,0,0,0,0,0,0,0,0,0,0,0,0,0,0,0,0,0,0,0,0,0,0,0,0,0,0,0,0,0,0,0,0,0,0,0,0,0,0,0,0,0,0,0,0,0,0,0,0,0,0,0,0,0,0,
0,0,0,0,0,0,0,0,0,0,0,0,0,0,0,0,0,0,0,0,0,0,0,0,0,0,0,0,0,0,0,0,0,0,0,0,0,0,0,0,0,0,0,0,0,0,0,0,0,0,0,0,0,0,0,0,0,0,0,0,0,0,0,0,0,0,0,0,0,0,0,0,0,0,0,0,0,0,0,0,0,0,0,0,0,0,0,0,0,0,0,0,0,0,0,0,0,0,0,0,0,0,0,0,0,0,0,0,0,0,
0,0,0,0,0,0,0,0,0,0,0,0,0,0,0,0,0,0,0,0,0,0,0,0,0,0,0,0,0,0,0,0,0,0,0,0,0,0,0,0,0,0,0,0,0,0,0,0,0,0,0,0,0,0,0,0,0,0,0,0,0,0,0,0,0,0,0,0,0,0,0,0,0,0,0,0,0,0,0,0,0,0,0,0,0,0,0,0,0,0,0,0,0,0,0,0,0,0,0,0,0,0,0,0,0,0,0,0,0,0,
0,0,0,0,0,0,0,0,0,0,0,0,0,0,0,0,0,0,0,0,0,0,0,0,0,0,0,0,0,0,0,0,0,0,0,0,0,0,0,0,0,0,0,0,0,0,0,0,0,0,0,0,0,0,0,0,0,0,0,0,0,0,0,0,0,0,0,0,0,0,0,0,0,0,0,0,0,0,0,0,0,0,0,0,0,0,0,0,0,0,0,0,0,0,0,0,0,0,0,0,0,0,0,0,0,0,0,0,0,0,
0,0,0,0,0,0,0,0,0,0,0,0,0,0,0,0,0,0,0,0,0,0,0,0,0,0,0,0,0,0,0,0,0,0,0,0,0,0,0,0,0,0,0,0,0,0,0,0,0,0,0,0,0,0,0,0,0,0,0,0,0,0,0,0,0,0,0,0,0,0,0,0,0,0,0,0,0,0,0,0,0,0,0,0,0,0,0,0,0,0,0,0,0,0,0,0,0,0,0,0,0,0,0,0,0,0,0,0,0,0,
0,0,0,0,0,0,0,0,0,0,0,0,0,0,0,0,0,0,0,0,0,0,0,0,0,0,0,0,0,0,0,0,0,0,0,0,0,0,0,0,0,0,0,0,0,0,0,0,0,0,0,0,0,0,0,0,0,0,0,0,0,0,0,0,0,0,0,0,0,0,0,0,0,0,0,0,0,0,0,0,0,0,0,0,0,0,0,0,0,0,0,0,0,0,0,0,0,0,0,0,0,0,0,0,0,0,0,0,0,0,
0,0,0,0,0,0,0,0,0,0,0,0,0,0,0,0,0,0,0,0,0,0,0,0,0,0,0,0,0,0,0,0,0,0,0,0,0,0,0,0,0,0,0,0,0,0,0,0,0,0,0,0,0,0,0,0,0,0,0,0,0,0,0,0,0,0,0,0,0,0,0,0,0,0,0,0,0,0,0,0,0,0,0,0,0,0,0,0,0,0,0,0,0,0,0,0,0,0,0,0,0,0,0,0,0,0,0,0,0,0,
0,0,0,0,0,0,0,0,0,0,0,0,0,0,0,0,0,0,0,0,0,0,0,0,0,0,0,0,0,0,0,0,0,0,0,0,0,0,0,0,0,0,0,0,0,0,0,0,0,0,0,0,0,0,0,0,0,0,0,0,0,0,0,0,0,0,0,0,0,0,0,0,0,0,0,0,0,0,0,0,0,0,0,0,0,0,0,0,0,0,0,0,0,0,0,0,0,0,0,0,0,0,0,0,0,0,0,0,0,0,
0,0,0,0,0,0,0,0,0,0,0,0,0,0,0,0,0,0,0,0,0,0,0,0,0,0,0,0,0,0,0,0,0,0,0,0,0,0,0,0,0,0,0,0,0,0,0,0,0,0,0,0,0,0,0,0,0,0,0,0,0,0,0,0,0,0,0,0,0,0,0,0,0,0,0,0,0,0,0,0,0,0,0,0,0,0,0,0,0,0,0,0,0,0,0,0,0,0,0,0,0,0,0,0,0,0,0,0,0,0,
0,0,0,0,0,0,0,0,0,0,0,0,0,0,0,0,0,0,0,0,0,0,0,0,0,0,0,0,0,0,0,0,0,0,0,0,0,0,0,0,0,0,0,0,0,0,0,0,0,0,0,0,0,0,0,0,0,0,0,0,0,0,0,0,0,0,0,0,0,0,0,0,0,0,0,0,0,0,0,0,0,0,0,0,0,0,0,0,0,0,0,0,0,0,0,0,0,0,0,0,0,0,0,0,0,0,0,0,0,0,
0,0,0,0,0,0,0,0,0,0,0,0,0,0,0,0,0,0,0,0,0,0,0,0,0,0,0,0,0,0,0,0,0,0,0,0,0,0,0,0,0,0,0,0,0,0,0,0,0,0,0,0,0,0,0,0,0,0,0,0,0,0,0,0,0,0,0,0,0,0,0,0,0,0,0,0,0,0,0,0,0,0,0,0,0,0,0,0,0,0,0,0,0,0,0,0,0,0,0,0,0,0,0,0,0,0,0,0,0,0,
0,0,0,0,0,0,0,0,0,0,0,0,0,0,0,0,0,0,0,0,0,0,0,0,0,0,0,0,0,0,0,0,0,0,0,0,0,0,0,0,0,0,0,0,0,0,0,0,0,0,0,0,0,0,0,0,0,0,0,0,0,0,0,0,0,0,0,0,0,0,0,0,0,0,0,0,0,0,0,0,0,0,0,0,0,0,0,0,0,0,0,0,0,0,0,0,0,0,0,0,0,0,0,0,0,0,0,0,0,0,
0,0,0,0,0,0,0,0,0,0,0,0,0,0,0,0,0,0,0,0,0,0,0,0,0,0,0,0,0,0,0,0,0,0,0,0,0,0,0,0,0,0,0,0,0,0,0,0,0,0,0,0,0,0,0,0,0,0,0,0,0,0,0,0,0,0,0,0,0,0,0,0,0,0,0,0,0,0,0,0,0,0,0,0,0,0,0,0,0,0,0,0,0,0,0,0,0,0,0,0,0,0,0,0,0,0,0,0,0,0,
0,0,0,0,0,0,0,0,0,0,0,0,0,0,0,0,0,0,0,0,0,0,0,0,0,0,0,0,0,0,0,0,0,0,0,0,0,0,0,0,0,0,0,0,0,0,0,0,0,0,0,0,0,0,0,0,0,0,0,0,0,0,0,0,0,0,0,0,0,0,0,0,0,0,0,0,0,0,0,0,0,0,0,0,0,0,0,0,0,0,0,0,0,0,0,0,0,0,0,0,0,0,0,0,0,0,0,0,0,0,
0,0,0,0,0,0,0,0,0,0,0,0,0,0,0,0,0,0,0,0,0,0,0,0,0,0,0,0,0,0,0,0,0,0,0,0,0,0,0,0,0,0,0,0,0,0,0,0,0,0,0,0,0,0,0,0,0,0,0,0,0,0,0,0,0,0,0,0,0,0,0,0,0,0,0,0,0,0,0,0,0,0,0,0,0,0,0,0,0,0,0,0,0,0,0,0,0,0,0,0,0,0,0,0,0,0,0,0,0,0,
0,0,0,0,0,0,0,0,0,0,0,0,0,0,0,0,0,0,0,0,0,0,0,0,0,0,0,0,0,0,0,0,0,0,0,0,0,0,0,0,0,0,0,0,0,0,0,0,0,0,0,0,0,0,0,0,0,0,0,0,0,0,0,0,0,0,0,0,0,0,0,0,0,0,0,0,0,0,0,0,0,0,0,0,0,0,0,0,0,0,0,0,0,0,0,0,0,0,0,0,0,0,0,0,0,0,0,0,0,0,
0,0,0,0,0,0,0,0,0,0,0,0,0,0,0,0,0,0,0,0,0,0,0,0,0,0,0,0,0,0,0,0,0,0,0,0,0,0,0,0,0,0,0,0,0,0,0,0,0,0,0,0,0,0,0,0,0,0,0,0,0,0,0,0,0,0,0,0,0,0,0,0,0,0,0,0,0,0,0,0,0,0,0,0,0,0,0,0,0,0,0,0,0,0,0,0,0,0,0,0,0,0,0,0,0,0,0,0,0,0,
0,0,0,0,0,0,0,0,0,0,0,0,0,0,0,0,0,0,0,0,0,0,0,0,0,0,0,0,0,0,0,0,0,0,0,0,0,0,0,0,0,0,0,0,0,0,0,0,0,0,0,0,0,0,0,0,0,0,0,0,0,0,0,0,0,0,0,0,0,0,0,0,0,0,0,0,0,0,0,0,0,0,0,0,0,0,0,0,0,0,0,0,0,0,0,0,0,0,0,0,0,0,0,0,0,0,0,0,0,0,
0,0,0,0,0,0,0,0,0,0,0,0,0,0,0,0,0,0,0,0,0,0,0,0,0,0,0,0,0,0,0,0,0,0,0,0,0,0,0,0,0,0,0,0,0,0,0,0,0,0,0,0,0,0,0,0,0,0,0,0,0,0,0,0,0,0,0,0,0,0,0,0,0,0,0,0,0,0,0,0,0,0,0,0,0,0,0,0,0,0,0,0,0,0,0,0,0,0,0,0,0,0,0,0,0,0,0,0,0,0,
0,0,0,0,0,0,0,0,0,0,0,0,0,0,0,0,0,0,0,0,0,0,0,0,0,0,0,0,0,0,0,0,0,0,0,0,0,0,0,0,0,0,0,0,0,0,0,0,0,0,0,0,0,0,0,0,0,0,0,0,0,0,0,0,0,0,0,0,0,0,0,0,0,0,0,0,0,0,0,0,0,0,0,0,0,0,0,0,0,0,0,0,0,0,0,0,0,0,0,0,0,0,0,0,0,0,0,0,0,0,
0,0,0,0,0,0,0,0,0,0,0,0,0,0,0,0,0,0,0,0,0,0,0,0,0,0,0,0,0,0,0,0,0,0,0,0,0,0,0,0,0,0,0,0,0,0,0,0,0,0,0,0,0,0,0,0,0,0,0,0,0,0,0,0,0,0,0,0,0,0,0,0,0,0,0,0,0,0,0,0,0,0,0,0,0,0,0,0,0,0,0,0,0,0,0,0,0,0,0,0,0,0,0,0,0,0,0,0,0,0,
0,0,0,0,0,0,0,0,0,0,0,0,0,0,0,0,0,0,0,0,0,0,0,0,0,0,0,0,0,0,0,0,0,0,0,0,0,0,0,0,0,0,0,0,0,0,0,0,0,0,0,0,0,0,0,0,0,0,0,0,0,0,0,0,0,0,0,0,0,0,0,0,0,0,0,0,0,0,0,0,0,0,0,0,0,0,0,0,0,0,0,0,0,0,0,0,0,0,0,0,0,0,0,0,0,0,0,0,0,0,
0,0,0,0,0,0,0,0,0,0,0,0,0,0,0,0,0,0,0,0,0,0,0,0,0,0,0,0,0,0,0,0,0,0,0,0,0,0,0,0,0,0,0,0,0,0,0,0,0,0,0,0,0,0,0,0,0,0,0,0,0,0,0,0,0,0,0,0,0,0,0,0,0,0,0,0,0,0,0,0,0,0,0,0,0,0,0,0,0,0,0,0,0,0,0,0,0,0,0,0,0,0,0,0,0,0,0,0,0,0,
0,0,0,0,0,0,0,0,0,0,0,0,0,0,0,0,0,0,0,0,0,0,0,0,0,0,0,0,0,0,0,0,0,0,0,0,0,0,0,0,0,0,0,0,0,0,0,0,0,0,0,0,0,0,0,0,0,0,0,0,0,0,0,0,0,0,0,0,0,0,0,0,0,0,0,0,0,0,0,0,0,0,0,0,0,0,0,0,0,0,0,0,0,0,0,0,0,0,0,0,0,0,0,0,0,0,0,0,0,0,
0,0,0,0,0,0,0,0,0,0,0,0,0,0,0,0,0,0,0,0,0,0,0,0,0,0,0,0,0,0,0,0,0,0,0,0,0,0,0,0,0,0,0,0,0,0,0,0,0,0,0,0,0,0,0,0,0,0,0,0,0,0,0,0,0,0,0,0,0,0,0,0,0,0,0,0,0,0,0,0,0,0,0,0,0,0,0,0,0,0,0,0,0,0,0,0,0,0,0,0,0,0,0,0,0,0,0,0,0,0,
0,0,0,0,0,0,0,0,0,0,0,0,0,0,0,0,0,0,0,0,0,0,0,0,0,0,0,0,0,0,0,0,0,0,0,0,0,0,0,0,0,0,0,0,0,0,0,0,0,0,0,0,0,0,0,0,0,0,0,0,0,0,0,0,0,0,0,0,0,0,0,0,0,0,0,0,0,0,0,0,0,0,0,0,0,0,0,0,0,0,0,0,0,0,0,0,0,0,0,0,0,0,0,0,0,0,0,0,0,0,
0,0,0,0,0,0,0,0,0,0,0,0,0,0,0,0,0,0,0,0,0,0,0,0,0,0,0,0,0,0,0,0,0,0,0,0,0,0,0,0,0,0,0,0,0,0,0,0,0,0,0,0,0,0,0,0,0,0,0,0,0,0,0,0,0,0,0,0,0,0,0,0,0,0,0,0,0,0,0,0,0,0,0,0,0,0,0,0,0,0,0,0,0,0,0,0,0,0,0,0,0,0,0,0,0,0,0,0,0,0,
0,0,0,0,0,0,0,0,0,0,0,0,0,0,0,0,0,0,0,0,0,0,0,0,0,0,0,0,0,0,0,0,0,0,0,0,0,0,0,0,0,0,0,0,0,0,0,0,0,0,0,0,0,0,0,0,0,0,0,0,0,0,0,0,0,0,0,0,0,0,0,0,0,0,0,0,0,0,0,0,0,0,0,0,0,0,0,0,0,0,0,0,0,0,0,0,0,0,0,0,0,0,0,0,0,0,0,0,0,0,
0,0,0,0,0,0,0,0,0,0,0,0,0,0,0,0,0,0,0,0,0,0,0,0,0,0,0,0,0,0,0,0,0,0,0,0,0,0,0,0,0,0,0,0,0,0,0,0,0,0,0,0,0,0,0,0,0,0,0,0,0,0,0,0,0,0,0,0,0,0,0,0,0,0,0,0,0,0,0,0,0,0,0,0,0,0,0,0,0,0,0,0,0,0,0,0,0,0,0,0,0,0,0,0,0,0,0,0,0,0
</data>
 </layer>
</map>
