<?xml version="1.0" encoding="UTF-8"?>
<map version="1.0" tiledversion="1.1.5" orientation="orthogonal" renderorder="right-down" width="80" height="70" tilewidth="32" tileheight="32" infinite="0" nextobjectid="374">
 <properties>
  <property name="battlebg" type="file" value="../art/backgrounds/greatjunglebg.png"/>
  <property name="currentLayer" type="int" value="7"/>
  <property name="layerHeightMap" value="objects:320,objects2:160,objects3:20"/>
  <property name="layered" type="bool" value="true"/>
  <property name="onload" type="file" value="actions/greatjungle.lua"/>
  <property name="regionName" value=""/>
  <property name="sectorName" value="Great Jungle"/>
 </properties>
 <tileset firstgid="1" source="knothole.tsx"/>
 <tileset firstgid="3485" source="knotholeindoors.tsx"/>
 <tileset firstgid="5287" source="robotropolis.tsx"/>
 <tileset firstgid="8787" source="forest2.tsx"/>
 <tileset firstgid="13962" name="knotholehut" tilewidth="32" tileheight="32" tilecount="1044" columns="29">
  <image source="../art/tiles/knotholehutinterior.png" trans="000000" width="950" height="1170"/>
 </tileset>
 <tileset firstgid="15006" source="darkswamp.tsx"/>
 <tileset firstgid="20595" source="darkswamp2.tsx"/>
 <tileset firstgid="22295" source="worldmap.tsx"/>
 <layer name="ground" width="80" height="70">
  <data encoding="csv">
892,892,892,892,892,892,892,892,892,892,892,892,892,892,892,892,892,892,892,892,892,892,892,892,892,892,892,892,892,892,892,892,892,892,892,892,892,892,892,892,892,892,892,892,892,892,892,892,892,892,892,892,892,892,892,892,892,892,892,892,892,892,892,892,892,892,892,892,892,892,892,892,892,892,892,892,892,892,892,892,
892,892,892,892,892,892,892,892,892,892,892,892,892,892,892,892,892,892,892,892,892,892,892,892,892,892,892,892,892,892,892,892,892,892,892,892,892,892,892,892,892,892,892,892,892,892,892,892,892,892,892,892,892,892,892,892,892,892,892,892,892,892,892,892,892,892,892,892,892,892,892,892,892,892,892,892,892,892,892,892,
892,892,892,892,892,892,892,892,892,892,892,892,892,892,892,892,892,892,892,892,892,892,892,892,892,892,892,892,892,892,892,892,892,892,892,892,892,892,892,892,892,892,892,892,892,892,892,892,892,892,892,892,892,892,892,892,892,892,892,892,892,892,892,892,892,892,892,892,892,892,892,892,892,892,892,892,892,892,892,892,
892,892,892,892,892,892,892,892,892,892,892,892,892,892,892,892,892,892,892,892,892,892,892,892,892,892,892,892,892,892,892,892,892,892,892,892,892,892,892,892,892,892,892,892,892,892,892,892,892,892,892,892,892,892,892,892,892,892,892,892,892,892,892,892,892,892,892,892,892,892,892,892,892,892,892,892,892,892,892,892,
892,892,892,892,892,892,892,892,892,892,892,892,892,892,892,892,892,892,892,892,892,892,892,892,892,892,892,892,892,892,892,892,892,892,892,892,892,892,892,892,892,892,892,892,892,892,892,892,892,892,892,892,892,892,892,892,892,892,892,892,892,892,892,892,892,892,892,892,892,892,892,892,892,892,892,892,892,892,892,892,
892,892,892,892,892,892,892,892,892,892,892,892,892,892,892,892,892,892,892,892,892,892,892,892,892,892,892,892,892,892,892,892,892,892,892,892,892,892,892,892,892,892,892,892,892,892,892,892,892,892,892,892,892,892,892,892,892,892,892,892,892,892,892,892,892,892,892,892,892,892,892,892,892,892,892,892,892,892,892,892,
892,892,892,892,892,892,892,892,892,892,892,892,892,892,892,892,892,892,892,892,892,892,892,892,892,892,892,892,892,892,892,892,892,892,892,892,892,892,892,892,892,892,892,892,892,892,892,892,892,892,892,892,892,892,892,892,892,892,892,892,892,892,892,892,892,892,892,892,892,892,892,892,892,892,892,892,892,892,892,892,
892,892,892,892,892,892,892,892,892,892,892,892,892,892,892,892,892,892,892,892,892,892,892,892,892,892,892,892,892,892,892,892,892,892,892,892,892,892,892,892,892,892,892,892,892,892,892,892,892,892,892,892,892,892,892,892,892,892,892,892,892,892,892,892,892,892,892,892,892,892,892,892,892,892,892,892,892,892,892,892,
892,892,892,892,892,892,892,892,892,892,892,892,892,892,892,892,892,892,892,892,892,892,892,892,892,892,892,892,892,892,892,892,892,892,892,892,892,892,892,892,892,892,892,892,892,892,892,892,892,892,892,892,892,892,892,892,892,892,892,892,892,892,892,892,892,892,892,892,892,892,892,892,892,892,892,892,892,892,892,892,
892,892,892,892,892,892,892,892,892,892,892,892,892,892,892,892,892,892,892,892,892,892,892,892,892,892,892,892,892,892,892,892,892,892,892,892,892,892,892,892,892,892,892,892,892,892,892,892,892,892,892,892,892,892,892,892,892,892,892,892,892,892,892,892,892,892,892,892,892,892,892,892,892,892,892,892,892,892,892,892,
892,892,892,892,892,892,892,892,892,892,892,892,892,892,892,892,892,892,892,892,892,892,892,892,892,892,892,892,892,892,892,892,892,892,892,892,892,892,892,892,892,892,892,892,892,892,892,892,892,892,892,892,892,892,892,892,892,892,892,892,892,892,892,892,892,892,892,892,892,892,892,892,892,892,892,892,892,892,892,892,
892,892,892,892,892,892,892,892,892,892,892,892,892,892,892,892,892,892,892,892,892,892,892,892,892,892,892,892,892,892,892,892,892,892,892,892,892,892,892,892,892,892,892,892,892,892,892,892,892,892,892,892,892,892,892,892,892,892,892,892,892,892,892,892,892,892,892,892,892,892,892,892,892,892,892,892,892,892,892,892,
892,892,892,892,892,892,892,892,892,892,892,892,892,892,892,892,892,892,892,892,892,892,892,892,892,892,892,892,892,892,892,892,892,892,892,892,892,892,892,892,892,892,892,892,892,892,892,892,892,892,892,892,892,892,892,892,892,892,892,892,892,892,892,892,892,892,892,892,892,892,892,892,892,892,892,892,892,892,892,892,
892,892,892,892,892,892,892,892,892,892,892,892,892,892,892,892,892,892,892,892,892,892,892,892,892,892,892,892,892,892,892,892,892,892,892,892,892,892,892,892,892,892,892,892,892,892,892,892,892,892,892,892,892,892,892,892,892,892,892,892,892,892,892,892,892,892,892,892,892,892,892,892,892,892,892,892,892,892,892,892,
892,892,892,892,892,892,892,892,892,892,892,892,892,892,892,892,892,892,892,892,892,892,892,892,892,892,892,892,892,892,892,892,892,892,892,892,892,892,892,892,892,892,892,892,892,892,892,892,892,892,892,892,892,892,892,892,892,892,892,892,892,892,892,892,892,892,892,892,892,892,892,892,892,892,892,892,892,892,892,892,
892,892,892,892,892,892,892,892,892,892,892,892,892,892,892,892,892,892,892,892,892,892,892,892,892,892,892,892,892,892,892,892,892,892,892,892,892,892,892,892,892,892,892,892,892,892,892,892,892,892,892,892,892,892,892,892,892,892,892,892,892,892,892,892,892,892,892,892,892,892,892,892,892,892,892,892,892,892,892,892,
892,892,892,892,892,892,892,892,892,892,892,892,892,892,892,892,892,892,892,892,892,892,892,892,892,892,892,892,892,892,892,892,892,892,892,892,892,892,892,892,892,892,892,892,892,892,892,892,892,892,892,892,892,892,892,892,892,892,892,892,892,892,892,892,892,892,892,892,892,892,892,892,892,892,892,892,892,892,892,892,
892,892,892,892,892,892,892,892,892,892,892,892,892,892,892,892,892,892,892,892,892,892,892,892,892,892,892,892,892,892,892,892,892,892,892,892,892,892,892,892,892,892,892,892,892,892,892,892,892,892,892,892,892,892,892,892,892,892,892,892,892,892,892,892,892,892,892,892,892,892,892,892,892,892,892,892,892,892,892,892,
892,892,892,892,892,892,892,892,892,892,892,892,892,892,892,892,892,892,892,892,892,892,892,892,892,892,892,892,892,892,892,892,892,892,892,892,892,892,892,892,892,892,892,892,892,892,892,892,892,892,892,892,892,892,892,892,892,892,892,892,892,892,892,892,892,892,892,892,892,892,892,892,892,892,892,892,892,892,892,892,
892,892,892,892,892,892,892,892,892,892,892,892,892,892,892,892,892,892,892,892,892,892,892,892,892,892,892,892,892,892,892,892,892,892,892,892,892,892,892,892,892,892,892,892,892,892,892,892,892,892,892,892,892,892,892,892,892,892,892,892,892,892,892,892,892,892,892,892,892,892,892,892,892,892,892,892,892,892,892,892,
892,892,892,892,892,892,892,892,892,892,892,892,892,892,892,892,892,892,892,892,892,892,892,892,892,892,892,892,892,892,892,892,892,892,892,892,892,892,892,892,892,892,892,892,892,892,892,892,892,892,892,892,892,892,892,892,892,892,892,892,892,892,892,892,892,892,892,892,892,892,892,892,892,892,892,892,892,892,892,892,
892,892,892,892,892,892,892,892,892,892,892,892,892,892,892,892,892,892,892,892,892,892,892,892,892,892,892,892,892,892,892,892,892,892,892,892,892,892,892,892,892,892,892,892,892,892,892,892,892,892,892,892,892,892,892,892,892,892,892,892,892,892,892,892,892,892,892,892,892,892,892,892,892,892,892,892,892,892,892,892,
892,892,892,892,892,892,892,892,892,892,892,892,892,892,892,892,892,892,892,892,892,892,892,892,892,892,892,892,892,892,892,892,892,892,892,892,892,892,892,892,892,892,892,892,892,892,892,892,892,892,892,892,892,892,892,892,892,892,892,892,892,892,892,892,892,892,892,892,892,892,892,892,892,892,892,892,892,892,892,892,
892,892,892,892,892,892,892,892,892,892,892,892,892,892,892,892,892,892,892,892,892,892,892,892,892,892,892,892,892,892,892,892,892,892,892,892,892,892,892,892,892,892,892,892,892,892,892,892,892,892,892,892,892,892,892,892,892,892,892,892,892,892,892,892,892,892,892,892,892,892,892,892,892,892,892,892,892,892,892,892,
892,892,892,892,892,892,892,892,892,892,892,892,892,892,892,892,892,892,892,892,892,892,892,892,892,892,892,892,892,892,892,892,892,892,892,892,892,892,892,892,892,892,892,892,892,892,892,892,892,892,892,892,892,892,892,892,892,892,892,892,892,892,892,892,892,892,892,892,892,892,892,892,892,892,892,892,892,892,892,892,
892,892,892,892,892,892,892,892,892,892,892,892,892,892,892,892,892,892,892,892,892,892,892,892,892,892,892,892,892,892,892,892,892,892,892,892,892,892,892,892,892,892,892,892,892,892,892,892,892,892,892,892,892,892,892,892,892,892,892,892,892,892,892,892,892,892,892,892,892,892,892,892,892,892,892,892,892,892,892,892,
892,892,892,892,892,892,892,892,892,892,892,892,892,892,892,892,892,892,892,892,892,892,892,892,892,892,892,892,892,892,892,892,892,892,892,892,892,892,892,892,892,892,892,892,892,892,892,892,892,892,892,892,892,892,892,892,892,892,892,892,892,892,892,892,892,892,892,892,892,892,892,892,892,892,892,892,892,892,892,892,
892,892,892,892,892,892,892,892,892,892,892,892,892,892,892,892,892,892,892,892,892,892,892,892,892,892,892,892,892,892,892,892,892,892,892,892,892,892,892,892,892,892,892,892,892,892,892,892,892,892,892,892,892,892,892,892,892,892,892,892,892,892,892,892,892,892,892,892,892,892,892,892,892,892,892,892,892,892,892,892,
892,892,892,892,892,892,892,892,892,892,892,892,892,892,892,892,892,892,892,892,892,892,892,892,892,892,892,892,892,892,892,892,892,892,892,892,892,892,892,892,892,892,892,892,892,892,892,892,892,892,892,892,892,892,892,892,892,892,892,892,892,892,892,892,892,892,892,892,892,892,892,892,892,892,892,892,892,892,892,892,
892,892,892,892,892,892,892,892,892,892,892,892,892,892,892,892,892,892,892,892,892,892,892,892,892,892,892,892,892,892,892,892,892,892,892,892,892,892,892,892,892,892,892,892,892,892,892,892,892,892,892,892,892,892,892,892,892,892,892,892,892,892,892,892,892,892,892,892,892,892,892,892,892,892,892,892,892,892,892,892,
892,892,892,892,892,892,892,892,892,892,892,892,892,892,892,892,892,892,892,892,892,892,892,892,892,892,892,892,892,892,892,892,892,892,892,892,892,892,892,892,892,892,892,892,892,892,892,892,892,892,892,892,892,892,892,892,892,892,892,892,892,892,892,892,892,892,892,892,892,892,892,892,892,892,892,892,892,892,892,892,
892,892,892,892,892,892,892,892,892,892,892,892,892,892,892,892,892,892,892,892,892,892,892,892,892,892,892,892,892,892,892,892,892,892,892,892,892,892,892,892,892,892,892,892,892,892,892,892,892,892,892,892,892,892,892,892,892,892,892,892,892,892,892,892,892,892,892,892,892,892,892,892,892,892,892,892,892,892,892,892,
892,892,892,892,892,892,892,892,892,892,892,892,892,892,892,892,892,892,892,892,892,892,892,892,892,892,892,892,892,892,892,892,892,892,892,892,892,892,892,892,892,892,892,892,892,892,892,892,892,892,892,892,892,892,892,892,892,892,892,892,892,892,892,892,892,892,892,892,892,892,892,892,892,892,892,892,892,892,892,892,
892,892,892,892,892,892,892,892,892,892,892,892,892,892,892,892,892,892,892,892,892,892,892,892,892,892,892,892,892,892,892,892,892,892,892,892,892,892,892,892,892,892,892,892,892,892,892,892,892,892,892,892,892,892,892,892,892,892,892,892,892,892,892,892,892,892,892,892,892,892,892,892,892,892,892,892,892,892,892,892,
892,892,892,892,892,892,892,892,892,892,892,892,892,892,892,892,892,892,892,892,892,892,892,892,892,892,892,892,892,892,892,892,892,892,892,892,892,892,892,892,892,892,892,892,892,892,892,892,892,892,892,892,892,892,892,892,892,892,892,892,892,892,892,892,892,892,892,892,892,892,892,892,892,892,892,892,892,892,892,892,
892,892,892,892,892,892,892,892,892,892,892,892,892,892,892,892,892,892,892,892,892,892,892,892,892,892,892,892,892,892,892,892,892,892,892,892,892,892,892,892,892,892,892,892,892,892,892,892,892,892,892,892,892,892,892,892,892,892,892,892,892,892,892,892,892,892,892,892,892,892,892,892,892,892,892,892,892,892,892,892,
892,892,892,892,892,892,892,892,892,892,892,892,892,892,892,892,892,892,892,892,892,892,892,892,892,892,892,892,892,892,892,892,892,892,892,892,892,892,892,892,892,892,892,892,892,892,892,892,892,892,892,892,892,892,892,892,892,892,892,892,892,892,892,892,892,892,892,892,892,892,892,892,892,892,892,892,892,892,892,892,
892,892,892,892,892,892,892,892,892,892,892,892,892,892,892,892,892,892,892,892,892,892,892,892,892,892,892,892,892,892,892,892,892,892,892,892,892,892,892,892,892,892,892,892,892,892,892,892,892,892,892,892,892,892,892,892,892,892,892,892,892,892,892,892,892,892,892,892,892,892,892,892,892,892,892,892,892,892,892,892,
892,892,892,892,892,892,892,892,892,892,892,892,892,892,892,892,892,892,892,892,892,892,892,892,892,892,892,892,892,892,892,892,892,892,892,892,892,892,892,892,892,892,892,892,892,892,892,892,892,892,892,892,892,892,892,892,892,892,892,892,892,892,892,892,892,892,892,892,892,892,892,892,892,892,892,892,892,892,892,892,
892,892,892,892,892,892,892,892,892,892,892,892,892,892,892,892,892,892,892,892,892,892,892,892,892,892,892,892,892,892,892,892,892,892,892,892,892,892,892,892,892,892,892,892,892,892,892,892,892,892,892,892,892,892,892,892,892,892,892,892,892,892,892,892,892,892,892,892,892,892,892,892,892,892,892,892,892,892,892,892,
892,892,892,892,892,892,892,892,892,892,892,892,892,892,892,892,892,892,892,892,892,892,892,892,892,892,892,892,892,892,892,892,892,892,892,892,892,892,892,892,892,892,892,892,892,892,892,892,892,892,892,892,892,892,892,892,892,892,892,892,892,892,892,892,892,892,892,892,892,892,892,892,892,892,892,892,892,892,892,892,
892,892,892,892,892,892,892,892,892,892,892,892,892,892,892,892,892,892,892,892,892,892,892,892,892,892,892,892,892,892,892,892,892,892,892,892,892,892,892,892,892,892,892,892,892,892,892,892,892,892,892,892,892,892,892,892,892,892,892,892,892,892,892,892,892,892,892,892,892,892,892,892,892,892,892,892,892,892,892,892,
892,892,892,892,892,892,892,892,892,892,892,892,892,892,892,892,892,892,892,892,892,892,892,892,892,892,892,892,892,892,892,892,892,892,892,892,892,892,892,892,892,892,892,892,892,892,892,892,892,892,892,892,892,892,892,892,892,892,892,892,892,892,892,892,892,892,892,892,892,892,892,892,892,892,892,892,892,892,892,892,
892,892,892,892,892,892,892,892,892,892,892,892,892,892,892,892,892,892,892,892,892,892,892,892,892,892,892,892,892,892,892,892,892,892,892,892,892,892,892,892,892,892,892,892,892,892,892,892,892,892,892,892,892,892,892,892,892,892,892,892,892,892,892,892,892,892,892,892,892,892,892,892,892,892,892,892,892,892,892,892,
892,892,892,892,892,892,892,892,892,892,892,892,892,892,892,892,892,892,892,892,892,892,892,892,892,892,892,892,892,892,892,892,892,892,892,892,892,892,892,892,892,892,892,892,892,892,892,892,892,892,892,892,892,892,892,892,892,892,892,892,892,892,892,892,892,892,892,892,892,892,892,892,892,892,892,892,892,892,892,892,
892,892,892,892,892,892,892,892,892,892,892,892,892,892,892,892,892,892,892,892,892,892,892,892,892,892,892,892,892,892,892,892,892,892,892,892,892,892,892,892,892,892,892,892,892,892,892,892,892,892,892,892,892,892,892,892,892,892,892,892,892,892,892,892,892,892,892,892,892,892,892,892,892,892,892,892,892,892,892,892,
892,892,892,892,892,892,892,892,892,892,892,892,892,892,892,892,892,892,892,892,892,892,892,892,892,892,892,892,892,892,892,892,892,892,892,892,892,892,892,892,892,892,892,892,892,892,892,892,892,892,892,892,892,892,892,892,892,892,892,892,892,892,892,892,892,892,892,892,892,892,892,892,892,892,892,892,892,892,892,892,
892,892,892,892,892,892,892,892,892,892,892,892,892,892,892,892,892,892,892,892,892,892,892,892,892,892,892,892,892,892,892,892,892,892,892,892,892,892,892,892,892,892,892,892,892,892,892,892,892,892,892,892,892,892,892,892,892,892,892,892,892,892,892,892,892,892,892,892,892,892,892,892,892,892,892,892,892,892,892,892,
892,892,892,892,892,892,892,892,892,892,892,892,892,892,892,892,892,892,892,892,892,892,892,892,892,892,892,892,892,892,892,892,892,892,892,892,892,892,892,892,892,892,892,892,892,892,892,892,892,892,892,892,892,892,892,892,892,892,892,892,892,892,892,892,892,892,892,892,892,892,892,892,892,892,892,892,892,892,892,892,
892,892,892,892,892,892,892,892,892,892,892,892,892,892,892,892,892,892,892,892,892,892,892,892,892,892,892,892,892,892,892,892,892,892,892,892,892,892,892,892,892,892,892,892,892,892,892,892,892,892,892,892,892,892,892,892,892,892,892,892,892,892,892,892,892,892,892,892,892,892,892,892,892,892,892,892,892,892,892,892,
892,892,892,892,892,892,892,892,892,892,892,892,892,892,892,892,892,892,892,892,892,892,892,892,892,892,892,892,892,892,892,892,892,892,892,892,892,892,892,892,892,892,892,892,892,892,892,892,892,892,892,892,892,892,892,892,892,892,892,892,892,892,892,892,892,892,892,892,892,892,892,892,892,892,892,892,892,892,892,892,
892,892,892,892,892,892,892,892,892,892,892,892,892,892,892,892,892,892,892,892,892,892,892,892,892,892,892,892,892,892,892,892,892,892,892,892,892,892,892,892,892,892,892,892,892,892,892,892,892,892,892,892,892,892,892,892,892,892,892,892,892,892,892,892,892,892,892,892,892,892,892,892,892,892,892,892,892,892,892,892,
892,892,892,892,892,892,892,892,892,892,892,892,892,892,892,892,892,892,892,892,892,892,892,892,892,892,892,892,892,892,892,892,892,892,892,892,892,892,892,892,892,892,892,892,892,892,892,892,892,892,892,892,892,892,892,892,892,892,892,892,892,892,892,892,892,892,892,892,892,892,892,892,892,892,892,892,892,892,892,892,
892,892,892,892,892,892,892,892,892,892,892,892,892,892,892,892,892,892,892,892,892,892,892,892,892,892,892,892,892,892,892,892,892,892,892,892,892,892,892,892,892,892,892,892,892,892,892,892,892,892,892,892,892,892,892,892,892,892,892,892,892,892,892,892,892,892,892,892,892,892,892,892,892,892,892,892,892,892,892,892,
892,892,892,892,892,892,892,892,892,892,892,892,892,892,892,892,892,892,892,892,892,892,892,892,892,892,892,892,892,892,892,892,892,892,892,892,892,892,892,892,892,892,892,892,892,892,892,892,892,892,892,892,892,892,892,892,892,892,892,892,892,892,892,892,892,892,892,892,892,892,892,892,892,892,892,892,892,892,892,892,
892,892,892,892,892,892,892,892,892,892,892,892,892,892,892,892,892,892,892,892,892,892,892,892,892,892,892,892,892,892,892,892,892,892,892,892,892,892,892,892,892,892,892,892,892,892,892,892,892,892,892,892,892,892,892,892,892,892,892,892,892,892,892,892,892,892,892,892,892,892,892,892,892,892,892,892,892,892,892,892,
892,892,892,892,892,892,892,892,892,892,892,892,892,892,892,892,892,892,892,892,892,892,892,892,892,892,892,892,892,892,892,892,892,892,892,892,892,892,892,892,892,892,892,892,892,892,892,892,892,892,892,892,892,892,892,892,892,892,892,892,892,892,892,892,892,892,892,892,892,892,892,892,892,892,892,892,892,892,892,892,
892,892,892,892,892,892,892,892,892,892,892,892,892,892,892,892,892,892,892,892,892,892,892,892,892,892,892,892,892,892,892,892,892,892,892,892,892,892,892,892,892,892,892,892,892,892,892,892,892,892,892,892,892,892,892,892,892,892,892,892,892,892,892,892,892,892,892,892,892,892,892,892,892,892,892,892,892,892,892,892,
892,892,892,892,892,892,892,892,892,892,892,892,892,892,892,892,892,892,892,892,892,892,892,892,892,892,892,892,892,892,892,892,892,892,892,892,892,892,892,892,892,892,892,892,892,892,892,892,892,892,892,892,892,892,892,892,892,892,892,892,892,892,892,892,892,892,892,892,892,892,892,892,892,892,892,892,892,892,892,892,
892,892,892,892,892,892,892,892,892,892,892,892,892,892,892,892,892,892,892,892,892,892,892,892,892,892,892,892,892,892,892,892,892,892,892,892,892,892,892,892,892,892,892,892,892,892,892,892,892,892,892,892,892,892,892,892,892,892,892,892,892,892,892,892,892,892,892,892,892,892,892,892,892,892,892,892,892,892,892,892,
892,892,892,892,892,892,892,892,892,892,892,892,892,892,892,892,892,892,892,892,892,892,892,892,892,892,892,892,892,892,892,892,892,892,892,892,892,892,892,892,892,892,892,892,892,892,892,892,892,892,892,892,892,892,892,892,892,892,892,892,892,892,892,892,892,892,892,892,892,892,892,892,892,892,892,892,892,892,892,892,
892,892,892,892,892,892,892,892,892,892,892,892,892,892,892,892,892,892,892,892,892,892,892,892,892,892,892,892,892,892,892,892,892,892,892,892,892,892,892,892,892,892,892,892,892,892,892,892,892,892,892,892,892,892,892,892,892,892,892,892,892,892,892,892,892,892,892,892,892,892,892,892,892,892,892,892,892,892,892,892,
892,892,892,892,892,892,892,892,892,892,892,892,892,892,892,892,892,892,892,892,892,892,892,892,892,892,892,892,892,892,892,892,892,892,892,892,892,892,892,892,892,892,892,892,892,892,892,892,892,892,892,892,892,892,892,892,892,892,892,892,892,892,892,892,892,892,892,892,892,892,892,892,892,892,892,892,892,892,892,892,
892,892,892,892,892,892,892,892,892,892,892,892,892,892,892,892,892,892,892,892,892,892,892,892,892,892,892,892,892,892,892,892,892,892,892,892,892,892,892,892,892,892,892,892,892,892,892,892,892,892,892,892,892,892,892,892,892,892,892,892,892,892,892,892,892,892,892,892,892,892,892,892,892,892,892,892,892,892,892,892,
892,892,892,892,892,892,892,892,892,892,892,892,892,892,892,892,892,892,892,892,892,892,892,892,892,892,892,892,892,892,892,892,892,892,892,892,892,892,892,892,892,892,892,892,892,892,892,892,892,892,892,892,892,892,892,892,892,892,892,892,892,892,892,892,892,892,892,892,892,892,892,892,892,892,892,892,892,892,892,892,
892,892,892,892,892,892,892,892,892,892,892,892,892,892,892,892,892,892,892,892,892,892,892,892,892,892,892,892,892,892,892,892,892,892,892,892,892,892,892,892,892,892,892,892,892,892,892,892,892,892,892,892,892,892,892,892,892,892,892,892,892,892,892,892,892,892,892,892,892,892,892,892,892,892,892,892,892,892,892,892,
892,892,892,892,892,892,892,892,892,892,892,892,892,892,892,892,892,892,892,892,892,892,892,892,892,892,892,892,892,892,892,892,892,892,892,892,892,892,892,892,892,892,892,892,892,892,892,892,892,892,892,892,892,892,892,892,892,892,892,892,892,892,892,892,892,892,892,892,892,892,892,892,892,892,892,892,892,892,892,892,
892,892,892,892,892,892,892,892,892,892,892,892,892,892,892,892,892,892,892,892,892,892,892,892,892,892,892,892,892,892,892,892,892,892,892,892,892,892,892,892,892,892,892,892,892,892,892,892,892,892,892,892,892,892,892,892,892,892,892,892,892,892,892,892,892,892,892,892,892,892,892,892,892,892,892,892,892,892,892,892,
892,892,892,892,892,892,892,892,892,892,892,892,892,892,892,892,892,892,892,892,892,892,892,892,892,892,892,892,892,892,892,892,892,892,892,892,892,892,892,892,892,892,892,892,892,892,892,892,892,892,892,892,892,892,892,892,892,892,892,892,892,892,892,892,892,892,892,892,892,892,892,892,892,892,892,892,892,892,892,892,
892,892,892,892,892,892,892,892,892,892,892,892,892,892,892,892,892,892,892,892,892,892,892,892,892,892,892,892,892,892,892,892,892,892,892,892,892,892,892,892,892,892,892,892,892,892,892,892,892,892,892,892,892,892,892,892,892,892,892,892,892,892,892,892,892,892,892,892,892,892,892,892,892,892,892,892,892,892,892,892
</data>
 </layer>
 <layer name="foundation" width="80" height="70">
  <data encoding="csv">
0,0,0,0,0,0,0,0,0,0,0,0,2302,2298,1832,1832,2300,2302,0,2302,0,2302,0,0,0,0,0,0,0,0,0,0,0,0,0,0,0,0,0,0,0,0,0,0,0,0,0,0,0,0,0,0,0,0,0,0,0,0,0,0,0,0,0,0,0,0,0,0,0,0,0,0,0,0,0,0,0,0,0,0,
0,0,0,0,0,0,0,0,0,2302,2302,0,2302,2298,1832,1832,2300,2302,2302,2302,2302,2302,0,0,0,0,0,0,0,0,0,0,0,0,0,0,0,0,0,0,0,0,0,0,0,0,0,0,0,0,0,0,0,0,0,0,0,0,0,0,0,0,0,0,0,0,0,0,0,0,0,0,0,0,0,0,0,0,0,0,
0,0,0,0,0,0,0,0,2302,2302,2302,2302,2302,2298,1832,1832,2300,2302,2302,0,2302,0,0,0,0,0,0,0,0,0,0,0,0,0,0,0,0,0,0,0,0,0,0,0,0,0,0,0,0,0,0,0,0,0,0,0,0,0,0,0,0,0,0,0,0,0,0,0,0,0,0,0,0,0,0,0,0,0,0,0,
0,0,0,0,0,0,0,0,2302,0,2302,2302,2302,2298,1832,1832,2300,2302,2302,2302,2302,0,0,0,0,0,0,0,0,0,0,0,0,0,0,0,0,0,0,0,0,0,0,0,0,0,0,0,0,0,0,0,0,0,0,0,0,0,0,0,0,0,0,0,0,0,0,0,0,0,0,0,0,0,0,0,0,0,0,0,
0,0,0,0,0,0,0,0,2302,2302,2302,2302,2302,2298,1832,1832,2300,2302,2302,2302,2302,0,0,0,0,0,0,0,0,0,0,0,0,0,0,0,0,0,0,0,0,0,0,0,0,0,0,0,0,0,0,0,0,0,0,0,0,0,0,0,0,0,0,0,0,0,0,0,0,0,0,0,0,0,0,0,0,0,0,0,
0,0,0,0,0,0,0,0,0,2303,2302,2302,2302,2298,1832,1832,2300,2302,2302,2302,2301,0,0,0,0,0,0,0,0,0,0,0,0,0,0,0,0,0,0,0,0,0,0,0,0,0,0,0,0,0,0,0,0,0,0,0,0,0,0,0,0,0,0,0,0,0,0,0,0,0,0,0,0,0,0,0,0,0,0,0,
0,0,0,0,0,0,0,0,0,2303,2302,2302,2302,2350,1832,1832,2352,2302,2302,2302,2301,0,0,0,0,0,0,0,0,0,0,0,0,0,0,0,0,0,0,0,0,0,0,0,0,0,0,0,0,0,0,0,0,0,0,0,0,0,0,0,0,0,0,0,0,0,0,0,0,0,0,0,0,0,0,0,0,0,0,0,
0,0,0,0,0,0,0,0,0,2250,2302,2302,2302,2302,2298,2300,2302,2302,2302,2302,2301,0,0,0,0,0,0,0,0,0,0,0,0,0,0,0,0,0,0,0,0,0,0,0,0,0,0,0,0,0,0,0,0,0,0,0,0,0,0,0,0,0,0,0,0,0,0,0,0,0,0,0,0,0,0,0,0,0,0,0,
0,0,0,0,0,0,0,0,0,0,2303,2302,2302,2302,2298,2300,2302,2302,2302,2302,2301,0,0,0,0,0,0,0,0,0,0,0,0,0,0,0,0,0,0,0,0,0,0,0,0,0,0,0,0,0,0,0,0,0,0,0,0,0,0,0,0,0,0,0,0,0,0,0,0,0,0,0,0,0,0,0,0,0,0,0,
0,0,0,0,0,0,0,0,0,0,2250,2302,2302,2302,2350,2352,2302,2302,2302,2302,2301,0,0,0,0,0,0,0,0,0,0,0,0,0,0,0,0,0,0,0,0,0,0,0,0,0,0,0,0,0,0,0,0,0,0,0,0,0,0,0,0,0,0,0,0,0,0,0,0,0,0,0,0,0,0,0,0,0,0,0,
0,0,0,0,0,0,0,0,0,0,0,2303,2302,2302,2302,2302,2302,2302,2302,2250,0,0,0,0,0,0,0,0,0,0,0,0,0,0,0,0,0,0,0,0,0,0,0,0,0,0,0,0,0,0,0,0,0,0,0,0,0,0,0,0,0,0,0,0,0,0,0,0,0,0,0,0,0,0,0,0,0,0,0,0,
0,0,0,0,0,0,0,0,0,0,0,2303,2302,2302,2302,2302,2302,2302,2250,0,0,0,0,0,0,0,0,0,0,0,0,0,0,0,0,0,0,0,0,0,0,0,0,0,0,0,0,0,0,0,0,0,0,0,0,0,0,0,0,0,0,0,0,0,0,0,0,0,0,0,0,0,0,0,0,0,0,0,0,0,
0,0,0,0,0,0,0,0,0,0,0,2250,2250,2302,2302,2302,2302,2250,0,0,0,0,0,0,0,0,0,0,0,0,0,0,0,0,0,0,0,0,0,0,0,0,0,0,0,0,0,0,0,0,0,0,0,0,0,0,0,0,0,0,0,0,0,0,0,0,0,0,0,0,0,0,0,0,0,0,0,0,0,0,
0,0,0,0,0,0,0,0,0,0,0,0,0,2250,2250,2250,2250,0,0,0,0,0,0,0,0,0,0,0,0,0,0,0,0,0,0,0,0,0,0,0,0,0,0,0,0,0,0,0,0,0,0,0,0,0,0,0,0,0,0,0,0,0,0,0,0,0,0,0,0,0,0,0,0,0,0,0,0,0,0,0,
0,0,0,0,0,0,0,0,0,0,0,0,0,0,0,0,0,0,0,0,0,0,0,0,0,0,0,0,0,0,0,0,0,0,0,0,0,0,0,0,0,0,0,0,0,0,0,0,0,0,0,0,0,0,0,0,0,0,0,0,0,0,0,0,0,0,0,0,0,0,0,0,0,0,0,0,0,0,0,0,
0,0,0,0,0,0,0,0,0,0,0,0,0,0,0,0,0,0,0,0,0,0,0,0,0,0,0,0,0,0,0,0,0,0,0,0,0,0,0,0,0,0,0,0,0,0,0,0,0,0,0,0,0,0,0,0,0,0,0,0,0,0,0,0,0,0,0,0,0,0,0,0,0,0,0,0,0,0,0,0,
0,0,0,0,0,0,2406,0,0,0,0,0,0,0,0,0,0,0,0,0,0,0,0,0,0,0,0,0,0,0,0,0,0,0,0,0,0,0,0,0,0,0,0,0,0,0,0,0,0,0,2354,2354,2354,2354,2354,2354,0,0,0,0,0,0,0,0,0,0,0,0,0,0,0,0,0,0,0,0,0,2354,2354,2354,
0,0,0,0,0,2457,2458,0,0,0,0,0,0,0,0,0,0,0,0,0,0,0,0,0,0,0,0,0,0,0,0,0,0,0,0,0,0,0,0,0,0,0,0,0,0,0,0,0,0,2303,2302,2302,2302,2302,2302,2302,2301,0,0,0,0,0,0,0,0,0,0,0,0,0,0,0,0,0,0,0,2303,2302,2302,2302,
0,0,0,0,0,0,0,0,0,0,0,0,0,0,0,0,0,0,0,0,0,0,0,0,0,0,0,0,0,0,0,0,0,0,0,0,0,0,0,0,0,0,0,0,0,0,0,0,2303,2302,2302,2302,2302,2302,2302,2302,2302,2301,0,0,0,0,0,0,0,0,0,0,0,0,0,0,0,0,0,2303,2302,2302,2302,2302,
0,0,0,0,0,0,0,0,0,0,0,0,0,0,0,0,0,0,0,0,0,0,0,0,0,0,0,0,0,0,0,0,0,0,0,0,0,0,0,0,0,0,0,0,0,0,0,0,2303,2302,2302,2302,2302,2302,2302,2302,2302,2301,0,0,0,0,0,0,0,0,0,0,0,0,0,0,0,0,0,2303,2302,2302,2302,2302,
0,0,0,0,0,0,0,0,0,0,0,0,0,0,0,0,0,0,0,0,0,0,0,0,0,0,0,0,0,0,0,0,0,0,0,0,0,0,0,0,0,0,0,0,0,0,0,0,0,2303,2302,2302,2302,2302,2302,2302,2301,0,0,0,0,0,0,0,0,0,0,0,0,0,0,0,0,0,0,0,2303,2302,2302,2302,
0,0,0,0,0,0,0,0,0,0,0,0,0,0,0,0,0,0,0,0,0,0,0,0,0,0,0,0,0,0,0,0,0,0,0,0,0,0,0,0,0,0,0,0,0,0,0,0,0,0,2250,2250,2250,2250,2250,2250,0,0,0,0,0,0,0,0,0,0,0,0,0,0,0,0,0,0,0,0,0,2250,2250,2250,
0,0,0,0,0,0,0,0,0,0,0,0,0,0,0,0,0,0,0,0,0,0,0,0,0,0,0,0,0,0,0,0,0,0,0,0,0,0,0,0,0,0,0,0,0,0,0,0,0,0,0,0,0,0,0,0,0,0,0,0,0,0,0,0,0,0,0,0,0,0,0,0,0,0,0,0,0,0,0,0,
0,0,0,0,0,0,0,0,0,0,0,0,0,0,0,0,0,0,0,0,0,0,0,0,0,0,0,0,0,0,0,0,0,0,0,0,0,0,0,0,0,0,0,0,0,0,0,0,0,0,0,0,0,0,0,0,0,0,0,0,0,0,0,0,0,0,0,0,0,0,0,0,0,0,0,0,0,0,0,0,
0,0,0,0,0,0,0,0,0,0,0,0,0,0,0,0,0,0,0,0,0,0,0,0,0,0,0,0,0,0,0,0,0,0,0,0,0,0,0,0,0,0,0,0,0,0,0,0,0,0,0,0,0,0,0,0,0,0,0,0,0,0,0,0,0,0,0,0,0,0,0,0,0,0,0,0,0,0,0,0,
0,0,0,0,0,0,0,0,0,0,0,0,0,0,0,0,0,0,0,0,0,0,0,0,0,0,0,0,0,0,0,0,0,0,0,0,0,0,0,0,0,0,0,0,0,0,0,0,0,0,0,0,0,0,0,0,0,0,0,0,0,0,0,0,0,0,0,0,0,0,0,0,0,0,0,0,0,0,0,0,
0,0,0,0,0,0,0,0,0,0,0,0,0,0,0,0,0,0,0,0,0,0,0,0,0,0,0,0,0,0,0,0,0,0,0,0,0,0,0,0,0,0,0,0,0,0,0,0,0,0,0,0,0,0,0,0,0,0,0,0,0,0,0,0,0,0,0,0,0,0,0,0,0,0,0,0,0,0,0,0,
0,0,0,0,0,0,0,0,0,0,0,0,0,0,0,0,0,0,0,0,0,0,0,0,0,0,0,0,0,0,0,0,0,0,0,0,0,0,0,0,0,0,0,0,0,0,0,0,0,0,0,0,0,0,0,0,0,0,0,0,0,0,0,0,0,0,0,0,0,0,0,0,0,0,0,0,0,0,0,0,
0,0,0,0,0,0,0,0,0,0,0,0,0,0,0,0,0,0,0,0,0,0,0,0,0,0,0,0,0,0,0,0,0,0,0,0,0,0,0,0,0,0,0,0,0,0,0,0,0,0,0,0,0,0,0,0,0,0,0,0,0,0,0,0,0,0,0,0,0,0,0,0,0,0,0,0,0,0,0,0,
0,0,0,0,0,0,0,0,0,0,0,0,0,0,0,0,0,0,0,0,0,0,0,0,0,0,0,0,0,0,0,0,0,0,0,0,0,0,0,0,0,0,0,0,0,0,0,0,0,0,0,0,0,0,0,0,0,0,0,0,0,0,0,0,0,0,0,0,0,0,0,0,0,0,0,0,0,0,0,0,
0,0,0,0,0,0,0,0,0,0,0,0,0,0,0,0,0,0,0,0,0,0,0,0,0,0,0,0,0,0,0,0,0,0,0,0,0,0,0,0,0,0,0,0,0,0,0,0,0,0,0,0,0,0,0,0,0,0,0,0,0,0,0,0,0,0,0,0,0,0,0,0,0,0,0,0,0,0,0,0,
0,0,0,0,0,0,0,0,0,0,0,0,0,0,0,0,0,0,0,0,0,0,0,0,0,0,0,0,0,0,0,0,0,0,0,0,0,0,0,0,0,0,0,0,0,0,0,0,0,0,0,0,0,0,0,0,0,0,0,0,0,0,0,0,0,0,0,0,0,0,0,0,0,0,0,0,0,0,0,0,
0,0,0,0,0,0,0,0,0,0,0,0,0,0,0,0,0,0,0,0,0,0,0,0,0,0,0,0,0,0,0,0,0,0,0,0,0,0,0,0,0,0,0,0,0,0,0,0,0,0,0,0,0,0,0,0,0,0,0,0,0,0,0,0,0,0,0,0,0,0,0,0,0,0,0,0,0,0,0,0,
0,0,0,0,0,0,0,0,0,0,0,0,0,0,0,0,0,0,0,0,0,0,0,0,0,0,0,0,0,0,0,0,0,0,0,0,0,0,0,0,0,0,0,0,0,0,0,0,0,0,0,0,0,0,0,0,0,0,0,0,0,0,0,0,0,0,0,0,0,0,0,0,0,0,0,0,0,0,0,0,
0,0,0,0,0,0,0,0,0,0,0,0,0,0,0,0,0,0,0,0,0,0,0,0,0,0,0,0,0,0,0,0,0,0,0,0,0,0,0,0,0,0,0,0,0,0,0,0,0,0,0,0,0,0,0,0,0,0,0,0,0,0,0,0,0,0,0,0,0,0,0,0,0,0,0,0,0,0,0,0,
0,0,0,0,0,0,0,0,0,0,0,0,0,0,0,0,0,0,0,0,0,0,0,0,0,0,0,0,0,0,0,0,0,0,0,0,0,0,0,0,0,0,0,0,0,0,0,0,0,0,0,0,0,0,0,0,0,0,0,0,0,0,0,0,0,0,0,0,0,0,0,0,0,0,0,0,0,0,0,0,
0,0,0,0,0,0,0,0,0,0,0,0,0,0,0,0,0,0,0,0,0,0,0,0,0,0,0,0,0,0,0,0,0,0,0,0,0,0,0,0,0,0,0,0,0,0,0,0,0,0,0,0,0,0,0,0,0,0,0,0,0,0,0,0,0,0,0,0,0,0,0,0,0,0,0,0,0,0,0,0,
0,0,0,0,0,0,0,0,0,0,0,0,0,0,0,0,0,0,0,0,0,0,0,0,0,0,0,0,0,0,0,0,0,0,0,0,0,0,0,0,0,0,0,0,0,0,0,0,0,0,0,0,0,0,0,0,0,0,0,0,0,0,0,0,0,0,0,0,0,0,0,0,0,0,0,0,0,0,0,0,
0,0,0,0,0,0,0,0,0,0,0,0,0,0,0,0,0,0,0,0,0,0,0,0,0,0,0,0,0,0,0,0,0,0,0,0,0,0,0,0,0,0,0,0,0,0,0,0,0,0,0,0,0,0,0,0,0,0,0,0,0,0,0,0,0,0,0,0,0,0,0,0,0,0,0,0,0,0,0,0,
0,0,0,0,0,0,0,0,0,0,0,0,0,0,0,0,0,0,0,0,0,0,0,0,0,0,0,0,0,0,0,0,0,0,0,0,0,0,0,0,0,0,0,0,0,0,0,0,0,0,0,0,0,0,0,0,0,0,0,0,0,0,0,0,0,0,0,0,0,0,0,0,0,0,0,0,0,0,0,0,
0,0,0,0,0,0,0,0,0,0,0,0,0,0,0,0,0,0,0,0,0,0,0,0,0,0,0,0,0,0,0,0,0,0,0,0,0,0,0,0,0,0,0,0,0,0,0,0,0,0,0,0,0,0,0,0,0,0,0,0,0,0,0,0,0,0,0,0,0,0,0,0,0,0,0,0,0,0,0,0,
0,0,0,0,0,0,0,0,0,0,0,0,0,0,0,0,0,0,0,0,0,0,0,0,0,0,0,0,0,0,0,0,0,0,0,0,0,0,0,0,0,0,0,0,0,0,0,0,0,0,0,0,0,0,0,0,0,0,0,0,0,0,0,0,0,0,0,0,0,0,0,0,0,0,0,0,0,0,0,0,
0,0,0,0,0,0,0,0,0,0,0,0,0,0,0,0,0,0,0,0,0,0,0,0,0,0,0,0,0,0,0,0,0,0,0,0,0,0,0,0,0,0,0,0,0,0,0,0,0,0,0,0,0,0,0,0,0,0,0,0,0,0,0,0,0,0,0,0,0,0,0,0,0,0,0,0,0,0,0,0,
0,0,0,0,0,0,0,0,0,0,0,0,0,0,0,0,0,0,0,0,0,0,0,0,0,0,0,0,0,0,0,0,0,0,0,0,0,0,0,0,0,0,0,0,0,0,0,0,0,0,0,0,0,0,0,0,0,0,0,0,0,0,0,0,0,0,0,0,0,0,0,0,0,0,0,0,0,0,0,0,
0,0,0,0,0,0,0,0,0,0,0,0,0,0,0,0,0,0,0,0,0,0,0,0,0,0,0,0,0,0,0,0,0,0,0,0,0,0,0,0,0,0,0,0,0,0,0,0,0,0,0,0,0,0,0,0,0,0,0,0,0,0,0,0,0,0,0,0,0,0,0,0,0,0,0,0,0,0,0,0,
0,0,0,0,0,0,0,0,0,0,0,0,0,0,0,0,0,0,0,0,0,0,0,0,0,0,0,0,0,0,0,0,0,0,0,0,0,0,0,0,0,0,0,0,0,0,0,0,0,0,0,0,0,0,0,0,0,0,0,0,0,0,0,0,0,0,0,0,0,0,0,0,0,0,0,0,0,0,0,0,
0,0,0,0,0,0,0,0,0,0,0,0,0,0,0,0,0,0,0,0,0,0,0,0,0,0,0,0,0,0,0,0,0,0,0,0,0,0,0,0,0,0,0,0,0,0,0,0,0,0,0,0,0,0,0,0,0,0,0,0,0,0,0,0,0,0,0,0,0,0,0,0,0,0,0,0,0,0,0,0,
0,0,0,0,0,0,0,0,0,0,0,0,0,0,0,0,0,0,0,0,0,0,0,0,0,0,0,0,0,0,0,0,0,0,0,0,0,0,0,0,0,0,0,0,0,0,0,0,0,0,0,0,0,0,0,0,0,0,0,0,0,0,0,0,0,0,0,0,0,0,0,0,0,0,0,0,0,0,0,0,
0,0,0,0,0,0,0,0,0,0,0,0,0,0,0,0,0,0,0,0,0,0,0,0,0,0,0,0,0,0,0,0,0,0,0,0,0,0,0,0,0,0,0,0,0,0,0,0,0,0,0,0,0,0,0,0,0,0,0,0,0,0,0,0,0,0,0,0,0,0,0,0,0,0,0,0,0,0,0,0,
0,0,0,0,0,0,0,0,0,0,0,0,0,0,0,0,0,0,0,0,0,0,0,0,0,0,0,0,0,0,0,0,0,0,0,0,0,0,0,0,0,0,0,0,0,0,0,0,0,0,0,0,0,0,0,0,0,0,0,0,0,0,0,0,0,0,0,0,0,0,0,0,0,0,0,0,0,0,0,0,
0,0,0,0,0,0,0,0,0,0,0,0,0,0,0,0,0,0,0,0,0,0,0,0,0,0,0,0,0,0,0,0,0,0,0,0,0,0,0,0,0,0,0,0,0,0,0,0,0,0,0,0,0,0,0,0,0,0,0,0,0,0,0,0,0,0,0,0,0,0,0,0,0,0,0,0,0,0,0,0,
0,0,0,0,0,0,0,0,0,0,0,0,0,0,0,0,0,0,0,0,0,0,0,0,0,0,0,0,0,0,0,0,0,0,0,0,0,0,0,0,0,0,0,0,0,0,0,0,0,0,0,0,0,0,0,0,0,0,0,0,0,0,0,0,0,0,0,0,0,0,0,0,0,0,0,0,0,0,0,0,
0,0,0,0,0,0,0,0,0,0,0,0,0,0,0,0,0,0,0,0,0,0,0,0,0,0,0,0,0,0,0,0,0,0,0,0,0,0,0,0,0,0,0,0,0,0,0,0,0,0,0,0,0,0,0,0,0,0,0,0,0,0,0,0,0,0,0,0,0,0,0,0,0,0,0,0,0,0,0,0,
0,0,0,0,0,0,0,0,0,0,0,0,0,0,0,0,0,0,0,0,0,0,0,0,0,0,0,0,0,0,0,0,0,0,0,0,0,0,0,0,0,0,0,0,0,0,0,0,0,0,0,0,0,0,0,0,0,0,0,0,0,0,0,0,0,0,0,0,0,0,0,0,0,0,0,0,0,0,0,0,
0,0,0,0,0,0,0,0,0,0,0,0,0,0,0,0,0,0,0,0,0,0,0,0,0,0,0,0,0,0,0,0,0,0,0,0,0,0,0,0,0,0,0,0,0,0,0,0,0,0,0,0,0,0,0,0,0,0,0,0,0,0,0,0,0,0,0,0,0,0,0,0,0,0,0,0,0,0,0,0,
0,0,0,0,0,0,0,0,0,0,0,0,0,0,0,0,0,0,0,0,0,0,0,0,0,0,0,0,0,0,0,0,0,0,0,0,0,0,0,0,0,0,0,0,0,0,0,0,0,0,0,0,0,0,0,0,0,0,0,0,0,0,0,0,0,0,0,0,0,0,0,0,0,0,0,0,0,0,0,0,
0,0,0,0,0,0,0,0,0,0,0,0,0,0,0,0,0,0,0,0,0,0,0,0,0,0,0,0,0,0,0,0,0,0,0,0,0,0,0,0,0,0,0,0,0,0,0,0,0,0,0,0,0,0,0,0,0,0,0,0,0,0,0,0,0,0,0,0,0,0,0,0,0,0,0,0,0,0,0,0,
0,0,0,0,0,0,0,0,0,0,0,0,0,0,0,0,0,0,0,0,0,0,0,0,0,0,0,0,0,0,0,0,0,0,0,0,0,0,0,0,0,0,0,0,0,0,0,0,0,0,0,0,0,0,0,0,0,0,0,0,0,0,0,0,0,0,0,0,0,0,0,0,0,0,0,0,0,0,0,0,
0,0,0,0,0,0,0,0,0,0,0,0,0,0,0,0,0,0,0,0,0,0,0,0,0,0,0,0,0,0,0,0,0,0,0,0,0,0,0,0,0,0,0,0,0,0,0,0,0,0,0,0,0,0,0,0,0,0,0,0,0,0,0,0,0,0,0,0,0,0,0,0,0,0,0,0,0,0,0,0,
0,0,0,0,0,0,0,0,0,0,0,0,0,0,0,0,0,0,0,0,0,0,0,0,0,0,0,0,0,0,0,0,0,0,0,0,0,0,0,0,0,0,0,0,0,0,0,0,0,0,0,0,0,0,0,0,0,0,0,0,0,0,0,0,0,0,0,0,0,0,0,0,0,0,0,0,0,0,0,0,
0,0,0,0,0,0,0,0,0,0,0,0,0,0,0,0,0,0,0,0,0,0,0,0,0,0,0,0,0,0,0,0,0,0,0,0,0,0,0,0,0,0,0,0,0,0,0,0,0,0,0,0,0,0,0,0,0,0,0,0,0,0,0,0,0,0,0,0,0,0,0,0,0,0,0,0,0,0,0,0,
0,0,0,0,0,0,0,0,0,0,0,0,0,0,0,0,0,0,0,0,0,0,0,0,0,0,0,0,0,0,0,0,0,0,0,0,0,0,0,0,0,0,0,0,0,0,0,0,0,0,0,0,0,0,0,0,0,0,0,0,0,0,0,0,0,0,0,0,0,0,0,0,0,0,0,0,0,0,0,0,
0,0,0,0,0,0,0,0,0,0,0,0,0,0,0,0,0,0,0,0,0,0,0,0,0,0,0,0,0,0,0,0,0,0,0,0,0,0,0,0,0,0,0,0,0,0,0,0,0,0,0,0,0,0,0,0,0,0,0,0,0,0,0,0,0,0,0,0,0,0,0,0,0,0,0,0,0,0,0,0,
0,0,0,0,0,0,0,0,0,0,0,0,0,0,0,0,0,0,0,0,0,0,0,0,0,0,0,0,0,0,0,0,0,0,0,0,0,0,0,0,0,0,0,0,0,0,0,0,0,0,0,0,0,0,0,0,0,0,0,0,0,0,0,0,0,0,0,0,0,0,0,0,0,0,0,0,0,0,0,0,
0,0,0,0,0,0,0,0,0,0,0,0,0,0,0,0,0,0,0,0,0,0,0,0,0,0,0,0,0,0,0,0,0,0,0,0,0,0,0,0,0,0,0,0,0,0,0,0,0,0,0,0,0,0,0,0,0,0,0,0,0,0,0,0,0,0,0,0,0,0,0,0,0,0,0,0,0,0,0,0,
0,0,0,0,0,0,0,0,0,0,0,0,0,0,0,0,0,0,0,0,0,0,0,0,0,0,0,0,0,0,0,0,0,0,0,0,0,0,0,0,0,0,0,0,0,0,0,0,0,0,0,0,0,0,0,0,0,0,0,0,0,0,0,0,0,0,0,0,0,0,0,0,0,0,0,0,0,0,0,0,
0,0,0,0,0,0,0,0,0,0,0,0,0,0,0,0,0,0,0,0,0,0,0,0,0,0,0,0,0,0,0,0,0,0,0,0,0,0,0,0,0,0,0,0,0,0,0,0,0,0,0,0,0,0,0,0,0,0,0,0,0,0,0,0,0,0,0,0,0,0,0,0,0,0,0,0,0,0,0,0,
0,0,0,0,0,0,0,0,0,0,0,0,0,0,0,0,0,0,0,0,0,0,0,0,0,0,0,0,0,0,0,0,0,0,0,0,0,0,0,0,0,0,0,0,0,0,0,0,0,0,0,0,0,0,0,0,0,0,0,0,0,0,0,0,0,0,0,0,0,0,0,0,0,0,0,0,0,0,0,0,
0,0,0,0,0,0,0,0,0,0,0,0,0,0,0,0,0,0,0,0,0,0,0,0,0,0,0,0,0,0,0,0,0,0,0,0,0,0,0,0,0,0,0,0,0,0,0,0,0,0,0,0,0,0,0,0,0,0,0,0,0,0,0,0,0,0,0,0,0,0,0,0,0,0,0,0,0,0,0,0,
0,0,0,0,0,0,0,0,0,0,0,0,0,0,0,0,0,0,0,0,0,0,0,0,0,0,0,0,0,0,0,0,0,0,0,0,0,0,0,0,0,0,0,0,0,0,0,0,0,0,0,0,0,0,0,0,0,0,0,0,0,0,0,0,0,0,0,0,0,0,0,0,0,0,0,0,0,0,0,0
</data>
 </layer>
 <layer name="mountain2" width="80" height="70">
  <data encoding="csv">
0,0,0,0,0,0,0,0,0,0,0,0,0,0,0,0,0,0,0,0,0,0,0,0,0,0,0,0,0,0,0,0,0,0,0,0,0,0,0,0,0,0,0,0,0,0,0,0,0,0,0,0,0,0,0,0,0,0,0,0,0,0,0,0,0,0,0,0,0,0,0,0,0,0,0,0,0,0,0,0,
0,0,0,0,0,0,0,0,0,0,0,0,0,0,0,0,0,0,0,0,0,0,0,0,0,0,0,0,0,0,0,0,0,0,0,0,0,0,0,0,0,0,0,0,0,0,0,0,0,0,0,0,0,0,0,0,0,0,0,0,0,0,0,0,0,0,0,0,0,0,0,0,0,0,0,0,0,0,0,0,
0,0,0,0,0,0,0,0,0,0,0,0,0,0,0,0,0,0,0,0,0,0,0,0,0,0,0,0,0,0,0,0,0,0,0,0,0,0,0,0,0,0,0,0,0,0,0,0,0,0,0,0,0,0,0,0,0,0,0,0,0,0,0,0,0,0,0,0,0,0,0,0,0,0,0,0,0,0,0,0,
0,0,0,0,0,0,0,0,0,0,0,0,0,0,0,0,0,0,0,0,0,0,0,0,0,0,0,0,0,0,0,0,0,0,0,0,0,0,0,0,0,0,0,0,0,0,0,0,0,0,0,0,0,0,0,0,0,0,0,0,0,0,0,0,0,0,0,0,0,0,0,0,0,0,0,0,0,0,0,0,
0,0,0,0,0,0,0,0,0,0,0,0,0,0,0,0,0,0,0,0,0,0,0,0,0,0,0,0,0,0,0,0,0,0,0,0,0,0,0,0,0,0,0,0,0,0,0,0,0,0,0,0,0,0,0,0,0,0,0,0,0,0,0,0,0,0,0,0,0,0,0,0,0,0,0,0,0,0,0,0,
0,0,0,0,0,0,0,0,0,0,0,0,0,0,0,0,0,0,0,0,0,0,0,0,0,0,0,0,0,0,0,0,0,0,0,0,0,0,0,0,0,0,0,0,0,0,0,0,0,0,0,0,0,0,0,0,0,0,0,0,0,0,0,0,0,0,0,0,0,0,0,0,0,0,0,0,0,0,0,0,
0,0,0,0,0,0,0,0,0,0,0,0,0,0,0,0,0,0,0,0,0,0,0,0,0,0,0,0,0,0,0,0,0,0,0,0,0,0,0,0,0,0,0,0,0,0,0,0,0,0,0,0,0,0,0,0,0,0,0,0,0,0,0,0,0,0,0,0,0,0,0,0,0,0,0,0,0,0,0,0,
0,0,0,0,0,0,0,0,0,0,0,0,0,0,0,0,0,0,0,0,0,0,0,0,0,0,0,0,0,0,0,0,0,0,0,0,0,0,0,0,0,0,0,0,0,0,0,0,0,0,0,0,0,0,0,0,0,0,0,0,0,0,0,0,0,0,0,0,0,0,0,0,0,0,0,0,0,0,0,0,
0,0,0,0,0,0,0,0,0,0,0,0,0,0,0,0,0,0,0,0,0,0,0,0,0,0,0,0,0,0,0,0,0,0,0,0,0,0,0,0,0,0,0,0,0,0,0,0,0,0,0,0,0,0,0,0,0,0,0,0,0,0,0,0,0,0,0,0,0,0,0,0,0,0,0,0,0,0,0,0,
0,0,0,0,0,0,0,0,0,0,0,0,0,0,0,0,0,0,0,0,0,0,0,0,0,0,0,0,0,0,0,0,0,0,0,0,0,0,0,0,0,0,0,0,0,0,0,0,0,0,0,0,0,0,0,0,0,0,0,0,0,0,0,0,0,0,0,0,0,0,0,0,0,0,0,0,0,0,0,0,
0,0,0,0,0,0,0,0,0,0,0,0,0,0,0,0,0,0,0,0,0,0,0,0,0,0,0,0,0,0,0,0,0,0,0,0,0,0,0,0,0,0,0,0,0,0,0,0,0,0,0,0,0,0,0,0,0,0,0,0,0,0,0,0,0,0,0,0,0,0,0,0,0,0,0,0,0,0,0,0,
0,0,0,0,0,0,0,0,0,0,0,0,0,0,0,0,0,0,0,0,0,0,0,0,0,0,0,0,0,0,0,0,0,0,0,0,0,0,0,0,0,0,0,0,0,0,0,0,0,0,0,0,0,0,0,0,0,0,0,0,0,0,0,0,0,0,0,0,0,0,0,0,0,0,0,0,0,0,0,0,
0,0,0,0,0,0,0,0,0,0,0,0,0,0,0,0,0,0,0,0,0,0,0,0,0,0,0,0,0,0,0,0,0,0,0,0,0,0,0,0,0,0,0,0,0,0,0,0,0,0,0,0,0,0,0,0,0,0,0,0,0,0,0,0,0,0,0,0,0,0,0,0,0,0,0,0,0,0,0,0,
0,0,0,0,0,0,0,0,0,0,0,0,0,0,0,0,0,0,0,0,0,0,0,0,0,0,0,0,0,0,0,0,0,0,0,0,0,0,0,0,0,0,0,0,0,0,0,0,0,0,0,0,0,0,0,0,0,0,0,0,0,0,0,0,0,0,0,0,0,0,0,0,0,0,0,0,0,0,0,0,
0,0,0,0,0,0,0,0,0,0,0,0,0,0,0,0,0,0,0,0,0,0,0,0,0,0,0,0,0,0,0,0,0,0,0,0,0,0,0,0,0,0,0,0,0,0,0,0,0,0,0,0,0,0,0,0,0,0,0,0,0,0,0,0,0,0,0,0,0,0,0,0,0,0,0,0,0,0,0,0,
0,0,0,0,0,0,0,0,0,0,0,0,0,0,0,0,0,0,0,0,0,0,0,0,0,0,0,0,0,0,0,0,0,0,0,0,0,0,0,0,0,0,0,0,0,0,0,0,0,0,0,0,0,0,0,0,0,0,0,0,0,0,0,0,0,0,0,0,0,0,0,0,0,0,0,0,0,0,0,0,
0,0,0,0,0,0,0,0,0,0,0,0,0,0,0,0,0,0,0,0,0,0,0,0,0,0,0,0,0,0,0,0,0,0,0,0,0,0,0,0,0,0,0,0,0,0,0,0,0,0,0,0,0,0,0,0,0,0,0,0,0,0,0,0,0,0,0,0,0,0,0,0,0,0,0,0,0,0,0,0,
0,0,0,0,0,0,0,0,0,0,0,0,0,0,0,0,0,0,0,0,0,0,0,0,0,0,0,0,0,0,0,0,0,0,0,0,0,0,0,0,0,0,0,0,0,0,0,0,0,0,0,0,0,0,0,0,0,0,0,0,0,0,0,0,0,0,0,0,0,0,0,0,0,0,0,0,0,0,0,0,
0,0,0,0,0,0,0,0,0,0,0,0,0,0,0,0,0,0,0,0,0,0,0,0,0,0,0,0,0,0,0,0,0,0,0,0,0,0,0,0,0,0,0,0,0,0,0,0,0,0,0,0,0,0,0,0,0,0,0,0,0,0,0,0,0,0,0,0,0,0,0,0,0,0,0,0,0,0,0,0,
0,0,0,0,0,0,0,0,0,0,0,0,0,0,0,0,0,0,0,0,0,0,0,0,0,0,0,0,0,0,0,0,0,0,0,0,0,0,0,0,0,0,0,0,0,0,0,0,0,0,0,0,0,0,0,0,0,0,0,0,0,0,0,0,0,0,0,0,0,0,0,0,0,0,0,0,0,0,0,0,
0,0,0,0,0,0,0,0,0,0,0,0,0,0,0,0,0,0,0,0,0,0,0,0,0,0,0,0,0,0,0,0,0,0,0,0,0,0,0,0,0,0,0,0,0,0,0,0,0,0,0,0,0,0,0,0,0,0,0,0,0,0,0,0,0,0,0,0,0,0,0,0,0,0,0,0,0,0,0,0,
0,0,0,0,0,0,0,0,0,0,0,0,0,0,0,0,0,0,0,0,0,0,0,0,0,0,0,0,0,0,0,0,0,0,0,0,0,0,0,0,0,0,0,0,0,0,0,0,0,0,0,0,0,0,0,0,0,0,0,0,0,0,0,0,0,0,0,0,0,0,0,0,0,0,0,0,0,0,0,0,
0,0,0,0,0,0,0,0,0,0,0,0,0,0,0,0,0,0,0,0,0,0,0,0,0,0,0,0,0,0,0,0,0,0,0,0,0,0,0,0,0,0,0,0,0,0,0,0,0,0,0,0,0,0,0,0,0,0,0,0,0,0,0,0,0,0,0,0,0,0,0,0,0,0,0,0,0,0,0,0,
0,0,0,0,0,0,0,0,0,0,0,0,0,0,0,0,0,0,0,0,0,0,0,0,0,0,0,0,0,0,0,0,0,0,0,0,0,0,0,0,0,0,0,0,0,0,0,0,0,0,0,0,0,0,0,0,0,0,0,0,0,0,0,0,0,0,0,0,0,0,0,0,0,0,0,0,0,0,0,0,
0,0,0,0,0,0,0,0,0,0,0,0,0,0,0,0,0,0,0,0,0,0,0,0,0,0,0,0,0,0,0,0,0,0,0,0,0,0,0,0,0,0,0,0,0,0,0,0,0,0,0,0,0,0,0,0,0,0,0,0,0,0,0,0,0,0,0,0,0,0,0,0,0,0,0,0,0,0,0,0,
0,0,0,0,0,0,0,0,0,0,0,0,0,0,0,0,0,0,0,0,0,0,0,0,0,0,0,0,0,0,0,0,0,0,0,0,0,0,0,0,0,0,0,0,0,0,0,0,0,0,0,0,0,0,0,0,0,0,0,0,0,0,0,0,0,0,0,0,0,0,0,0,0,0,0,0,0,0,0,0,
0,0,0,0,0,0,0,0,0,0,0,0,0,0,0,0,0,0,0,0,0,0,0,0,0,0,0,0,0,0,0,0,0,0,0,0,0,0,0,0,0,0,0,0,0,0,0,0,0,0,0,0,0,0,0,0,0,0,0,0,0,0,0,0,0,0,0,0,0,0,0,0,0,0,0,0,0,0,0,0,
0,0,0,0,0,0,0,0,0,0,0,0,0,0,0,0,0,0,0,0,0,0,0,0,0,0,0,0,0,0,0,0,0,0,0,0,0,0,0,0,0,0,0,0,0,0,0,0,0,0,0,0,0,0,0,0,0,0,0,0,0,0,0,0,0,0,0,0,0,0,0,0,0,0,0,0,0,0,0,0,
0,0,0,0,0,0,0,0,0,0,0,0,0,0,0,0,0,0,0,0,0,0,0,0,0,0,0,0,0,0,0,0,0,0,0,0,0,0,0,0,0,0,0,0,0,0,0,0,0,0,0,0,0,0,0,0,0,0,0,0,0,0,0,0,0,0,0,0,0,0,0,0,0,0,0,0,0,0,0,0,
0,0,0,0,0,0,0,0,0,0,0,0,0,0,0,0,0,0,0,0,0,0,0,0,0,0,0,0,0,0,0,0,0,0,0,0,0,0,0,0,0,0,0,0,0,0,0,0,0,0,0,0,0,0,0,0,0,0,0,0,0,0,0,0,0,0,0,0,0,0,0,0,0,0,0,0,0,0,0,0,
0,0,0,0,0,0,0,0,0,0,0,0,0,0,0,0,0,0,0,0,0,0,0,0,0,0,0,0,0,0,0,0,0,0,0,0,0,0,0,0,0,0,0,0,0,0,0,0,0,0,0,0,0,0,0,0,0,0,0,0,0,0,0,0,0,0,0,0,0,0,0,0,0,0,0,0,0,0,0,0,
0,0,0,0,0,0,0,0,0,0,0,0,0,0,0,0,0,0,0,0,0,0,0,0,0,0,0,0,0,0,0,0,0,0,0,0,0,0,0,0,0,0,0,0,0,0,0,0,0,0,0,0,0,0,0,0,0,0,0,0,0,0,0,0,0,0,0,0,0,0,0,0,0,0,0,0,0,0,0,0,
0,0,0,0,0,0,0,0,0,0,0,0,0,0,0,0,0,0,0,0,0,0,0,0,0,0,0,0,0,0,0,0,0,0,0,0,0,0,0,0,0,0,0,0,0,0,0,0,0,0,0,0,0,0,0,0,0,0,0,0,0,0,0,0,0,0,0,0,0,0,0,0,0,0,0,0,0,0,0,0,
0,0,0,0,0,0,0,0,0,0,0,0,0,0,0,0,0,0,0,0,0,0,0,0,0,0,0,0,0,0,0,0,0,0,0,0,0,0,0,0,0,0,0,0,0,0,0,0,0,0,0,0,0,0,0,0,0,0,0,0,0,0,0,0,0,0,0,0,0,0,0,0,0,0,0,0,0,0,0,0,
0,0,0,0,0,0,0,0,0,0,0,0,0,0,0,0,0,0,0,0,0,0,0,0,0,0,0,0,0,0,0,0,0,0,0,0,0,0,0,0,0,0,0,0,0,0,0,0,0,0,0,0,0,0,0,0,0,0,0,0,0,0,0,0,0,0,0,0,0,0,0,0,0,0,0,0,0,0,0,0,
0,0,0,0,0,0,0,0,0,0,0,0,0,0,0,0,0,0,0,0,0,0,0,0,0,0,0,0,0,0,0,0,0,0,0,0,0,0,0,0,0,0,0,0,0,0,0,0,0,0,0,0,0,0,0,0,0,0,0,0,0,0,0,0,0,0,0,0,0,0,0,0,0,0,0,0,0,0,0,0,
0,0,0,0,0,0,0,0,0,0,0,0,0,0,0,0,0,0,0,0,0,0,0,0,0,0,0,0,0,0,0,0,0,0,0,0,0,0,0,0,0,0,0,0,0,0,0,0,0,0,0,0,0,0,0,0,0,0,0,0,0,0,0,0,0,0,0,0,0,0,0,0,0,0,0,0,0,0,0,0,
0,0,0,0,0,0,0,0,0,0,0,0,0,0,0,0,0,0,0,0,0,0,0,0,0,0,0,0,0,0,0,0,0,0,0,0,0,0,0,0,0,0,0,0,0,0,0,0,0,0,0,0,0,0,0,0,0,0,0,0,0,0,0,0,0,0,0,0,0,0,0,0,0,0,0,0,0,0,0,0,
0,0,0,0,0,0,0,0,0,0,0,0,0,0,0,0,0,0,0,0,0,0,0,0,0,0,0,0,0,0,0,0,0,0,0,0,0,0,0,0,0,0,0,0,0,0,0,0,0,0,0,0,0,0,0,0,0,0,0,0,0,0,0,0,0,0,0,0,0,0,0,0,0,0,0,0,0,0,0,0,
0,0,0,0,0,0,0,0,0,0,0,0,0,0,0,0,0,0,0,0,0,0,0,0,0,0,0,0,0,0,0,0,0,0,0,0,0,0,0,0,0,0,0,0,0,0,0,0,0,0,0,0,0,0,0,0,0,0,0,0,0,0,0,0,0,0,0,0,0,0,0,0,0,0,0,0,0,0,0,0,
0,0,0,0,0,0,0,0,0,0,0,0,0,0,0,0,0,0,0,0,0,0,0,0,0,0,0,0,0,0,0,0,0,0,0,0,0,0,0,0,0,0,0,0,0,0,0,0,0,0,0,0,0,0,0,0,0,0,0,0,0,0,0,0,0,0,0,0,0,0,0,0,0,0,0,0,0,0,0,0,
0,0,0,0,0,0,0,0,0,0,0,0,0,0,0,0,0,0,0,0,0,0,0,0,0,0,0,0,0,0,0,0,0,0,0,0,0,0,0,0,0,0,0,0,0,0,0,0,0,0,0,0,0,0,0,0,0,0,0,0,0,0,0,0,0,0,0,0,0,0,0,0,0,0,0,0,0,0,0,0,
0,0,0,0,0,0,0,0,0,0,0,0,0,0,0,0,0,0,0,0,0,0,0,0,0,0,0,0,0,0,0,0,0,0,0,0,0,0,0,0,0,0,0,0,0,0,0,0,0,0,0,0,0,0,0,0,0,0,0,0,0,0,0,0,0,0,0,0,0,0,0,0,0,0,0,0,0,0,0,0,
0,0,0,0,0,0,0,0,0,0,0,0,0,0,0,0,0,0,0,0,0,0,0,0,0,0,0,0,0,0,0,0,0,0,0,0,0,0,0,0,0,0,0,0,0,0,0,0,0,0,0,0,0,0,0,0,0,0,0,0,0,0,0,0,0,0,0,0,0,0,0,0,0,0,0,0,0,0,0,0,
0,0,0,0,0,0,0,0,0,0,0,0,0,0,0,0,0,0,0,0,0,0,0,0,0,0,0,0,0,0,0,0,0,0,0,0,0,0,0,0,0,0,0,0,0,0,0,0,0,0,0,0,0,0,0,0,0,0,0,0,0,0,0,0,0,0,0,0,0,0,0,0,0,0,0,0,0,0,0,0,
0,0,0,0,0,0,0,0,0,0,0,0,0,0,0,0,0,0,0,0,0,0,0,0,0,0,0,0,0,0,0,0,0,0,0,0,0,0,0,0,0,0,0,0,0,0,0,0,0,0,0,0,0,0,0,0,0,0,0,0,0,0,0,0,0,0,0,0,0,0,0,0,0,0,0,0,0,0,0,0,
0,0,0,0,0,0,0,0,0,0,0,0,0,0,0,0,0,0,0,0,0,0,0,0,0,0,0,0,0,0,0,0,0,0,0,0,0,0,0,0,0,0,0,0,0,0,0,0,0,0,0,0,0,0,0,0,0,0,0,0,0,0,0,0,0,0,0,0,0,0,0,0,0,0,0,0,0,0,0,0,
0,0,0,0,0,0,0,0,0,0,0,0,0,0,0,0,0,0,0,0,0,0,0,0,0,0,0,0,0,0,0,0,0,0,0,0,0,0,0,0,0,0,0,0,0,0,0,0,0,0,0,0,0,0,0,0,0,0,0,0,0,0,0,0,0,0,0,0,0,0,0,0,0,0,0,0,0,0,0,0,
0,0,0,0,0,0,0,0,0,0,0,0,0,0,0,0,0,0,0,0,0,0,0,0,0,0,0,0,0,0,0,0,0,0,0,0,0,0,0,0,0,0,0,0,0,0,0,0,0,0,0,0,0,0,0,0,0,0,0,0,0,0,0,0,0,0,0,0,0,0,0,0,0,0,0,0,0,0,0,0,
0,0,0,0,0,0,0,0,0,0,0,0,0,0,0,0,0,0,0,0,0,0,0,0,0,0,0,0,0,0,0,0,0,0,0,0,0,0,0,0,0,0,0,0,0,0,0,0,0,0,0,0,0,0,0,0,0,0,0,0,0,0,0,0,0,0,0,0,0,0,0,0,0,0,0,0,0,0,0,0,
0,0,0,0,0,0,0,0,0,0,0,0,0,0,0,0,0,0,0,0,0,0,0,0,0,0,0,0,0,0,0,0,0,0,0,0,0,0,0,0,0,0,0,0,0,0,0,0,0,0,0,0,0,0,0,0,0,0,0,0,0,0,0,0,0,0,0,0,0,0,0,0,0,0,0,0,0,0,0,0,
0,0,0,0,0,0,0,0,0,0,0,0,0,0,0,0,0,0,0,0,0,0,0,0,0,0,0,0,0,0,0,0,0,0,0,0,0,0,0,0,0,0,0,0,0,0,0,0,0,0,0,0,0,0,0,0,0,0,0,0,0,0,0,0,0,0,0,0,0,0,0,0,0,0,0,0,0,0,0,0,
0,0,0,0,0,0,0,0,0,0,0,0,0,0,0,0,0,0,0,0,0,0,0,0,0,0,0,0,0,0,0,0,0,0,0,0,0,0,0,0,0,0,0,0,0,0,0,0,0,0,0,0,0,0,0,0,0,0,0,0,0,0,0,0,0,0,0,0,0,0,0,0,0,0,0,0,0,0,0,0,
0,0,0,0,0,0,0,0,0,0,0,0,0,0,0,0,0,0,0,0,0,0,0,0,0,0,0,0,0,0,0,0,0,0,0,0,0,0,0,0,0,0,0,0,0,0,0,0,0,0,0,0,0,0,0,0,0,0,0,0,0,0,0,0,0,0,0,0,0,0,0,0,0,0,0,0,0,0,0,0,
0,0,0,0,0,0,0,0,0,0,0,0,0,0,0,0,0,0,0,0,0,0,0,0,0,0,0,0,0,0,0,0,0,0,0,0,0,0,0,0,0,0,0,0,0,0,0,0,0,0,0,0,0,0,0,0,0,0,0,0,0,0,0,0,0,0,0,0,0,0,0,0,0,0,0,0,0,0,0,0,
0,0,0,0,0,0,0,0,0,0,0,0,0,0,0,0,0,0,0,0,0,0,0,0,0,0,0,0,0,0,0,0,0,0,0,0,0,0,0,0,0,0,0,0,0,0,0,0,0,0,0,0,0,0,0,0,0,0,0,0,0,0,0,0,0,0,0,0,0,0,0,0,0,0,0,0,0,0,0,0,
0,0,0,0,0,0,0,0,0,0,0,0,0,0,0,0,0,0,0,0,0,0,0,0,0,0,0,0,0,0,0,0,0,0,0,0,0,0,0,0,0,0,0,0,0,0,0,0,0,0,0,0,0,0,0,0,0,0,0,0,0,0,0,0,0,0,0,0,0,0,0,0,0,0,0,0,0,0,0,0,
0,0,0,0,0,0,0,0,0,0,0,0,0,0,0,0,0,0,0,0,0,0,0,0,0,0,0,0,0,0,0,0,0,0,0,0,0,0,0,0,0,0,0,0,0,0,0,0,0,0,0,0,0,0,0,0,0,0,0,0,0,0,0,0,0,0,0,0,0,0,0,0,0,0,0,0,0,0,0,0,
0,0,0,0,0,0,0,0,0,0,0,0,0,0,0,0,0,0,0,0,0,0,0,0,0,0,0,0,0,0,0,0,0,0,0,0,0,0,0,0,0,0,0,0,0,0,0,0,0,0,0,0,0,0,0,0,0,0,0,0,0,0,0,0,0,0,0,0,0,0,0,0,0,0,0,0,0,0,0,0,
0,0,0,0,0,0,0,0,0,0,0,0,0,0,0,0,0,0,0,0,0,0,0,0,0,0,0,0,0,0,0,0,0,0,0,0,0,0,0,0,0,0,0,0,0,0,0,0,0,0,0,0,0,0,0,0,0,0,0,0,0,0,0,0,0,0,0,0,0,0,0,0,0,0,0,0,0,0,0,0,
0,0,0,0,0,0,0,0,0,0,0,0,0,0,0,0,0,0,0,0,0,0,0,0,0,0,0,0,0,0,0,0,0,0,0,0,0,0,0,0,0,0,0,0,0,0,0,0,0,0,0,0,0,0,0,0,0,0,0,0,0,0,0,0,0,0,0,0,0,0,0,0,0,0,0,0,0,0,0,0,
0,0,0,0,0,0,0,0,0,0,0,0,0,0,0,0,0,0,0,0,0,0,0,0,0,0,0,0,0,0,0,0,0,0,0,0,0,0,0,0,0,0,0,0,0,0,0,0,0,0,0,0,0,0,0,0,0,0,0,0,0,0,0,0,0,0,0,0,0,0,0,0,0,0,0,0,0,0,0,0,
0,0,0,0,0,0,0,0,0,0,0,0,0,0,0,0,0,0,0,0,0,0,0,0,0,0,0,0,0,0,0,0,0,0,0,0,0,0,0,0,0,0,0,0,0,0,0,0,0,0,0,0,0,0,0,0,0,0,0,0,0,0,0,0,0,0,0,0,0,0,0,0,0,0,0,0,0,0,0,0,
0,0,0,0,0,0,0,0,0,0,0,0,0,0,0,0,0,0,0,0,0,0,0,0,0,0,0,0,0,0,0,0,0,0,0,0,0,0,0,0,0,0,0,0,0,0,0,0,0,0,0,0,0,0,0,0,0,0,0,0,0,0,0,0,0,0,0,0,0,0,0,0,0,0,0,0,0,0,0,0,
0,0,0,0,0,0,0,0,0,0,0,0,0,0,0,0,0,0,0,0,0,0,0,0,0,0,0,0,0,0,0,0,0,0,0,0,0,0,0,0,0,0,0,0,0,0,0,0,0,0,0,0,0,0,0,0,0,0,0,0,0,0,0,0,0,0,0,0,0,0,0,0,0,0,0,0,0,0,0,0,
0,0,0,0,0,0,0,0,0,0,0,0,0,0,0,0,0,0,0,0,0,0,0,0,0,0,0,0,0,0,0,0,0,0,0,0,0,0,0,0,0,0,0,0,0,0,0,0,0,0,0,0,0,0,0,0,0,0,0,0,0,0,0,0,0,0,0,0,0,0,0,0,0,0,0,0,0,0,0,0,
0,0,0,0,0,0,0,0,0,0,0,0,0,0,0,0,0,0,0,0,0,0,0,0,0,0,0,0,0,0,0,0,0,0,0,0,0,0,0,0,0,0,0,0,0,0,0,0,0,0,0,0,0,0,0,0,0,0,0,0,0,0,0,0,0,0,0,0,0,0,0,0,0,0,0,0,0,0,0,0,
0,0,0,0,0,0,0,0,0,0,0,0,0,0,0,0,0,0,0,0,0,0,0,0,0,0,0,0,0,0,0,0,0,0,0,0,0,0,0,0,0,0,0,0,0,0,0,0,0,0,0,0,0,0,0,0,0,0,0,0,0,0,0,0,0,0,0,0,0,0,0,0,0,0,0,0,0,0,0,0,
0,0,0,0,0,0,0,0,0,0,0,0,0,0,0,0,0,0,0,0,0,0,0,0,0,0,0,0,0,0,0,0,0,0,0,0,0,0,0,0,0,0,0,0,0,0,0,0,0,0,0,0,0,0,0,0,0,0,0,0,0,0,0,0,0,0,0,0,0,0,0,0,0,0,0,0,0,0,0,0,
0,0,0,0,0,0,0,0,0,0,0,0,0,0,0,0,0,0,0,0,0,0,0,0,0,0,0,0,0,0,0,0,0,0,0,0,0,0,0,0,0,0,0,0,0,0,0,0,0,0,0,0,0,0,0,0,0,0,0,0,0,0,0,0,0,0,0,0,0,0,0,0,0,0,0,0,0,0,0,0
</data>
 </layer>
 <layer name="mountain" width="80" height="70">
  <data encoding="csv">
0,0,0,0,0,0,0,0,0,0,0,0,0,0,0,0,0,0,0,0,0,0,0,0,0,0,0,0,0,0,0,0,0,0,0,0,0,0,0,0,0,0,0,0,0,0,0,0,0,0,0,0,0,0,0,0,0,0,0,0,0,0,0,0,0,0,0,0,0,0,0,0,0,0,0,0,0,0,0,0,
0,0,0,0,0,0,0,0,0,0,0,0,0,0,0,0,0,0,0,0,0,0,0,0,0,0,0,0,0,0,0,0,0,0,0,0,0,0,0,0,0,0,0,0,0,0,0,0,0,0,0,0,0,0,0,0,0,0,0,0,0,0,0,0,0,0,0,0,0,0,0,0,0,0,0,0,0,0,0,0,
0,0,0,0,0,0,0,0,0,0,0,0,0,0,0,0,0,0,0,0,0,0,0,0,0,0,0,0,0,0,0,0,0,0,0,0,0,0,0,0,0,0,0,0,0,0,0,0,0,0,0,0,0,0,0,0,0,0,0,0,0,0,0,0,0,0,0,0,0,0,0,0,0,0,0,0,0,0,0,0,
0,0,0,0,0,0,0,0,0,0,0,0,0,0,0,0,0,0,0,0,0,0,0,0,0,0,0,0,0,0,0,0,0,0,0,0,0,0,0,0,0,0,0,0,0,0,0,0,0,0,0,0,0,0,0,0,0,0,0,0,0,0,0,0,0,0,0,0,0,0,0,0,0,0,0,0,0,0,0,0,
0,0,0,0,0,0,0,0,0,0,0,0,0,0,0,0,0,0,0,0,0,0,0,0,0,0,0,0,0,0,0,0,0,0,0,0,0,0,0,0,0,0,0,0,0,0,0,0,0,0,0,0,0,0,0,0,0,0,0,0,0,0,0,0,0,0,0,0,0,0,0,0,0,0,0,0,0,0,0,0,
0,0,0,0,0,0,0,0,0,0,0,0,0,0,0,0,0,0,0,0,0,0,0,0,0,0,0,0,0,0,0,0,0,0,0,0,0,0,0,0,0,0,0,0,0,0,0,0,0,0,0,0,0,0,0,0,0,0,0,0,0,0,0,0,0,0,0,0,0,0,0,0,0,0,0,0,0,0,0,0,
0,0,0,0,0,0,0,0,0,0,0,0,0,0,0,0,0,0,0,0,0,0,0,0,0,0,0,0,0,0,0,0,0,0,0,0,0,0,0,0,0,0,0,0,0,0,0,0,0,0,0,0,0,0,0,0,0,0,0,0,0,0,0,0,0,0,0,0,0,0,0,0,0,0,0,0,0,0,0,0,
0,0,0,0,0,0,0,0,0,0,0,0,0,0,0,0,0,0,0,0,0,0,0,0,0,0,0,0,0,0,0,0,0,0,0,0,0,0,0,0,0,0,0,0,0,0,0,0,0,0,0,0,0,0,0,0,0,0,0,0,0,0,0,0,0,0,0,0,0,0,0,0,0,0,0,0,0,0,0,0,
0,0,0,0,0,0,0,0,0,0,0,0,0,0,0,0,0,0,0,0,0,0,0,0,0,0,0,0,0,0,0,0,0,0,0,0,0,0,0,0,0,0,0,0,0,0,0,0,0,0,0,0,0,0,0,0,0,0,0,0,0,0,0,0,0,0,0,0,0,0,0,0,0,0,0,0,0,0,0,0,
0,0,0,0,0,0,0,0,0,0,0,0,0,0,0,0,0,0,0,0,0,0,0,0,0,0,0,0,0,0,0,0,0,0,0,0,0,0,0,0,0,0,0,0,0,0,0,0,0,0,0,0,0,0,0,0,0,0,0,0,0,0,0,0,0,0,0,0,0,0,0,0,0,0,0,0,0,0,0,0,
0,0,0,0,0,0,0,0,0,0,0,0,0,0,0,0,0,0,0,0,0,0,0,0,0,0,0,0,0,0,0,0,0,0,0,0,0,0,0,0,0,0,0,0,0,0,0,0,0,0,0,0,0,0,0,0,0,0,0,0,0,0,0,0,0,0,0,0,0,0,0,0,0,0,0,0,0,0,0,0,
0,0,0,0,0,0,0,0,0,0,0,0,0,0,0,0,0,0,0,0,0,0,0,0,0,0,0,0,0,0,0,0,0,0,0,0,0,0,0,0,0,0,0,0,0,0,0,0,0,0,0,0,0,0,0,0,0,0,0,0,0,0,0,0,0,0,0,0,0,0,0,0,0,0,0,0,0,0,0,0,
0,0,0,0,0,0,0,0,0,0,0,0,0,0,0,0,0,0,0,0,0,0,0,0,0,0,0,0,0,0,0,0,0,0,0,0,0,0,0,0,0,0,0,0,0,0,0,0,0,0,0,0,0,0,0,0,0,0,0,0,0,0,0,0,0,0,0,0,0,0,0,0,0,0,0,0,0,0,0,0,
0,0,0,0,0,0,0,0,0,0,0,0,0,0,0,0,0,0,0,0,0,0,0,0,0,0,0,0,0,0,0,0,0,0,0,0,0,0,0,0,0,0,0,0,0,0,0,0,0,0,0,0,0,0,0,0,0,0,0,0,0,0,0,0,0,0,0,0,0,0,0,0,0,0,0,0,0,0,0,0,
0,0,0,0,0,0,0,0,0,0,0,0,0,0,0,0,0,0,0,0,0,0,0,0,0,0,0,0,0,0,0,0,0,0,0,0,0,0,0,0,0,0,0,0,0,0,0,0,0,0,0,0,0,0,0,0,0,0,0,0,0,0,0,0,0,0,0,0,0,0,0,0,0,0,0,0,0,0,0,0,
0,0,0,0,0,0,0,0,0,0,0,0,0,0,0,0,0,0,0,0,0,0,0,0,0,0,0,0,0,0,0,0,0,0,0,0,0,0,0,0,0,0,0,0,0,0,0,0,0,0,0,0,0,0,0,0,0,0,0,0,0,0,0,0,0,0,0,0,0,0,0,0,0,0,0,0,0,0,0,0,
0,0,0,0,0,0,0,0,0,0,0,0,0,0,0,0,0,0,0,0,0,0,0,0,0,0,0,0,0,0,0,0,0,0,0,0,0,0,0,0,0,0,0,0,0,0,0,0,0,0,0,0,0,0,0,0,0,0,0,0,0,0,0,0,0,0,0,0,0,0,0,0,0,0,0,0,0,0,0,0,
0,0,0,0,0,0,0,0,0,0,0,0,0,0,0,0,0,0,0,0,0,0,0,0,0,0,0,0,0,0,0,0,0,0,0,0,0,0,0,0,0,0,0,0,0,0,0,0,0,0,0,0,0,0,0,0,0,0,0,0,0,0,0,0,0,0,0,0,0,0,0,0,0,0,0,0,0,0,0,0,
0,0,0,0,0,0,0,0,0,0,0,0,0,0,0,0,0,0,0,0,0,0,0,0,0,0,0,0,0,0,0,0,0,0,0,0,0,0,0,0,0,0,0,0,0,0,0,0,0,0,0,0,0,0,0,0,0,0,0,0,0,0,0,0,0,0,0,0,0,0,0,0,0,0,0,0,0,0,0,0,
0,0,0,0,0,0,0,0,0,0,0,0,0,0,0,0,0,0,0,0,0,0,0,0,0,0,0,0,0,0,0,0,0,0,0,0,0,0,0,0,0,0,0,0,0,0,0,0,0,0,0,0,0,0,0,0,0,0,0,0,0,0,0,0,0,0,0,0,0,0,0,0,0,0,0,0,0,0,0,0,
0,0,0,0,0,0,0,0,0,0,0,0,0,0,0,0,0,0,0,0,0,0,0,0,0,0,0,0,0,0,0,0,0,0,0,0,0,0,0,0,0,0,0,0,0,0,0,0,0,0,0,0,0,0,0,0,0,0,0,0,0,0,0,0,0,0,0,0,0,0,0,0,0,0,0,0,0,0,0,0,
0,0,0,0,0,0,0,0,0,0,0,0,0,0,0,0,0,0,0,0,0,0,0,0,0,0,0,0,0,0,0,0,0,0,0,0,0,0,0,0,0,0,0,0,0,0,0,0,0,0,0,0,0,0,0,0,0,0,0,0,0,0,0,0,0,0,0,0,0,0,0,0,0,0,0,0,0,0,0,0,
0,0,0,0,0,0,0,0,0,0,0,0,0,0,0,0,0,0,0,0,0,0,0,0,0,0,0,0,0,0,0,0,0,0,0,0,0,0,0,0,0,0,0,0,0,0,0,0,0,0,0,0,0,0,0,0,0,0,0,0,0,0,0,0,0,0,0,0,0,0,0,0,0,0,0,0,0,0,0,0,
0,0,0,0,0,0,0,0,0,0,0,0,0,0,0,0,0,0,0,0,0,0,0,0,0,0,0,0,0,0,0,0,0,0,0,0,0,0,0,0,0,0,0,0,0,0,0,0,0,0,0,0,0,0,0,0,0,0,0,0,0,0,0,0,0,0,0,0,0,0,0,0,0,0,0,0,0,0,0,0,
0,0,0,0,0,0,0,0,0,0,0,0,0,0,0,0,0,0,0,0,0,0,0,0,0,0,0,0,0,0,0,0,0,0,0,0,0,0,0,0,0,0,0,0,0,0,0,0,0,0,0,0,0,0,0,0,0,0,0,0,0,0,0,0,0,0,0,0,0,0,0,0,0,0,0,0,0,0,0,0,
0,0,0,0,0,0,0,0,0,0,0,0,0,0,0,0,0,0,0,0,0,0,0,0,0,0,0,0,0,0,0,0,0,0,0,0,0,0,0,0,0,0,0,0,0,0,0,0,0,0,0,0,0,0,0,0,0,0,0,0,0,0,0,0,0,0,0,0,0,0,0,0,0,0,0,0,0,0,0,0,
0,0,0,0,0,0,0,0,0,0,0,0,0,0,0,0,0,0,0,0,0,0,0,0,0,0,0,0,0,0,0,0,0,0,0,0,0,0,0,0,0,0,0,0,0,0,0,0,0,0,0,0,0,0,0,0,0,0,0,0,0,0,0,0,0,0,0,0,0,0,0,0,0,0,0,0,0,0,0,0,
0,0,0,0,0,0,0,0,0,0,0,0,0,0,0,0,0,0,0,0,0,0,0,0,0,0,0,0,0,0,0,0,0,0,0,0,0,0,0,0,0,0,0,0,0,0,0,0,0,0,0,0,0,0,0,0,0,0,0,0,0,0,0,0,0,0,0,0,0,0,0,0,0,0,0,0,0,0,0,0,
0,0,0,0,0,0,0,0,0,0,0,0,0,0,0,0,0,0,0,0,0,0,0,0,0,0,0,0,0,0,0,0,0,0,0,0,0,0,0,0,0,0,0,0,0,0,0,0,0,0,0,0,0,0,0,0,0,0,0,0,0,0,0,0,0,0,0,0,0,0,0,0,0,0,0,0,0,0,0,0,
0,0,0,0,0,0,0,0,0,0,0,0,0,0,0,0,0,0,0,0,0,0,0,0,0,0,0,0,0,0,0,0,0,0,0,0,0,0,0,0,0,0,0,0,0,0,0,0,0,0,0,0,0,0,0,0,0,0,0,0,0,0,0,0,0,0,0,0,0,0,0,0,0,0,0,0,0,0,0,0,
0,0,0,0,0,0,0,0,0,0,0,0,0,0,0,0,0,0,0,0,0,0,0,0,0,0,0,0,0,0,0,0,0,0,0,0,0,0,0,0,0,0,0,0,0,0,0,0,0,0,0,0,0,0,0,0,0,0,0,0,0,0,0,0,0,0,0,0,0,0,0,0,0,0,0,0,0,0,0,0,
0,0,0,0,0,0,0,0,0,0,0,0,0,0,0,0,0,0,0,0,0,0,0,0,0,0,0,0,0,0,0,0,0,0,0,0,0,0,0,0,0,0,0,0,0,0,0,0,0,0,0,0,0,0,0,0,0,0,0,0,0,0,0,0,0,0,0,0,0,0,0,0,0,0,0,0,0,0,0,0,
0,0,0,0,0,0,0,0,0,0,0,0,0,0,0,0,0,0,0,0,0,0,0,0,0,0,0,0,0,0,0,0,0,0,0,0,0,0,0,0,0,0,0,0,0,0,0,0,0,0,0,0,0,0,0,0,0,0,0,0,0,0,0,0,0,0,0,0,0,0,0,0,0,0,0,0,0,0,0,0,
0,0,0,0,0,0,0,0,0,0,0,0,0,0,0,0,0,0,0,0,0,0,0,0,0,0,0,0,0,0,0,0,0,0,0,0,0,0,0,0,0,0,0,0,0,0,0,0,0,0,0,0,0,0,0,0,0,0,0,0,0,0,0,0,0,0,0,0,0,0,0,0,0,0,0,0,0,0,0,0,
0,0,0,0,0,0,0,0,0,0,0,0,0,0,0,0,0,0,0,0,0,0,0,0,0,0,0,0,0,0,0,0,0,0,0,0,0,0,0,0,0,0,0,0,0,0,0,0,0,0,0,0,0,0,0,0,0,0,0,0,0,0,0,0,0,0,0,0,0,0,0,0,0,0,0,0,0,0,0,0,
0,0,0,0,0,0,0,0,0,0,0,0,0,0,0,0,0,0,0,0,0,0,0,0,0,0,0,0,0,0,0,0,0,0,0,0,0,0,0,0,0,0,0,0,0,0,0,0,0,0,0,0,0,0,0,0,0,0,0,0,0,0,0,0,0,0,0,0,0,0,0,0,0,0,0,0,0,0,0,0,
0,0,0,0,0,0,0,0,0,0,0,0,0,0,0,0,0,0,0,0,0,0,0,0,0,0,0,0,0,0,0,0,0,0,0,0,0,0,0,0,0,0,0,0,0,0,0,0,0,0,0,0,0,0,0,0,0,0,0,0,0,0,0,0,0,0,0,0,0,0,0,0,0,0,0,0,0,0,0,0,
0,0,0,0,0,0,0,0,0,0,0,0,0,0,0,0,0,0,0,0,0,0,0,0,0,0,0,0,0,0,0,0,0,0,0,0,0,0,0,0,0,0,0,0,0,0,0,0,0,0,0,0,0,0,0,0,0,0,0,0,0,0,0,0,0,0,0,0,0,0,0,0,0,0,0,0,0,0,0,0,
0,0,0,0,0,0,0,0,0,0,0,0,0,0,0,0,0,0,0,0,0,0,0,0,0,0,0,0,0,0,0,0,0,0,0,0,0,0,0,0,0,0,0,0,0,0,0,0,0,0,0,0,0,0,0,0,0,0,0,0,0,0,0,0,0,0,0,0,0,0,0,0,0,0,0,0,0,0,0,0,
0,0,0,0,0,0,0,0,0,0,0,0,0,0,0,0,0,0,0,0,0,0,0,0,0,0,0,0,0,0,0,0,0,0,0,0,0,0,0,0,0,0,0,0,0,0,0,0,0,0,0,0,0,0,0,0,0,0,0,0,0,0,0,0,0,0,0,0,0,0,0,0,0,0,0,0,0,0,0,0,
0,0,0,0,0,0,0,0,0,0,0,0,0,0,0,0,0,0,0,0,0,0,0,0,0,0,0,0,0,0,0,0,0,0,0,0,0,0,0,0,0,0,0,0,0,0,0,0,0,0,0,0,0,0,0,0,0,0,0,0,0,0,0,0,0,0,0,0,0,0,0,0,0,0,0,0,0,0,0,0,
0,0,0,0,0,0,0,0,0,0,0,0,0,0,0,0,0,0,0,0,0,0,0,0,0,0,0,0,0,0,0,0,0,0,0,0,0,0,0,0,0,0,0,0,0,0,0,0,0,0,0,0,0,0,0,0,0,0,0,0,0,0,0,0,0,0,0,0,0,0,0,0,0,0,0,0,0,0,0,0,
0,0,0,0,0,0,0,0,0,0,0,0,0,0,0,0,0,0,0,0,0,0,0,0,0,0,0,0,0,0,0,0,0,0,0,0,0,0,0,0,0,0,0,0,0,0,0,0,0,0,0,0,0,0,0,0,0,0,0,0,0,0,0,0,0,0,0,0,0,0,0,0,0,0,0,0,0,0,0,0,
0,0,0,0,0,0,0,0,0,0,0,0,0,0,0,0,0,0,0,0,0,0,0,0,0,0,0,0,0,0,0,0,0,0,0,0,0,0,0,0,0,0,0,0,0,0,0,0,0,0,0,0,0,0,0,0,0,0,0,0,0,0,0,0,0,0,0,0,0,0,0,0,0,0,0,0,0,0,0,0,
0,0,0,0,0,0,0,0,0,0,0,0,0,0,0,0,0,0,0,0,0,0,0,0,0,0,0,0,0,0,0,0,0,0,0,0,0,0,0,0,0,0,0,0,0,0,0,0,0,0,0,0,0,0,0,0,0,0,0,0,0,0,0,0,0,0,0,0,0,0,0,0,0,0,0,0,0,0,0,0,
0,0,0,0,0,0,0,0,0,0,0,0,0,0,0,0,0,0,0,0,0,0,0,0,0,0,0,0,0,0,0,0,0,0,0,0,0,0,0,0,0,0,0,0,0,0,0,0,0,0,0,0,0,0,0,0,0,0,0,0,0,0,0,0,0,0,0,0,0,0,0,0,0,0,0,0,0,0,0,0,
0,0,0,0,0,0,0,0,0,0,0,0,0,0,0,0,0,0,0,0,0,0,0,0,0,0,0,0,0,0,0,0,0,0,0,0,0,0,0,0,0,0,0,0,0,0,0,0,0,0,0,0,0,0,0,0,0,0,0,0,0,0,0,0,0,0,0,0,0,0,0,0,0,0,0,0,0,0,0,0,
0,0,0,0,0,0,0,0,0,0,0,0,0,0,0,0,0,0,0,0,0,0,0,0,0,0,0,0,0,0,0,0,0,0,0,0,0,0,0,0,0,0,0,0,0,0,0,0,0,0,0,0,0,0,0,0,0,0,0,0,0,0,0,0,0,0,0,0,0,0,0,0,0,0,0,0,0,0,0,0,
0,0,0,0,0,0,0,0,0,0,0,0,0,0,0,0,0,0,0,0,0,0,0,0,0,0,0,0,0,0,0,0,0,0,0,0,0,0,0,0,0,0,0,0,0,0,0,0,0,0,0,0,0,0,0,0,0,0,0,0,0,0,0,0,0,0,0,0,0,0,0,0,0,0,0,0,0,0,0,0,
0,0,0,0,0,0,0,0,0,0,0,0,0,0,0,0,0,0,0,0,0,0,0,0,0,0,0,0,0,0,0,0,0,0,0,0,0,0,0,0,0,0,0,0,0,0,0,0,0,0,0,0,0,0,0,0,0,0,0,0,0,0,0,0,0,0,0,0,0,0,0,0,0,0,0,0,0,0,0,0,
0,0,0,0,0,0,0,0,0,0,0,0,0,0,0,0,0,0,0,0,0,0,0,0,0,0,0,0,0,0,0,0,0,0,0,0,0,0,0,0,0,0,0,0,0,0,0,0,0,0,0,0,0,0,0,0,0,0,0,0,0,0,0,0,0,0,0,0,0,0,0,0,0,0,0,0,0,0,0,0,
0,0,0,0,0,0,0,0,0,0,0,0,0,0,0,0,0,0,0,0,0,0,0,0,0,0,0,0,0,0,0,0,0,0,0,0,0,0,0,0,0,0,0,0,0,0,0,0,0,0,0,0,0,0,0,0,0,0,0,0,0,0,0,0,0,0,0,0,0,0,0,0,0,0,0,0,0,0,0,0,
0,0,0,0,0,0,0,0,0,0,0,0,0,0,0,0,0,0,0,0,0,0,0,0,0,0,0,0,0,0,0,0,0,0,0,0,0,0,0,0,0,0,0,0,0,0,0,0,0,0,0,0,0,0,0,0,0,0,0,0,0,0,0,0,0,0,0,0,0,0,0,0,0,0,0,0,0,0,0,0,
0,0,0,0,0,0,0,0,0,0,0,0,0,0,0,0,0,0,0,0,0,0,0,0,0,0,0,0,0,0,0,0,0,0,0,0,0,0,0,0,0,0,0,0,0,0,0,0,0,0,0,0,0,0,0,0,0,0,0,0,0,0,0,0,0,0,0,0,0,0,0,0,0,0,0,0,0,0,0,0,
0,0,0,0,0,0,0,0,0,0,0,0,0,0,0,0,0,0,0,0,0,0,0,0,0,0,0,0,0,0,0,0,0,0,0,0,0,0,0,0,0,0,0,0,0,0,0,0,0,0,0,0,0,0,0,0,0,0,0,0,0,0,0,0,0,0,0,0,0,0,0,0,0,0,0,0,0,0,0,0,
0,0,0,0,0,0,0,0,0,0,0,0,0,0,0,0,0,0,0,0,0,0,0,0,0,0,0,0,0,0,0,0,0,0,0,0,0,0,0,0,0,0,0,0,0,0,0,0,0,0,0,0,0,0,0,0,0,0,0,0,0,0,0,0,0,0,0,0,0,0,0,0,0,0,0,0,0,0,0,0,
0,0,0,0,0,0,0,0,0,0,0,0,0,0,0,0,0,0,0,0,0,0,0,0,0,0,0,0,0,0,0,0,0,0,0,0,0,0,0,0,0,0,0,0,0,0,0,0,0,0,0,0,0,0,0,0,0,0,0,0,0,0,0,0,0,0,0,0,0,0,0,0,0,0,0,0,0,0,0,0,
0,0,0,0,0,0,0,0,0,0,0,0,0,0,0,0,0,0,0,0,0,0,0,0,0,0,0,0,0,0,0,0,0,0,0,0,0,0,0,0,0,0,0,0,0,0,0,0,0,0,0,0,0,0,0,0,0,0,0,0,0,0,0,0,0,0,0,0,0,0,0,0,0,0,0,0,0,0,0,0,
0,0,0,0,0,0,0,0,0,0,0,0,0,0,0,0,0,0,0,0,0,0,0,0,0,0,0,0,0,0,0,0,0,0,0,0,0,0,0,0,0,0,0,0,0,0,0,0,0,0,0,0,0,0,0,0,0,0,0,0,0,0,0,0,0,0,0,0,0,0,0,0,0,0,0,0,0,0,0,0,
0,0,0,0,0,0,0,0,0,0,0,0,0,0,0,0,0,0,0,0,0,0,0,0,0,0,0,0,0,0,0,0,0,0,0,0,0,0,0,0,0,0,0,0,0,0,0,0,0,0,0,0,0,0,0,0,0,0,0,0,0,0,0,0,0,0,0,0,0,0,0,0,0,0,0,0,0,0,0,0,
0,0,0,0,0,0,0,0,0,0,0,0,0,0,0,0,0,0,0,0,0,0,0,0,0,0,0,0,0,0,0,0,0,0,0,0,0,0,0,0,0,0,0,0,0,0,0,0,0,0,0,0,0,0,0,0,0,0,0,0,0,0,0,0,0,0,0,0,0,0,0,0,0,0,0,0,0,0,0,0,
0,0,0,0,0,0,0,0,0,0,0,0,0,0,0,0,0,0,0,0,0,0,0,0,0,0,0,0,0,0,0,0,0,0,0,0,0,0,0,0,0,0,0,0,0,0,0,0,0,0,0,0,0,0,0,0,0,0,0,0,0,0,0,0,0,0,0,0,0,0,0,0,0,0,0,0,0,0,0,0,
0,0,0,0,0,0,0,0,0,0,0,0,0,0,0,0,0,0,0,0,0,0,0,0,0,0,0,0,0,0,0,0,0,0,0,0,0,0,0,0,0,0,0,0,0,0,0,0,0,0,0,0,0,0,0,0,0,0,0,0,0,0,0,0,0,0,0,0,0,0,0,0,0,0,0,0,0,0,0,0,
0,0,0,0,0,0,0,0,0,0,0,0,0,0,0,0,0,0,0,0,0,0,0,0,0,0,0,0,0,0,0,0,0,0,0,0,0,0,0,0,0,0,0,0,0,0,0,0,0,0,0,0,0,0,0,0,0,0,0,0,0,0,0,0,0,0,0,0,0,0,0,0,0,0,0,0,0,0,0,0,
0,0,0,0,0,0,0,0,0,0,0,0,0,0,0,0,0,0,0,0,0,0,0,0,0,0,0,0,0,0,0,0,0,0,0,0,0,0,0,0,0,0,0,0,0,0,0,0,0,0,0,0,0,0,0,0,0,0,0,0,0,0,0,0,0,0,0,0,0,0,0,0,0,0,0,0,0,0,0,0,
0,0,0,0,0,0,0,0,0,0,0,0,0,0,0,0,0,0,0,0,0,0,0,0,0,0,0,0,0,0,0,0,0,0,0,0,0,0,0,0,0,0,0,0,0,0,0,0,0,0,0,0,0,0,0,0,0,0,0,0,0,0,0,0,0,0,0,0,0,0,0,0,0,0,0,0,0,0,0,0,
0,0,0,0,0,0,0,0,0,0,0,0,0,0,0,0,0,0,0,0,0,0,0,0,0,0,0,0,0,0,0,0,0,0,0,0,0,0,0,0,0,0,0,0,0,0,0,0,0,0,0,0,0,0,0,0,0,0,0,0,0,0,0,0,0,0,0,0,0,0,0,0,0,0,0,0,0,0,0,0,
0,0,0,0,0,0,0,0,0,0,0,0,0,0,0,0,0,0,0,0,0,0,0,0,0,0,0,0,0,0,0,0,0,0,0,0,0,0,0,0,0,0,0,0,0,0,0,0,0,0,0,0,0,0,0,0,0,0,0,0,0,0,0,0,0,0,0,0,0,0,0,0,0,0,0,0,0,0,0,0,
0,0,0,0,0,0,0,0,0,0,0,0,0,0,0,0,0,0,0,0,0,0,0,0,0,0,0,0,0,0,0,0,0,0,0,0,0,0,0,0,0,0,0,0,0,0,0,0,0,0,0,0,0,0,0,0,0,0,0,0,0,0,0,0,0,0,0,0,0,0,0,0,0,0,0,0,0,0,0,0,
0,0,0,0,0,0,0,0,0,0,0,0,0,0,0,0,0,0,0,0,0,0,0,0,0,0,0,0,0,0,0,0,0,0,0,0,0,0,0,0,0,0,0,0,0,0,0,0,0,0,0,0,0,0,0,0,0,0,0,0,0,0,0,0,0,0,0,0,0,0,0,0,0,0,0,0,0,0,0,0
</data>
 </layer>
 <objectgroup name="lower">
  <object id="370" name="Quicksand1Image" type="BasicNPC" gid="5323" x="1568" y="672" width="224" height="128">
   <properties>
    <property name="alphaOverride" type="int" value="0"/>
    <property name="nocollision" type="bool" value="true"/>
    <property name="sprite" type="file" value="../art/sprites/quicksand.png"/>
   </properties>
  </object>
 </objectgroup>
 <objectgroup name="objects7">
  <object id="1" name="Spawn 1" type="Player" gid="5323" x="448" y="128" width="32" height="32">
   <properties>
    <property name="orientation" value="down"/>
   </properties>
  </object>
  <object id="361" name="Bush" type="BasicNPC" gid="5323" x="1600" y="640" width="192" height="32">
   <properties>
    <property name="align" value="bottom_left"/>
    <property name="disappearAfterBattle" type="bool" value="true"/>
    <property name="nocollision" type="bool" value="true"/>
    <property name="sprite" type="file" value="../art/sprites/knotholebush.png"/>
   </properties>
  </object>
  <object id="362" name="BabyT" type="BasicNPC" gid="5323" x="1664" y="576" width="96" height="96">
   <properties>
    <property name="align" value="bottom_center"/>
    <property name="defaultAnim" value="walkup"/>
    <property name="disappearAfterBattle" type="bool" value="true"/>
    <property name="flagOverride" value="BabyTIntro"/>
    <property name="ghost" type="bool" value="false"/>
    <property name="sprite" type="file" value="../art/sprites/babyt.png"/>
   </properties>
  </object>
  <object id="366" name="Light1" type="LightPuzzle" gid="5323" x="96" y="2080" width="160" height="128">
   <properties>
    <property name="active" type="bool" value="false"/>
    <property name="light" value="godrays_1"/>
    <property name="quicksand" value="Quicksand1"/>
   </properties>
  </object>
  <object id="367" name="Quicksand1" type="Quicksand" gid="5323" x="1568" y="672" width="224" height="128">
   <properties>
    <property name="exitScene" type="file" value="quicksand_cave1.lua"/>
    <property name="image" value="Quicksand1Image"/>
   </properties>
  </object>
  <object id="371" name="Spawn 2" type="SpawnPoint" gid="5323" x="1664" y="640" width="32" height="32">
   <properties>
    <property name="orientation" value="down"/>
   </properties>
  </object>
 </objectgroup>
 <objectgroup name="objects6"/>
 <objectgroup name="objects5"/>
 <objectgroup name="objects4"/>
 <objectgroup name="objects3"/>
 <objectgroup name="objects2"/>
 <objectgroup name="objects"/>
 <objectgroup name="all">
  <object id="364" name="IntroTrigger" type="TouchTrigger" gid="5323" x="1312" y="704" width="512" height="192" visible="0">
   <properties>
    <property name="atMostOnce" type="bool" value="true"/>
    <property name="script">local MessageBox = require &quot;actions/MessageBox&quot;
local BlockPlayer = require &quot;actions/BlockPlayer&quot;
local Serial = require &quot;actions/Serial&quot;
local Parallel = require &quot;actions/Parallel&quot;
local YieldUntil = require &quot;actions/YieldUntil&quot;
local Ease = require &quot;actions/Ease&quot;
local Wait = require &quot;actions/Wait&quot;
local Do = require &quot;actions/Do&quot;
local AudioFade = require &quot;actions/AudioFade&quot;
local PlayAudio = require &quot;actions/PlayAudio&quot;

return function(self)
    return Serial {
        Do(function()
            if self.scene.player.doingSpecialMove then
                self.scene.player.forceDrop = true
            end
        end),
        YieldUntil(function() return self.scene.player.doingSpecialMove == false end),
        BlockPlayer {
        Parallel {
            AudioFade(&quot;music&quot;, 0.5, 0, 1),
            Ease(self.scene.camPos, &quot;x&quot;, -(self.scene.objectLookup.BabyT.x - self.x), 1),
            Ease(self.scene.camPos, &quot;y&quot;, -(self.scene.objectLookup.BabyT.y - self.y), 1),
        },
        Wait(1),
        Parallel {
            Ease(self.scene.camPos, &quot;x&quot;, 0, 1),
            Ease(self.scene.camPos, &quot;y&quot;, 0, 1),
        },
        Do(function()
            self.scene.player.state = &quot;shock&quot;
        end),
        self.scene.player:hop(),
        Wait(1),
        MessageBox{message=&quot;Tails: Who's there?!&quot;},
        Do(function()
            self.scene.player.state = &quot;idleright&quot;
        end),
    }}
end</property>
   </properties>
  </object>
  <object id="365" name="IntroTrigger2" type="TouchTrigger" gid="5323" x="1568" y="704" width="32" height="192">
   <properties>
    <property name="atMostOnce" type="bool" value="true"/>
    <property name="script">local MessageBox = require &quot;actions/MessageBox&quot;
local BlockPlayer = require &quot;actions/BlockPlayer&quot;
local Serial = require &quot;actions/Serial&quot;
local Parallel = require &quot;actions/Parallel&quot;
local YieldUntil = require &quot;actions/YieldUntil&quot;
local Ease = require &quot;actions/Ease&quot;
local Wait = require &quot;actions/Wait&quot;
local Do = require &quot;actions/Do&quot;
local Animate = require &quot;actions/Animate&quot;
local AudioFade = require &quot;actions/AudioFade&quot;
local PlayAudio = require &quot;actions/PlayAudio&quot;

return function(self)
    return Serial {
        Do(function()
            if self.scene.player.doingSpecialMove then
                self.scene.player.forceDrop = true
            end
        end),
        YieldUntil(function() return self.scene.player.doingSpecialMove == false end),
        BlockPlayer {
        Do(function()
            self.scene.player.state = &quot;danger_pose_right&quot;
        end),
        MessageBox{message=&quot;Tails: I'm warning you!&quot;},

        Animate(self.scene.objectLookup.BabyT.sprite, &quot;idleup&quot;),

        Wait(1),

        Ease(self.scene.objectLookup.BabyT, &quot;y&quot;, function() return self.scene.objectLookup.BabyT.y - 100 end, 6, &quot;quad&quot;),
        Ease(self.scene.objectLookup.BabyT, &quot;y&quot;, function() return self.scene.objectLookup.BabyT.y + 130 end, 6, &quot;quad&quot;),
        Parallel {
            self.scene.objectLookup.Bush:hop(),
            Ease(self.scene.objectLookup.Bush.sprite.color, 4, 0, 0.8),
        },
        Animate(self.scene.objectLookup.BabyT.sprite, &quot;hug&quot;),
        MessageBox{message=&quot;Baby T: T...Tails?&quot;, closeAction=Wait(1)},
        MessageBox{message=&quot;Tails: Baby T?&quot;, closeAction=Wait(1)},
        Wait(0.5),
        Parallel {
            self.scene.objectLookup.BabyT:hop(),
            MessageBox{message=&quot;Baby T: Tails!&quot;, closeAction=Wait(1)}
        },
        Do(function()
            self.scene.player.state = &quot;joyright&quot;
        end),
        Parallel {
            self.scene.player:hop(),
            MessageBox{message=&quot;Tails: Baby T!&quot;, closeAction=Wait(1)}
        },
        PlayAudio(&quot;music&quot;, &quot;babyt&quot;, 1.0, true, true),
        Do(function()
            local babyt = self.scene.objectLookup.BabyT
            self.scene.player.x = babyt.x + 21
            self.scene.player.y = babyt.y + babyt.sprite.h
            self.scene.player.state = &quot;hug&quot;
            babyt.sprite:setAnimation(&quot;hug&quot;)
        end),
        Wait(3),
        
        Do(function()
            self.scene.player.x = self.scene.player.x - 32
            self.scene.player.state = &quot;idleright_lookup&quot;
        end),

        MessageBox{message=&quot;Tails: Whaddya doin' here, Baby T?&quot;},
        MessageBox{message=&quot;Baby T: Well... um... heh, I was sorta going out to play for a bit and... kinda... sorta... got lost?&quot;},
        MessageBox{message=&quot;Tails: Oh yeah? Well don't worry, Baby T...&quot;},
        Do(function()
            self.scene.player.state = &quot;reading&quot;
        end),
        MessageBox{message=&quot;Tails: This book has a map of the Great Jungle! We can use it to get you home.&quot;},
        self.scene.objectLookup.BabyT:hop(),
        MessageBox{message=&quot;Baby T: Way past cool!&quot;},
        AudioFade(&quot;music&quot;, 1, 0, 1),
        MessageBox{message=&quot;Tails: ...I was actually on my way there anyways...&quot;},
        PlayAudio(&quot;music&quot;, &quot;tailstheme&quot;, 1, true, true),
        MessageBox{message=&quot;Tails: See?&quot;},
        MessageBox{message=&quot;Baby T: Wow... a mystical light that grants you one wish?&quot;},
        MessageBox{message=&quot;Tails: Yeah, and I'm gonna use it to wish Robotnik away for good!&quot;},
        Animate(self.scene.objectLookup.BabyT.sprite, &quot;victory&quot;),
        MessageBox{message=&quot;Baby T: Waaaay past! {p60}Well, lead the way, Mr. Adventurer.&quot;},
        Do(function()
            self.scene.player.state = &quot;pose&quot;
        end),
        Parallel {
            MessageBox{message=&quot;Tails: Let's go!&quot;, closeAction=Wait(1)},
            Ease(self.scene.player, &quot;x&quot;, function() return self.scene.player.x + 50 end, 1),
            Ease(self.scene.objectLookup.BabyT, &quot;x&quot;, function() return self.scene.objectLookup.BabyT.x - 50 end, 1)
        },
        Do(function()
            GameState:setFlag(self.scene.objectLookup.BabyT:getFlag())
            GameState:setFlag(self.scene.objectLookup.Bush:getFlag())
            self.scene.objectLookup.BabyT:permanentRemove()
            GameState:addToParty(&quot;babyt&quot;, 3, true)
            GameState.leader = &quot;tails&quot;
            self.scene.objectLookup.Light1.active = true
        end),
        MessageBox{message=&quot;Baby T joined your party!&quot;, sfx=&quot;choose&quot;},
        Do(function()
            self.scene.player.state = &quot;idledown&quot;
        end)
    }}
end</property>
   </properties>
  </object>
  <object id="372" name="Entrance2" type="SceneEdge" gid="7660" x="2464" y="736" width="64" height="256">
   <properties>
    <property name="ghost" type="bool" value="true"/>
    <property name="key" value="right"/>
    <property name="layerOverride" type="int" value="7"/>
    <property name="no_run" type="bool" value="true"/>
    <property name="orientation" value="left"/>
    <property name="scene" type="file" value="greatjungle3.lua"/>
    <property name="spawn_point" value="Entrance1"/>
   </properties>
  </object>
  <object id="373" name="Entrance" type="SceneEdge" gid="7660" x="256" y="64" width="384" height="64">
   <properties>
    <property name="ghost" type="bool" value="true"/>
    <property name="key" value="up"/>
    <property name="layerOverride" type="int" value="7"/>
    <property name="no_run" type="bool" value="true"/>
    <property name="orientation" value="down"/>
    <property name="scene" type="file" value="greatjungle.lua"/>
    <property name="spawn_point" value="Entrance2"/>
   </properties>
  </object>
 </objectgroup>
 <layer name="branch" width="80" height="70">
  <data encoding="csv">
0,0,0,0,0,0,0,0,0,0,0,0,0,0,0,0,0,0,0,0,0,0,0,0,0,0,0,0,0,0,0,0,0,0,0,0,0,0,0,0,0,0,0,0,0,0,0,0,0,0,0,0,0,0,0,0,0,0,0,0,0,0,0,0,0,0,0,0,0,0,0,0,0,0,0,0,0,0,0,0,
0,0,0,0,0,0,0,0,0,0,0,0,0,0,0,0,0,0,0,0,0,0,0,0,0,0,0,0,0,0,0,0,0,0,0,0,0,0,0,0,0,0,0,0,0,0,0,0,0,0,0,0,0,0,0,0,0,0,0,0,0,0,0,0,0,0,0,0,0,0,0,0,0,0,0,0,0,0,0,0,
0,0,0,0,0,0,0,0,0,0,0,0,0,0,0,0,0,0,0,0,0,0,0,0,0,0,0,0,0,0,0,0,0,0,0,0,0,0,0,0,0,0,0,0,0,0,0,0,0,0,0,0,0,0,0,0,0,0,0,0,0,0,0,0,0,0,0,0,0,0,0,0,0,0,0,0,0,0,0,0,
0,0,0,0,0,0,0,0,0,0,0,0,0,0,0,0,0,0,0,0,0,0,0,0,0,0,0,0,0,0,0,0,0,0,0,0,0,0,0,0,0,0,0,0,0,0,0,0,0,0,0,0,0,0,0,0,0,0,0,0,0,0,0,0,0,0,0,0,0,0,0,0,0,0,0,0,0,0,0,0,
0,0,0,0,0,0,0,0,0,0,0,0,0,0,0,0,0,0,0,0,0,0,0,0,0,0,0,0,0,0,0,0,0,0,0,0,0,0,0,0,0,0,0,0,0,0,0,0,0,0,0,0,0,0,0,0,0,0,0,0,0,0,0,0,0,0,0,0,0,0,0,0,0,0,0,0,0,0,0,0,
0,0,0,0,0,0,0,0,0,0,0,0,0,0,0,0,0,0,0,0,0,0,0,0,0,0,0,0,0,0,0,0,0,0,0,0,0,0,0,0,0,0,0,0,0,0,0,0,0,0,0,0,0,0,0,0,0,0,0,0,0,0,0,0,0,0,0,0,0,0,0,0,0,0,0,0,0,0,0,0,
0,0,0,0,0,0,0,0,0,0,0,0,0,0,0,0,0,0,0,0,0,0,0,0,0,0,0,0,0,0,0,0,0,0,0,0,0,0,0,0,0,0,0,0,0,0,0,0,0,0,0,0,0,0,0,0,0,0,0,0,0,0,0,0,0,0,0,0,0,0,0,0,0,0,0,0,0,0,0,0,
0,0,0,0,0,0,0,0,0,0,0,0,0,0,0,0,0,0,0,0,0,0,0,0,0,0,0,0,0,0,0,0,0,0,0,0,0,0,0,0,0,0,0,0,0,0,0,0,0,0,0,0,0,0,0,0,0,0,0,0,0,0,0,0,0,0,0,0,0,0,0,0,0,0,0,0,0,0,0,0,
0,0,0,0,0,0,0,0,0,0,0,0,0,0,0,0,0,0,0,0,0,0,0,0,0,0,0,0,0,0,0,0,0,0,0,0,0,0,0,0,0,0,0,0,0,0,0,0,0,0,0,0,0,0,0,0,0,0,0,0,0,0,0,0,0,0,0,0,0,0,0,0,0,0,0,0,0,0,0,0,
0,0,0,0,0,0,0,0,0,0,0,0,0,0,0,0,0,0,0,0,0,0,0,0,0,0,0,0,0,0,0,0,0,0,0,0,0,0,0,0,0,0,0,0,0,0,0,0,0,0,0,0,0,0,0,0,0,0,0,0,0,0,0,0,0,0,0,0,0,0,0,0,0,0,0,0,0,0,0,0,
0,0,0,0,0,0,0,0,0,0,0,0,0,0,0,0,0,0,0,0,0,0,0,0,0,0,0,0,0,0,0,0,0,0,0,0,0,0,0,0,0,0,0,0,0,0,0,0,0,0,0,0,0,0,0,0,0,0,0,0,0,0,0,0,0,0,0,0,0,0,0,0,0,0,0,0,0,0,0,0,
0,0,0,0,0,0,0,0,0,0,0,0,0,0,0,0,0,0,0,0,0,0,0,0,0,0,0,0,0,0,0,0,0,0,0,0,0,0,0,0,0,0,0,0,0,0,0,0,0,0,0,0,0,0,0,0,0,0,0,0,0,0,0,0,0,0,0,0,0,0,0,0,0,0,0,0,0,0,0,0,
0,0,0,0,0,0,0,0,0,0,0,0,0,0,0,0,0,0,0,0,0,0,0,0,0,0,0,0,0,0,0,0,0,0,0,0,0,0,0,0,0,0,0,0,0,0,0,0,0,0,0,0,0,0,0,0,0,0,0,0,0,0,0,0,0,0,0,0,0,0,0,0,0,0,0,0,0,0,0,0,
0,0,0,0,0,0,0,0,0,0,0,0,0,0,0,0,0,0,0,0,0,0,0,0,0,0,0,0,0,0,0,0,0,0,0,0,0,0,0,0,0,0,0,0,0,0,0,0,0,0,0,0,0,0,0,0,0,0,0,0,0,0,0,0,0,0,0,0,0,0,0,0,0,0,0,0,0,0,0,0,
0,0,0,0,0,0,0,0,0,0,0,0,0,0,0,0,0,0,0,0,0,0,0,0,0,0,0,0,0,0,0,0,0,0,0,0,0,0,0,0,0,0,0,0,0,0,0,0,0,0,0,0,0,0,0,0,0,0,0,0,0,0,0,0,0,0,0,0,0,0,0,0,0,0,0,0,0,0,0,0,
0,0,0,0,0,0,0,0,0,0,0,0,0,0,0,0,0,0,0,0,0,0,0,0,0,0,0,0,0,0,0,0,0,0,0,0,0,0,0,0,0,0,0,0,0,0,0,0,0,0,0,0,0,0,0,0,0,0,0,0,0,0,0,0,0,0,0,0,0,0,0,0,0,0,0,0,0,0,0,0,
0,0,0,0,0,0,0,0,0,0,0,0,0,0,0,0,0,0,0,0,0,0,0,0,0,0,0,0,0,0,0,0,0,0,0,0,0,0,0,0,0,0,0,0,0,0,0,0,0,0,0,0,0,0,0,0,0,0,0,0,0,0,0,0,0,0,0,0,0,0,0,0,0,0,0,0,0,0,0,0,
0,0,0,0,0,0,0,0,0,0,0,0,0,0,0,0,0,0,0,0,0,0,0,0,0,0,0,0,0,0,0,0,0,0,0,0,0,0,0,0,0,0,0,0,0,0,0,0,0,0,0,0,0,0,0,0,0,0,0,0,0,0,0,0,0,0,0,0,0,0,0,0,0,0,0,0,0,0,0,0,
0,0,0,0,0,0,0,0,0,0,0,0,0,0,0,0,0,0,0,0,0,0,0,0,0,0,0,0,0,0,0,0,0,0,0,0,0,0,0,0,0,0,0,0,0,0,0,0,0,0,0,0,0,0,0,0,0,0,0,0,0,0,0,0,0,0,0,0,0,0,0,0,0,0,0,0,0,0,0,0,
0,0,0,0,0,0,0,0,0,0,0,0,0,0,0,0,0,0,0,0,0,0,0,0,0,0,0,0,0,0,0,0,0,0,0,0,0,0,0,0,0,0,0,0,0,0,0,0,0,0,0,0,0,0,0,0,0,0,0,0,0,0,0,0,0,0,0,0,0,0,0,0,0,0,0,0,0,0,0,0,
0,0,0,0,0,0,0,0,0,0,0,0,0,0,0,0,0,0,0,0,0,0,0,0,0,0,0,0,0,0,0,0,0,0,0,0,0,0,0,0,0,0,0,0,0,0,0,0,0,0,0,0,0,0,0,0,0,0,0,0,0,0,0,0,0,0,0,0,0,0,0,0,0,0,0,0,0,0,0,0,
0,0,0,0,0,0,0,0,0,0,0,0,0,0,0,0,0,0,0,0,0,0,0,0,0,0,0,0,0,0,0,0,0,0,0,0,0,0,0,0,0,0,0,0,0,0,0,0,0,0,0,0,0,0,0,0,0,0,0,0,0,0,0,0,0,0,0,0,0,0,0,0,0,0,0,0,0,0,0,0,
0,0,0,0,0,0,0,0,0,0,0,0,0,0,0,0,0,0,0,0,0,0,0,0,0,0,0,0,0,0,0,0,0,0,0,0,0,0,0,0,0,0,0,0,0,0,0,0,0,0,0,0,0,0,0,0,0,0,0,0,0,0,0,0,0,0,0,0,0,0,0,0,0,0,0,0,0,0,0,0,
0,0,0,0,0,0,0,0,0,0,0,0,0,0,0,0,0,0,0,0,0,0,0,0,0,0,0,0,0,0,0,0,0,0,0,0,0,0,0,0,0,0,0,0,0,0,0,0,0,0,0,0,0,0,0,0,0,0,0,0,0,0,0,0,0,0,0,0,0,0,0,0,0,0,0,0,0,0,0,0,
0,0,0,0,0,0,0,0,0,0,0,0,0,0,0,0,0,0,0,0,0,0,0,0,0,0,0,0,0,0,0,0,0,0,0,0,0,0,0,0,0,0,0,0,0,0,0,0,0,0,0,0,0,0,0,0,0,0,0,0,0,0,0,0,0,0,0,0,0,0,0,0,0,0,0,0,0,0,0,0,
0,0,0,0,0,0,0,0,0,0,0,0,0,0,0,0,0,0,0,0,0,0,0,0,0,0,0,0,0,0,0,0,0,0,0,0,0,0,0,0,0,0,0,0,0,0,0,0,0,0,0,0,0,0,0,0,0,0,0,0,0,0,0,0,0,0,0,0,0,0,0,0,0,0,0,0,0,0,0,0,
0,0,0,0,0,0,0,0,0,0,0,0,0,0,0,0,0,0,0,0,0,0,0,0,0,0,0,0,0,0,0,0,0,0,0,0,0,0,0,0,0,0,0,0,0,0,0,0,0,0,0,0,0,0,0,0,0,0,0,0,0,0,0,0,0,0,0,0,0,0,0,0,0,0,0,0,0,0,0,0,
0,0,0,0,0,0,0,0,0,0,0,0,0,0,0,0,0,0,0,0,0,0,0,0,0,0,0,0,0,0,0,0,0,0,0,0,0,0,0,0,0,0,0,0,0,0,0,0,0,0,0,0,0,0,0,0,0,0,0,0,0,0,0,0,0,0,0,0,0,0,0,0,0,0,0,0,0,0,0,0,
0,0,0,0,0,0,0,0,0,0,0,0,0,0,0,0,0,0,0,0,0,0,0,0,0,0,0,0,0,0,0,0,0,0,0,0,0,0,0,0,0,0,0,0,0,0,0,0,0,0,0,0,0,0,0,0,0,0,0,0,0,0,0,0,0,0,0,0,0,0,0,0,0,0,0,0,0,0,0,0,
0,0,0,0,0,0,0,0,0,0,0,0,0,0,0,0,0,0,0,0,0,0,0,0,0,0,0,0,0,0,0,0,0,0,0,0,0,0,0,0,0,0,0,0,0,0,0,0,0,0,0,0,0,0,0,0,0,0,0,0,0,0,0,0,0,0,0,0,0,0,0,0,0,0,0,0,0,0,0,0,
0,0,0,0,0,0,0,0,0,0,0,0,0,0,0,0,0,0,0,0,0,0,0,0,0,0,0,0,0,0,0,0,0,0,0,0,0,0,0,0,0,0,0,0,0,0,0,0,0,0,0,0,0,0,0,0,0,0,0,0,0,0,0,0,0,0,0,0,0,0,0,0,0,0,0,0,0,0,0,0,
0,0,0,0,0,0,0,0,0,0,0,0,0,0,0,0,0,0,0,0,0,0,0,0,0,0,0,0,0,0,0,0,0,0,0,0,0,0,0,0,0,0,0,0,0,0,0,0,0,0,0,0,0,0,0,0,0,0,0,0,0,0,0,0,0,0,0,0,0,0,0,0,0,0,0,0,0,0,0,0,
0,0,0,0,0,0,0,0,0,0,0,0,0,0,0,0,0,0,0,0,0,0,0,0,0,0,0,0,0,0,0,0,0,0,0,0,0,0,0,0,0,0,0,0,0,0,0,0,0,0,0,0,0,0,0,0,0,0,0,0,0,0,0,0,0,0,0,0,0,0,0,0,0,0,0,0,0,0,0,0,
0,0,0,0,0,0,0,0,0,0,0,0,0,0,0,0,0,0,0,0,0,0,0,0,0,0,0,0,0,0,0,0,0,0,0,0,0,0,0,0,0,0,0,0,0,0,0,0,0,0,0,0,0,0,0,0,0,0,0,0,0,0,0,0,0,0,0,0,0,0,0,0,0,0,0,0,0,0,0,0,
0,0,0,0,0,0,0,0,0,0,0,0,0,0,0,0,0,0,0,0,0,0,0,0,0,0,0,0,0,0,0,0,0,0,0,0,0,0,0,0,0,0,0,0,0,0,0,0,0,0,0,0,0,0,0,0,0,0,0,0,0,0,0,0,0,0,0,0,0,0,0,0,0,0,0,0,0,0,0,0,
0,0,0,0,0,0,0,0,0,0,0,0,0,0,0,0,0,0,0,0,0,0,0,0,0,0,0,0,0,0,0,0,0,0,0,0,0,0,0,0,0,0,0,0,0,0,0,0,0,0,0,0,0,0,0,0,0,0,0,0,0,0,0,0,0,0,0,0,0,0,0,0,0,0,0,0,0,0,0,0,
0,0,0,0,0,0,0,0,0,0,0,0,0,0,0,0,0,0,0,0,0,0,0,0,0,0,0,0,0,0,0,0,0,0,0,0,0,0,0,0,0,0,0,0,0,0,0,0,0,0,0,0,0,0,0,0,0,0,0,0,0,0,0,0,0,0,0,0,0,0,0,0,0,0,0,0,0,0,0,0,
0,0,0,0,0,0,0,0,0,0,0,0,0,0,0,0,0,0,0,0,0,0,0,0,0,0,0,0,0,0,0,0,0,0,0,0,0,0,0,0,0,0,0,0,0,0,0,0,0,0,0,0,0,0,0,0,0,0,0,0,0,0,0,0,0,0,0,0,0,0,0,0,0,0,0,0,0,0,0,0,
0,0,0,0,0,0,0,0,0,0,0,0,0,0,0,0,0,0,0,0,0,0,0,0,0,0,0,0,0,0,0,0,0,0,0,0,0,0,0,0,0,0,0,0,0,0,0,0,0,0,0,0,0,0,0,0,0,0,0,0,0,0,0,0,0,0,0,0,0,0,0,0,0,0,0,0,0,0,0,0,
0,0,0,0,0,0,0,0,0,0,0,0,0,0,0,0,0,0,0,0,0,0,0,0,0,0,0,0,0,0,0,0,0,0,0,0,0,0,0,0,0,0,0,0,0,0,0,0,0,0,0,0,0,0,0,0,0,0,0,0,0,0,0,0,0,0,0,0,0,0,0,0,0,0,0,0,0,0,0,0,
0,0,0,0,0,0,0,0,0,0,0,0,0,0,0,0,0,0,0,0,0,0,0,0,0,0,0,0,0,0,0,0,0,0,0,0,0,0,0,0,0,0,0,0,0,0,0,0,0,0,0,0,0,0,0,0,0,0,0,0,0,0,0,0,0,0,0,0,0,0,0,0,0,0,0,0,0,0,0,0,
0,0,0,0,0,0,0,0,0,0,0,0,0,0,0,0,0,0,0,0,0,0,0,0,0,0,0,0,0,0,0,0,0,0,0,0,0,0,0,0,0,0,0,0,0,0,0,0,0,0,0,0,0,0,0,0,0,0,0,0,0,0,0,0,0,0,0,0,0,0,0,0,0,0,0,0,0,0,0,0,
0,0,0,0,0,0,0,0,0,0,0,0,0,0,0,0,0,0,0,0,0,0,0,0,0,0,0,0,0,0,0,0,0,0,0,0,0,0,0,0,0,0,0,0,0,0,0,0,0,0,0,0,0,0,0,0,0,0,0,0,0,0,0,0,0,0,0,0,0,0,0,0,0,0,0,0,0,0,0,0,
0,0,0,0,0,0,0,0,0,0,0,0,0,0,0,0,0,0,0,0,0,0,0,0,0,0,0,0,0,0,0,0,0,0,0,0,0,0,0,0,0,0,0,0,0,0,0,0,0,0,0,0,0,0,0,0,0,0,0,0,0,0,0,0,0,0,0,0,0,0,0,0,0,0,0,0,0,0,0,0,
0,0,0,0,0,0,0,0,0,0,0,0,0,0,0,0,0,0,0,0,0,0,0,0,0,0,0,0,0,0,0,0,0,0,0,0,0,0,0,0,0,0,0,0,0,0,0,0,0,0,0,0,0,0,0,0,0,0,0,0,0,0,0,0,0,0,0,0,0,0,0,0,0,0,0,0,0,0,0,0,
0,0,0,0,0,0,0,0,0,0,0,0,0,0,0,0,0,0,0,0,0,0,0,0,0,0,0,0,0,0,0,0,0,0,0,0,0,0,0,0,0,0,0,0,0,0,0,0,0,0,0,0,0,0,0,0,0,0,0,0,0,0,0,0,0,0,0,0,0,0,0,0,0,0,0,0,0,0,0,0,
0,0,0,0,0,0,0,0,0,0,0,0,0,0,0,0,0,0,0,0,0,0,0,0,0,0,0,0,0,0,0,0,0,0,0,0,0,0,0,0,0,0,0,0,0,0,0,0,0,0,0,0,0,0,0,0,0,0,0,0,0,0,0,0,0,0,0,0,0,0,0,0,0,0,0,0,0,0,0,0,
0,0,0,0,0,0,0,0,0,0,0,0,0,0,0,0,0,0,0,0,0,0,0,0,0,0,0,0,0,0,0,0,0,0,0,0,0,0,0,0,0,0,0,0,0,0,0,0,0,0,0,0,0,0,0,0,0,0,0,0,0,0,0,0,0,0,0,0,0,0,0,0,0,0,0,0,0,0,0,0,
0,0,0,0,0,0,0,0,0,0,0,0,0,0,0,0,0,0,0,0,0,0,0,0,0,0,0,0,0,0,0,0,0,0,0,0,0,0,0,0,0,0,0,0,0,0,0,0,0,0,0,0,0,0,0,0,0,0,0,0,0,0,0,0,0,0,0,0,0,0,0,0,0,0,0,0,0,0,0,0,
0,0,0,0,0,0,0,0,0,0,0,0,0,0,0,0,0,0,0,0,0,0,0,0,0,0,0,0,0,0,0,0,0,0,0,0,0,0,0,0,0,0,0,0,0,0,0,0,0,0,0,0,0,0,0,0,0,0,0,0,0,0,0,0,0,0,0,0,0,0,0,0,0,0,0,0,0,0,0,0,
0,0,0,0,0,0,0,0,0,0,0,0,0,0,0,0,0,0,0,0,0,0,0,0,0,0,0,0,0,0,0,0,0,0,0,0,0,0,0,0,0,0,0,0,0,0,0,0,0,0,0,0,0,0,0,0,0,0,0,0,0,0,0,0,0,0,0,0,0,0,0,0,0,0,0,0,0,0,0,0,
0,0,0,0,0,0,0,0,0,0,0,0,0,0,0,0,0,0,0,0,0,0,0,0,0,0,0,0,0,0,0,0,0,0,0,0,0,0,0,0,0,0,0,0,0,0,0,0,0,0,0,0,0,0,0,0,0,0,0,0,0,0,0,0,0,0,0,0,0,0,0,0,0,0,0,0,0,0,0,0,
0,0,0,0,0,0,0,0,0,0,0,0,0,0,0,0,0,0,0,0,0,0,0,0,0,0,0,0,0,0,0,0,0,0,0,0,0,0,0,0,0,0,0,0,0,0,0,0,0,0,0,0,0,0,0,0,0,0,0,0,0,0,0,0,0,0,0,0,0,0,0,0,0,0,0,0,0,0,0,0,
0,0,0,0,0,0,0,0,0,0,0,0,0,0,0,0,0,0,0,0,0,0,0,0,0,0,0,0,0,0,0,0,0,0,0,0,0,0,0,0,0,0,0,0,0,0,0,0,0,0,0,0,0,0,0,0,0,0,0,0,0,0,0,0,0,0,0,0,0,0,0,0,0,0,0,0,0,0,0,0,
0,0,0,0,0,0,0,0,0,0,0,0,0,0,0,0,0,0,0,0,0,0,0,0,0,0,0,0,0,0,0,0,0,0,0,0,0,0,0,0,0,0,0,0,0,0,0,0,0,0,0,0,0,0,0,0,0,0,0,0,0,0,0,0,0,0,0,0,0,0,0,0,0,0,0,0,0,0,0,0,
0,0,0,0,0,0,0,0,0,0,0,0,0,0,0,0,0,0,0,0,0,0,0,0,0,0,0,0,0,0,0,0,0,0,0,0,0,0,0,0,0,0,0,0,0,0,0,0,0,0,0,0,0,0,0,0,0,0,0,0,0,0,0,0,0,0,0,0,0,0,0,0,0,0,0,0,0,0,0,0,
0,0,0,0,0,0,0,0,0,0,0,0,0,0,0,0,0,0,0,0,0,0,0,0,0,0,0,0,0,0,0,0,0,0,0,0,0,0,0,0,0,0,0,0,0,0,0,0,0,0,0,0,0,0,0,0,0,0,0,0,0,0,0,0,0,0,0,0,0,0,0,0,0,0,0,0,0,0,0,0,
0,0,0,0,0,0,0,0,0,0,0,0,0,0,0,0,0,0,0,0,0,0,0,0,0,0,0,0,0,0,0,0,0,0,0,0,0,0,0,0,0,0,0,0,0,0,0,0,0,0,0,0,0,0,0,0,0,0,0,0,0,0,0,0,0,0,0,0,0,0,0,0,0,0,0,0,0,0,0,0,
0,0,0,0,0,0,0,0,0,0,0,0,0,0,0,0,0,0,0,0,0,0,0,0,0,0,0,0,0,0,0,0,0,0,0,0,0,0,0,0,0,0,0,0,0,0,0,0,0,0,0,0,0,0,0,0,0,0,0,0,0,0,0,0,0,0,0,0,0,0,0,0,0,0,0,0,0,0,0,0,
0,0,0,0,0,0,0,0,0,0,0,0,0,0,0,0,0,0,0,0,0,0,0,0,0,0,0,0,0,0,0,0,0,0,0,0,0,0,0,0,0,0,0,0,0,0,0,0,0,0,0,0,0,0,0,0,0,0,0,0,0,0,0,0,0,0,0,0,0,0,0,0,0,0,0,0,0,0,0,0,
0,0,0,0,0,0,0,0,0,0,0,0,0,0,0,0,0,0,0,0,0,0,0,0,0,0,0,0,0,0,0,0,0,0,0,0,0,0,0,0,0,0,0,0,0,0,0,0,0,0,0,0,0,0,0,0,0,0,0,0,0,0,0,0,0,0,0,0,0,0,0,0,0,0,0,0,0,0,0,0,
0,0,0,0,0,0,0,0,0,0,0,0,0,0,0,0,0,0,0,0,0,0,0,0,0,0,0,0,0,0,0,0,0,0,0,0,0,0,0,0,0,0,0,0,0,0,0,0,0,0,0,0,0,0,0,0,0,0,0,0,0,0,0,0,0,0,0,0,0,0,0,0,0,0,0,0,0,0,0,0,
0,0,0,0,0,0,0,0,0,0,0,0,0,0,0,0,0,0,0,0,0,0,0,0,0,0,0,0,0,0,0,0,0,0,0,0,0,0,0,0,0,0,0,0,0,0,0,0,0,0,0,0,0,0,0,0,0,0,0,0,0,0,0,0,0,0,0,0,0,0,0,0,0,0,0,0,0,0,0,0,
0,0,0,0,0,0,0,0,0,0,0,0,0,0,0,0,0,0,0,0,0,0,0,0,0,0,0,0,0,0,0,0,0,0,0,0,0,0,0,0,0,0,0,0,0,0,0,0,0,0,0,0,0,0,0,0,0,0,0,0,0,0,0,0,0,0,0,0,0,0,0,0,0,0,0,0,0,0,0,0,
0,0,0,0,0,0,0,0,0,0,0,0,0,0,0,0,0,0,0,0,0,0,0,0,0,0,0,0,0,0,0,0,0,0,0,0,0,0,0,0,0,0,0,0,0,0,0,0,0,0,0,0,0,0,0,0,0,0,0,0,0,0,0,0,0,0,0,0,0,0,0,0,0,0,0,0,0,0,0,0,
0,0,0,0,0,0,0,0,0,0,0,0,0,0,0,0,0,0,0,0,0,0,0,0,0,0,0,0,0,0,0,0,0,0,0,0,0,0,0,0,0,0,0,0,0,0,0,0,0,0,0,0,0,0,0,0,0,0,0,0,0,0,0,0,0,0,0,0,0,0,0,0,0,0,0,0,0,0,0,0,
0,0,0,0,0,0,0,0,0,0,0,0,0,0,0,0,0,0,0,0,0,0,0,0,0,0,0,0,0,0,0,0,0,0,0,0,0,0,0,0,0,0,0,0,0,0,0,0,0,0,0,0,0,0,0,0,0,0,0,0,0,0,0,0,0,0,0,0,0,0,0,0,0,0,0,0,0,0,0,0,
0,0,0,0,0,0,0,0,0,0,0,0,0,0,0,0,0,0,0,0,0,0,0,0,0,0,0,0,0,0,0,0,0,0,0,0,0,0,0,0,0,0,0,0,0,0,0,0,0,0,0,0,0,0,0,0,0,0,0,0,0,0,0,0,0,0,0,0,0,0,0,0,0,0,0,0,0,0,0,0,
0,0,0,0,0,0,0,0,0,0,0,0,0,0,0,0,0,0,0,0,0,0,0,0,0,0,0,0,0,0,0,0,0,0,0,0,0,0,0,0,0,0,0,0,0,0,0,0,0,0,0,0,0,0,0,0,0,0,0,0,0,0,0,0,0,0,0,0,0,0,0,0,0,0,0,0,0,0,0,0,
0,0,0,0,0,0,0,0,0,0,0,0,0,0,0,0,0,0,0,0,0,0,0,0,0,0,0,0,0,0,0,0,0,0,0,0,0,0,0,0,0,0,0,0,0,0,0,0,0,0,0,0,0,0,0,0,0,0,0,0,0,0,0,0,0,0,0,0,0,0,0,0,0,0,0,0,0,0,0,0
</data>
 </layer>
 <layer name="treeoverlay" width="80" height="70">
  <data encoding="csv">
0,0,0,0,0,0,0,0,0,0,0,0,0,0,0,0,0,0,0,0,0,0,0,0,0,0,0,0,0,0,0,0,0,0,0,0,0,0,0,0,0,0,0,0,0,0,0,0,0,0,0,0,0,0,0,0,0,0,0,0,0,0,0,0,0,0,0,0,0,0,0,0,0,0,0,0,0,0,0,0,
0,0,0,0,0,0,0,0,0,0,0,0,0,0,0,0,0,0,0,0,0,0,0,0,0,0,0,0,0,0,0,0,0,0,0,0,0,0,0,0,0,0,0,0,0,0,0,0,0,0,0,0,0,0,0,0,0,0,0,0,0,0,0,0,0,0,0,0,0,0,0,0,0,0,0,0,0,0,0,0,
0,0,0,0,0,0,0,0,0,0,0,0,0,0,0,0,0,0,0,0,0,0,0,0,0,0,0,0,0,0,0,0,0,0,0,0,0,0,0,0,0,0,0,0,0,0,0,0,0,0,0,0,0,0,0,0,0,0,0,0,0,0,0,0,0,0,0,0,0,0,0,0,0,0,0,0,0,0,0,0,
0,0,0,0,0,0,0,0,0,0,0,0,0,0,0,0,0,0,0,0,0,0,0,0,0,0,0,0,0,0,0,0,0,0,0,0,0,0,0,0,0,0,0,0,0,0,0,0,0,0,0,0,0,0,0,0,0,0,0,0,0,0,0,0,0,0,0,0,0,0,0,0,0,0,0,0,0,0,0,0,
0,0,0,0,0,0,0,0,0,0,0,0,0,0,0,0,0,0,0,0,0,0,0,0,0,0,0,0,0,0,0,0,0,0,0,0,0,0,0,0,0,0,0,0,0,0,0,0,0,0,0,0,0,0,0,0,0,0,0,0,0,0,0,0,0,0,0,0,0,0,0,0,0,0,0,0,0,0,0,0,
0,0,0,0,0,0,0,0,0,0,0,0,0,0,0,0,0,0,0,0,0,0,0,0,0,0,0,0,0,0,0,0,0,0,0,0,0,0,0,0,0,0,0,0,0,0,0,0,0,0,0,0,0,0,0,0,0,0,0,0,0,0,0,0,0,0,0,0,0,0,0,0,0,0,0,0,0,0,0,0,
0,0,0,0,0,0,0,0,0,0,0,0,0,0,0,0,0,0,0,0,0,0,0,0,0,0,0,0,0,0,0,0,0,0,0,0,0,0,0,0,0,0,0,0,0,0,0,0,0,0,0,0,0,0,0,0,0,0,0,0,0,0,0,0,0,0,0,0,0,0,0,0,0,0,0,0,0,0,0,0,
0,0,0,0,0,0,0,0,0,0,0,0,0,0,0,0,0,0,0,0,0,0,0,0,0,0,0,0,0,0,0,0,0,0,0,0,0,0,0,0,0,0,0,0,0,0,0,0,0,0,0,0,0,0,0,0,0,0,0,0,0,0,0,0,0,0,0,0,0,0,0,0,0,0,0,0,0,0,0,0,
0,0,0,0,0,0,0,0,0,0,0,0,0,0,0,0,0,0,0,0,0,0,0,0,0,0,0,0,0,0,0,0,0,0,0,0,0,0,0,0,0,0,0,0,0,0,0,0,0,0,0,0,0,0,0,0,0,0,0,0,0,0,0,0,0,0,0,0,0,0,0,0,0,0,0,0,0,0,0,0,
0,0,0,0,0,0,0,0,0,0,0,0,0,0,0,0,0,0,0,0,0,0,0,0,0,0,0,0,0,0,0,0,0,0,0,0,0,0,0,0,0,0,0,0,0,0,0,0,0,0,0,0,0,0,0,0,0,0,0,0,0,0,0,0,0,0,0,0,0,0,0,0,0,0,0,0,0,0,0,0,
0,0,0,0,0,0,0,0,0,0,0,0,0,0,0,0,0,0,0,0,0,0,0,0,0,0,0,0,0,0,0,0,0,0,0,0,0,0,0,0,0,0,0,0,0,0,0,0,0,0,0,0,0,0,0,0,0,0,0,0,0,0,0,0,0,0,0,0,0,0,0,0,0,0,0,0,0,0,0,0,
0,0,0,0,0,0,0,0,0,0,0,0,0,0,0,0,0,0,0,0,0,0,0,0,0,0,0,0,0,0,0,0,0,0,0,0,0,0,0,0,0,0,0,0,0,0,0,0,0,0,0,0,0,0,0,0,0,0,0,0,0,0,0,0,0,0,0,0,0,0,0,0,0,0,0,0,0,0,0,0,
0,0,0,0,0,0,0,0,0,0,0,0,0,0,0,0,0,0,0,0,0,0,0,0,0,0,0,0,0,0,0,0,0,0,0,0,0,0,0,0,0,0,0,0,0,0,0,0,0,0,0,0,0,0,0,0,0,0,0,0,0,0,0,0,0,0,0,0,0,0,0,0,0,0,0,0,0,0,0,0,
0,0,0,0,0,0,0,0,0,0,0,0,0,0,0,0,0,0,0,0,0,0,0,0,0,0,0,0,0,0,0,0,0,0,0,0,0,0,0,0,0,0,0,0,0,0,0,0,0,0,0,0,0,0,0,0,0,0,0,0,0,0,0,0,0,0,0,0,0,0,0,0,0,0,0,0,0,0,0,0,
0,0,0,0,0,0,0,0,0,0,0,0,0,0,0,0,0,0,0,0,0,0,0,0,0,0,0,0,0,0,0,0,0,0,0,0,0,0,0,0,0,0,0,0,0,0,0,0,0,0,0,0,0,0,0,0,0,0,0,0,0,0,0,0,0,0,0,0,0,0,0,0,0,0,0,0,0,0,0,0,
0,0,0,0,0,0,0,0,0,0,0,0,0,0,0,0,0,0,0,0,0,0,0,0,0,0,0,0,0,0,0,0,0,0,0,0,0,0,0,0,0,0,0,0,0,0,0,0,0,0,0,0,0,0,0,0,0,0,0,0,0,0,0,0,0,0,0,0,0,0,0,0,0,0,0,0,0,0,0,0,
0,0,0,0,0,0,0,0,0,0,0,0,0,0,0,0,0,0,0,0,0,0,0,0,0,0,0,0,0,0,0,0,0,0,0,0,0,0,0,0,0,0,0,0,0,0,0,0,0,0,0,0,0,0,0,0,0,0,0,0,0,0,0,0,0,0,0,0,0,0,0,0,0,0,0,0,0,0,0,0,
0,0,0,0,0,0,0,0,0,0,0,0,0,0,0,0,0,0,0,0,0,0,0,0,0,0,0,0,0,0,0,0,0,0,0,0,0,0,0,0,0,0,0,0,0,0,0,0,0,0,0,0,0,0,0,0,0,0,0,0,0,0,0,0,0,0,0,0,0,0,0,0,0,0,0,0,0,0,0,0,
0,0,0,0,0,0,0,0,0,0,0,0,0,0,0,0,0,0,0,0,0,0,0,0,0,0,0,0,0,0,0,0,0,0,0,0,0,0,0,0,0,0,0,0,0,0,0,0,0,0,0,0,0,0,0,0,0,0,0,0,0,0,0,0,0,0,0,0,0,0,0,0,0,0,0,0,0,0,0,0,
0,0,0,0,0,0,0,0,0,0,0,0,0,0,0,0,0,0,0,0,0,0,0,0,0,0,0,0,0,0,0,0,0,0,0,0,0,0,0,0,0,0,0,0,0,0,0,0,0,0,0,0,0,0,0,0,0,0,0,0,0,0,0,0,0,0,0,0,0,0,0,0,0,0,0,0,0,0,0,0,
0,0,0,0,0,0,0,0,0,0,0,0,0,0,0,0,0,0,0,0,0,0,0,0,0,0,0,0,0,0,0,0,0,0,0,0,0,0,0,0,0,0,0,0,0,0,0,0,0,0,0,0,0,0,0,0,0,0,0,0,0,0,0,0,0,0,0,0,0,0,0,0,0,0,0,0,0,0,0,0,
0,0,0,0,0,0,0,0,0,0,0,0,0,0,0,0,0,0,0,0,0,0,0,0,0,0,0,0,0,0,0,0,0,0,0,0,0,0,0,0,0,0,0,0,0,0,0,0,0,0,0,0,0,0,0,0,0,0,0,0,0,0,0,0,0,0,0,0,0,0,0,0,0,0,0,0,0,0,0,0,
0,0,0,0,0,0,0,0,0,0,0,0,0,0,0,0,0,0,0,0,0,0,0,0,0,0,0,0,0,0,0,0,0,0,0,0,0,0,0,0,0,0,0,0,0,0,0,0,0,0,0,0,0,0,0,0,0,0,0,0,0,0,0,0,0,0,0,0,0,0,0,0,0,0,0,0,0,0,0,0,
0,0,0,0,0,0,0,0,0,0,0,0,0,0,0,0,0,0,0,0,0,0,0,0,0,0,0,0,0,0,0,0,0,0,0,0,0,0,0,0,0,0,0,0,0,0,0,0,0,0,0,0,0,0,0,0,0,0,0,0,0,0,0,0,0,0,0,0,0,0,0,0,0,0,0,0,0,0,0,0,
0,0,0,0,0,0,0,0,0,0,0,0,0,0,0,0,0,0,0,0,0,0,0,0,0,0,0,0,0,0,0,0,0,0,0,0,0,0,0,0,0,0,0,0,0,0,0,0,0,0,0,0,0,0,0,0,0,0,0,0,0,0,0,0,0,0,0,0,0,0,0,0,0,0,0,0,0,0,0,0,
0,0,0,0,0,0,0,0,0,0,0,0,0,0,0,0,0,0,0,0,0,0,0,0,0,0,0,0,0,0,0,0,0,0,0,0,0,0,0,0,0,0,0,0,0,0,0,0,0,0,0,0,0,0,0,0,0,0,0,0,0,0,0,0,0,0,0,0,0,0,0,0,0,0,0,0,0,0,0,0,
0,0,0,0,0,0,0,0,0,0,0,0,0,0,0,0,0,0,0,0,0,0,0,0,0,0,0,0,0,0,0,0,0,0,0,0,0,0,0,0,0,0,0,0,0,0,0,0,0,0,0,0,0,0,0,0,0,0,0,0,0,0,0,0,0,0,0,0,0,0,0,0,0,0,0,0,0,0,0,0,
0,0,0,0,0,0,0,0,0,0,0,0,0,0,0,0,0,0,0,0,0,0,0,0,0,0,0,0,0,0,0,0,0,0,0,0,0,0,0,0,0,0,0,0,0,0,0,0,0,0,0,0,0,0,0,0,0,0,0,0,0,0,0,0,0,0,0,0,0,0,0,0,0,0,0,0,0,0,0,0,
0,0,0,0,0,0,0,0,0,0,0,0,0,0,0,0,0,0,0,0,0,0,0,0,0,0,0,0,0,0,0,0,0,0,0,0,0,0,0,0,0,0,0,0,0,0,0,0,0,0,0,0,0,0,0,0,0,0,0,0,0,0,0,0,0,0,0,0,0,0,0,0,0,0,0,0,0,0,0,0,
0,0,0,0,0,0,0,0,0,0,0,0,0,0,0,0,0,0,0,0,0,0,0,0,0,0,0,0,0,0,0,0,0,0,0,0,0,0,0,0,0,0,0,0,0,0,0,0,0,0,0,0,0,0,0,0,0,0,0,0,0,0,0,0,0,0,0,0,0,0,0,0,0,0,0,0,0,0,0,0,
0,0,0,0,0,0,0,0,0,0,0,0,0,0,0,0,0,0,0,0,0,0,0,0,0,0,0,0,0,0,0,0,0,0,0,0,0,0,0,0,0,0,0,0,0,0,0,0,0,0,0,0,0,0,0,0,0,0,0,0,0,0,0,0,0,0,0,0,0,0,0,0,0,0,0,0,0,0,0,0,
0,0,0,0,0,0,0,0,0,0,0,0,0,0,0,0,0,0,0,0,0,0,0,0,0,0,0,0,0,0,0,0,0,0,0,0,0,0,0,0,0,0,0,0,0,0,0,0,0,0,0,0,0,0,0,0,0,0,0,0,0,0,0,0,0,0,0,0,0,0,0,0,0,0,0,0,0,0,0,0,
0,0,0,0,0,0,0,0,0,0,0,0,0,0,0,0,0,0,0,0,0,0,0,0,0,0,0,0,0,0,0,0,0,0,0,0,0,0,0,0,0,0,0,0,0,0,0,0,0,0,0,0,0,0,0,0,0,0,0,0,0,0,0,0,0,0,0,0,0,0,0,0,0,0,0,0,0,0,0,0,
0,0,0,0,0,0,0,0,0,0,0,0,0,0,0,0,0,0,0,0,0,0,0,0,0,0,0,0,0,0,0,0,0,0,0,0,0,0,0,0,0,0,0,0,0,0,0,0,0,0,0,0,0,0,0,0,0,0,0,0,0,0,0,0,0,0,0,0,0,0,0,0,0,0,0,0,0,0,0,0,
0,0,0,0,0,0,0,0,0,0,0,0,0,0,0,0,0,0,0,0,0,0,0,0,0,0,0,0,0,0,0,0,0,0,0,0,0,0,0,0,0,0,0,0,0,0,0,0,0,0,0,0,0,0,0,0,0,0,0,0,0,0,0,0,0,0,0,0,0,0,0,0,0,0,0,0,0,0,0,0,
0,0,0,0,0,0,0,0,0,0,0,0,0,0,0,0,0,0,0,0,0,0,0,0,0,0,0,0,0,0,0,0,0,0,0,0,0,0,0,0,0,0,0,0,0,0,0,0,0,0,0,0,0,0,0,0,0,0,0,0,0,0,0,0,0,0,0,0,0,0,0,0,0,0,0,0,0,0,0,0,
0,0,0,0,0,0,0,0,0,0,0,0,0,0,0,0,0,0,0,0,0,0,0,0,0,0,0,0,0,0,0,0,0,0,0,0,0,0,0,0,0,0,0,0,0,0,0,0,0,0,0,0,0,0,0,0,0,0,0,0,0,0,0,0,0,0,0,0,0,0,0,0,0,0,0,0,0,0,0,0,
0,0,0,0,0,0,0,0,0,0,0,0,0,0,0,0,0,0,0,0,0,0,0,0,0,0,0,0,0,0,0,0,0,0,0,0,0,0,0,0,0,0,0,0,0,0,0,0,0,0,0,0,0,0,0,0,0,0,0,0,0,0,0,0,0,0,0,0,0,0,0,0,0,0,0,0,0,0,0,0,
0,0,0,0,0,0,0,0,0,0,0,0,0,0,0,0,0,0,0,0,0,0,0,0,0,0,0,0,0,0,0,0,0,0,0,0,0,0,0,0,0,0,0,0,0,0,0,0,0,0,0,0,0,0,0,0,0,0,0,0,0,0,0,0,0,0,0,0,0,0,0,0,0,0,0,0,0,0,0,0,
0,0,0,0,0,0,0,0,0,0,0,0,0,0,0,0,0,0,0,0,0,0,0,0,0,0,0,0,0,0,0,0,0,0,0,0,0,0,0,0,0,0,0,0,0,0,0,0,0,0,0,0,0,0,0,0,0,0,0,0,0,0,0,0,0,0,0,0,0,0,0,0,0,0,0,0,0,0,0,0,
0,0,0,0,0,0,0,0,0,0,0,0,0,0,0,0,0,0,0,0,0,0,0,0,0,0,0,0,0,0,0,0,0,0,0,0,0,0,0,0,0,0,0,0,0,0,0,0,0,0,0,0,0,0,0,0,0,0,0,0,0,0,0,0,0,0,0,0,0,0,0,0,0,0,0,0,0,0,0,0,
0,0,0,0,0,0,0,0,0,0,0,0,0,0,0,0,0,0,0,0,0,0,0,0,0,0,0,0,0,0,0,0,0,0,0,0,0,0,0,0,0,0,0,0,0,0,0,0,0,0,0,0,0,0,0,0,0,0,0,0,0,0,0,0,0,0,0,0,0,0,0,0,0,0,0,0,0,0,0,0,
0,0,0,0,0,0,0,0,0,0,0,0,0,0,0,0,0,0,0,0,0,0,0,0,0,0,0,0,0,0,0,0,0,0,0,0,0,0,0,0,0,0,0,0,0,0,0,0,0,0,0,0,0,0,0,0,0,0,0,0,0,0,0,0,0,0,0,0,0,0,0,0,0,0,0,0,0,0,0,0,
0,0,0,0,0,0,0,0,0,0,0,0,0,0,0,0,0,0,0,0,0,0,0,0,0,0,0,0,0,0,0,0,0,0,0,0,0,0,0,0,0,0,0,0,0,0,0,0,0,0,0,0,0,0,0,0,0,0,0,0,0,0,0,0,0,0,0,0,0,0,0,0,0,0,0,0,0,0,0,0,
0,0,0,0,0,0,0,0,0,0,0,0,0,0,0,0,0,0,0,0,0,0,0,0,0,0,0,0,0,0,0,0,0,0,0,0,0,0,0,0,0,0,0,0,0,0,0,0,0,0,0,0,0,0,0,0,0,0,0,0,0,0,0,0,0,0,0,0,0,0,0,0,0,0,0,0,0,0,0,0,
0,0,0,0,0,0,0,0,0,0,0,0,0,0,0,0,0,0,0,0,0,0,0,0,0,0,0,0,0,0,0,0,0,0,0,0,0,0,0,0,0,0,0,0,0,0,0,0,0,0,0,0,0,0,0,0,0,0,0,0,0,0,0,0,0,0,0,0,0,0,0,0,0,0,0,0,0,0,0,0,
0,0,0,0,0,0,0,0,0,0,0,0,0,0,0,0,0,0,0,0,0,0,0,0,0,0,0,0,0,0,0,0,0,0,0,0,0,0,0,0,0,0,0,0,0,0,0,0,0,0,0,0,0,0,0,0,0,0,0,0,0,0,0,0,0,0,0,0,0,0,0,0,0,0,0,0,0,0,0,0,
0,0,0,0,0,0,0,0,0,0,0,0,0,0,0,0,0,0,0,0,0,0,0,0,0,0,0,0,0,0,0,0,0,0,0,0,0,0,0,0,0,0,0,0,0,0,0,0,0,0,0,0,0,0,0,0,0,0,0,0,0,0,0,0,0,0,0,0,0,0,0,0,0,0,0,0,0,0,0,0,
0,0,0,0,0,0,0,0,0,0,0,0,0,0,0,0,0,0,0,0,0,0,0,0,0,0,0,0,0,0,0,0,0,0,0,0,0,0,0,0,0,0,0,0,0,0,0,0,0,0,0,0,0,0,0,0,0,0,0,0,0,0,0,0,0,0,0,0,0,0,0,0,0,0,0,0,0,0,0,0,
0,0,0,0,0,0,0,0,0,0,0,0,0,0,0,0,0,0,0,0,0,0,0,0,0,0,0,0,0,0,0,0,0,0,0,0,0,0,0,0,0,0,0,0,0,0,0,0,0,0,0,0,0,0,0,0,0,0,0,0,0,0,0,0,0,0,0,0,0,0,0,0,0,0,0,0,0,0,0,0,
0,0,0,0,0,0,0,0,0,0,0,0,0,0,0,0,0,0,0,0,0,0,0,0,0,0,0,0,0,0,0,0,0,0,0,0,0,0,0,0,0,0,0,0,0,0,0,0,0,0,0,0,0,0,0,0,0,0,0,0,0,0,0,0,0,0,0,0,0,0,0,0,0,0,0,0,0,0,0,0,
0,0,0,0,0,0,0,0,0,0,0,0,0,0,0,0,0,0,0,0,0,0,0,0,0,0,0,0,0,0,0,0,0,0,0,0,0,0,0,0,0,0,0,0,0,0,0,0,0,0,0,0,0,0,0,0,0,0,0,0,0,0,0,0,0,0,0,0,0,0,0,0,0,0,0,0,0,0,0,0,
0,0,0,0,0,0,0,0,0,0,0,0,0,0,0,0,0,0,0,0,0,0,0,0,0,0,0,0,0,0,0,0,0,0,0,0,0,0,0,0,0,0,0,0,0,0,0,0,0,0,0,0,0,0,0,0,0,0,0,0,0,0,0,0,0,0,0,0,0,0,0,0,0,0,0,0,0,0,0,0,
0,0,0,0,0,0,0,0,0,0,0,0,0,0,0,0,0,0,0,0,0,0,0,0,0,0,0,0,0,0,0,0,0,0,0,0,0,0,0,0,0,0,0,0,0,0,0,0,0,0,0,0,0,0,0,0,0,0,0,0,0,0,0,0,0,0,0,0,0,0,0,0,0,0,0,0,0,0,0,0,
0,0,0,0,0,0,0,0,0,0,0,0,0,0,0,0,0,0,0,0,0,0,0,0,0,0,0,0,0,0,0,0,0,0,0,0,0,0,0,0,0,0,0,0,0,0,0,0,0,0,0,0,0,0,0,0,0,0,0,0,0,0,0,0,0,0,0,0,0,0,0,0,0,0,0,0,0,0,0,0,
0,0,0,0,0,0,0,0,0,0,0,0,0,0,0,0,0,0,0,0,0,0,0,0,0,0,0,0,0,0,0,0,0,0,0,0,0,0,0,0,0,0,0,0,0,0,0,0,0,0,0,0,0,0,0,0,0,0,0,0,0,0,0,0,0,0,0,0,0,0,0,0,0,0,0,0,0,0,0,0,
0,0,0,0,0,0,0,0,0,0,0,0,0,0,0,0,0,0,0,0,0,0,0,0,0,0,0,0,0,0,0,0,0,0,0,0,0,0,0,0,0,0,0,0,0,0,0,0,0,0,0,0,0,0,0,0,0,0,0,0,0,0,0,0,0,0,0,0,0,0,0,0,0,0,0,0,0,0,0,0,
0,0,0,0,0,0,0,0,0,0,0,0,0,0,0,0,0,0,0,0,0,0,0,0,0,0,0,0,0,0,0,0,0,0,0,0,0,0,0,0,0,0,0,0,0,0,0,0,0,0,0,0,0,0,0,0,0,0,0,0,0,0,0,0,0,0,0,0,0,0,0,0,0,0,0,0,0,0,0,0,
0,0,0,0,0,0,0,0,0,0,0,0,0,0,0,0,0,0,0,0,0,0,0,0,0,0,0,0,0,0,0,0,0,0,0,0,0,0,0,0,0,0,0,0,0,0,0,0,0,0,0,0,0,0,0,0,0,0,0,0,0,0,0,0,0,0,0,0,0,0,0,0,0,0,0,0,0,0,0,0,
0,0,0,0,0,0,0,0,0,0,0,0,0,0,0,0,0,0,0,0,0,0,0,0,0,0,0,0,0,0,0,0,0,0,0,0,0,0,0,0,0,0,0,0,0,0,0,0,0,0,0,0,0,0,0,0,0,0,0,0,0,0,0,0,0,0,0,0,0,0,0,0,0,0,0,0,0,0,0,0,
0,0,0,0,0,0,0,0,0,0,0,0,0,0,0,0,0,0,0,0,0,0,0,0,0,0,0,0,0,0,0,0,0,0,0,0,0,0,0,0,0,0,0,0,0,0,0,0,0,0,0,0,0,0,0,0,0,0,0,0,0,0,0,0,0,0,0,0,0,0,0,0,0,0,0,0,0,0,0,0,
0,0,0,0,0,0,0,0,0,0,0,0,0,0,0,0,0,0,0,0,0,0,0,0,0,0,0,0,0,0,0,0,0,0,0,0,0,0,0,0,0,0,0,0,0,0,0,0,0,0,0,0,0,0,0,0,0,0,0,0,0,0,0,0,0,0,0,0,0,0,0,0,0,0,0,0,0,0,0,0,
0,0,0,0,0,0,0,0,0,0,0,0,0,0,0,0,0,0,0,0,0,0,0,0,0,0,0,0,0,0,0,0,0,0,0,0,0,0,0,0,0,0,0,0,0,0,0,0,0,0,0,0,0,0,0,0,0,0,0,0,0,0,0,0,0,0,0,0,0,0,0,0,0,0,0,0,0,0,0,0,
0,0,0,0,0,0,0,0,0,0,0,0,0,0,0,0,0,0,0,0,0,0,0,0,0,0,0,0,0,0,0,0,0,0,0,0,0,0,0,0,0,0,0,0,0,0,0,0,0,0,0,0,0,0,0,0,0,0,0,0,0,0,0,0,0,0,0,0,0,0,0,0,0,0,0,0,0,0,0,0,
0,0,0,0,0,0,0,0,0,0,0,0,0,0,0,0,0,0,0,0,0,0,0,0,0,0,0,0,0,0,0,0,0,0,0,0,0,0,0,0,0,0,0,0,0,0,0,0,0,0,0,0,0,0,0,0,0,0,0,0,0,0,0,0,0,0,0,0,0,0,0,0,0,0,0,0,0,0,0,0,
0,0,0,0,0,0,0,0,0,0,0,0,0,0,0,0,0,0,0,0,0,0,0,0,0,0,0,0,0,0,0,0,0,0,0,0,0,0,0,0,0,0,0,0,0,0,0,0,0,0,0,0,0,0,0,0,0,0,0,0,0,0,0,0,0,0,0,0,0,0,0,0,0,0,0,0,0,0,0,0,
0,0,0,0,0,0,0,0,0,0,0,0,0,0,0,0,0,0,0,0,0,0,0,0,0,0,0,0,0,0,0,0,0,0,0,0,0,0,0,0,0,0,0,0,0,0,0,0,0,0,0,0,0,0,0,0,0,0,0,0,0,0,0,0,0,0,0,0,0,0,0,0,0,0,0,0,0,0,0,0,
0,0,0,0,0,0,0,0,0,0,0,0,0,0,0,0,0,0,0,0,0,0,0,0,0,0,0,0,0,0,0,0,0,0,0,0,0,0,0,0,0,0,0,0,0,0,0,0,0,0,0,0,0,0,0,0,0,0,0,0,0,0,0,0,0,0,0,0,0,0,0,0,0,0,0,0,0,0,0,0,
0,0,0,0,0,0,0,0,0,0,0,0,0,0,0,0,0,0,0,0,0,0,0,0,0,0,0,0,0,0,0,0,0,0,0,0,0,0,0,0,0,0,0,0,0,0,0,0,0,0,0,0,0,0,0,0,0,0,0,0,0,0,0,0,0,0,0,0,0,0,0,0,0,0,0,0,0,0,0,0,
0,0,0,0,0,0,0,0,0,0,0,0,0,0,0,0,0,0,0,0,0,0,0,0,0,0,0,0,0,0,0,0,0,0,0,0,0,0,0,0,0,0,0,0,0,0,0,0,0,0,0,0,0,0,0,0,0,0,0,0,0,0,0,0,0,0,0,0,0,0,0,0,0,0,0,0,0,0,0,0
</data>
 </layer>
 <layer name="shadow" width="80" height="70" opacity="0.5">
  <data encoding="csv">
0,0,0,0,0,0,0,0,0,0,0,0,0,0,0,0,0,0,0,13613,13613,0,0,0,0,0,0,0,0,0,0,0,0,0,0,0,0,0,0,0,0,0,0,0,0,0,0,0,0,0,0,0,0,0,0,0,0,0,0,0,0,0,0,0,0,0,0,0,0,0,0,0,0,0,0,0,0,0,0,0,
0,0,0,0,0,0,0,0,0,0,0,0,0,0,0,0,0,0,0,0,13613,13613,0,0,0,0,0,0,0,0,0,0,0,0,0,0,0,0,0,0,0,0,0,0,0,0,0,0,0,0,0,0,0,0,0,0,0,0,0,0,0,0,0,0,0,0,0,0,0,0,0,0,0,0,0,0,0,0,0,0,
0,0,0,0,0,0,0,0,0,0,0,0,13610,0,0,0,0,0,13613,13613,0,13613,13613,0,0,0,0,0,0,0,0,0,0,0,0,0,0,0,0,0,0,0,0,0,0,0,0,0,0,0,0,0,0,0,0,0,0,0,0,0,0,0,0,0,0,0,0,0,0,0,0,0,0,0,0,0,0,0,0,0,
0,0,0,0,0,0,0,0,0,0,0,13610,13614,0,0,0,0,0,13681,13613,0,0,13613,13613,0,0,0,0,0,0,0,0,0,0,0,0,0,0,0,0,0,0,0,0,0,0,0,0,0,0,0,0,0,0,0,0,0,0,0,0,0,0,0,0,0,0,0,0,0,0,0,0,0,0,0,0,0,0,0,0,
0,0,0,0,0,0,0,0,13610,0,13610,13614,0,0,0,0,0,0,0,13610,0,13610,0,13613,13613,0,0,0,0,0,0,0,0,0,0,0,0,0,0,0,0,0,0,0,0,0,0,0,0,0,0,0,0,0,0,0,0,0,0,0,0,0,0,0,0,0,0,0,0,0,0,0,0,0,0,0,0,0,0,0,
0,0,0,0,0,0,0,0,13610,13610,13614,0,0,0,0,0,0,0,0,13608,13613,13610,0,0,0,13613,0,0,0,0,0,0,0,0,0,0,0,0,0,0,0,0,0,0,0,0,0,0,0,0,0,0,0,0,0,0,0,0,0,0,0,0,0,0,0,0,0,0,0,0,0,0,0,0,0,0,0,0,0,0,
0,0,0,0,0,0,13610,0,13610,13614,0,0,0,0,0,0,0,0,0,0,13681,13610,13610,13610,0,13613,13613,0,0,0,0,0,0,0,0,0,0,0,0,0,0,0,0,0,0,0,0,0,0,0,0,0,0,0,0,0,0,0,0,0,0,0,0,0,0,0,0,0,0,0,0,0,0,0,0,0,0,0,0,0,
0,0,0,0,0,0,13610,13610,13610,0,0,0,0,0,0,0,0,0,0,0,0,13610,13610,13610,0,0,0,0,0,0,0,0,0,0,0,0,0,0,0,0,0,0,0,0,0,0,0,0,0,0,0,0,0,0,0,0,0,0,0,0,0,0,0,0,0,0,0,0,0,0,0,0,0,0,0,0,0,0,0,0,
0,0,0,0,0,0,0,13610,13614,0,0,0,0,0,0,0,0,0,0,0,0,13610,13610,13610,13610,0,0,0,0,0,0,0,0,0,0,0,0,0,0,0,0,0,0,0,0,0,0,0,0,0,0,0,0,0,0,0,0,0,0,0,0,0,0,0,0,0,0,0,0,0,0,0,0,0,0,0,0,0,0,0,
0,0,0,0,0,0,0,13610,0,0,0,0,0,0,0,0,0,0,0,0,0,13613,13610,13610,13610,0,0,0,0,0,0,0,0,0,0,0,0,0,0,0,0,0,0,0,0,0,0,0,0,0,0,0,0,0,0,0,0,0,0,0,0,0,0,0,0,0,0,0,0,0,0,0,0,0,0,0,0,0,0,0,
0,0,0,0,0,0,13610,13610,0,0,0,0,0,0,0,0,0,0,0,0,0,13681,13610,13610,0,13610,0,0,0,0,0,0,0,0,0,0,0,0,0,0,0,0,0,0,0,0,0,0,0,0,0,0,0,0,0,0,0,0,0,0,0,0,0,0,0,0,0,0,0,0,0,0,0,0,0,0,0,0,0,0,
0,0,0,0,0,0,13610,13610,0,0,0,0,0,0,0,0,0,0,0,0,0,0,13610,13610,0,13610,0,0,0,0,0,0,0,0,0,0,0,0,0,0,0,0,0,0,0,0,0,0,0,0,0,0,0,0,0,0,0,0,0,0,0,0,0,0,0,0,0,0,0,0,0,0,0,0,0,0,0,0,0,0,
0,0,0,0,0,13610,13610,13610,0,0,0,0,0,0,0,0,0,0,0,0,0,0,0,0,0,0,0,0,0,0,0,0,0,0,0,0,0,0,0,0,0,0,0,0,0,0,0,0,0,0,0,0,0,0,0,0,0,0,0,0,0,0,0,0,0,0,0,0,0,0,0,0,0,0,0,0,0,0,0,0,
0,0,0,0,0,13610,13610,13614,0,0,0,0,0,0,0,0,0,0,0,0,0,0,0,0,0,0,0,0,0,0,0,0,0,0,0,0,0,0,0,0,0,0,0,0,0,0,0,0,0,0,0,0,0,0,0,0,0,0,0,0,0,0,0,0,0,0,0,0,0,0,0,0,0,0,0,0,0,0,0,0,
0,0,0,0,0,13614,13614,0,0,0,0,0,0,0,0,0,0,0,0,0,0,0,0,0,0,0,0,0,0,0,0,0,0,0,0,0,0,0,0,0,0,0,0,0,0,0,0,0,0,0,0,0,0,0,0,0,0,0,0,0,0,0,0,0,0,0,0,0,0,0,0,0,0,0,0,0,0,0,0,0,
0,0,0,0,0,13614,0,0,0,0,0,0,0,0,0,0,0,0,0,0,0,0,0,0,0,0,0,0,0,0,0,0,0,0,0,0,0,0,0,0,0,0,0,0,0,0,0,0,0,0,0,0,0,0,0,0,0,0,0,0,0,0,0,0,0,0,0,0,0,0,0,0,0,0,0,0,0,0,0,0,
0,0,0,0,0,13610,13541,0,0,0,0,0,0,0,0,0,0,0,0,0,0,0,0,0,0,0,0,0,0,0,0,0,0,0,0,0,0,0,0,0,0,0,0,0,0,0,0,0,0,0,0,0,0,0,0,0,0,0,0,0,0,0,0,0,0,0,0,0,0,0,0,0,0,0,0,0,0,0,0,0,
0,0,0,0,0,13610,13610,0,0,0,0,0,0,0,0,0,0,0,0,0,0,0,0,0,0,0,0,0,0,0,0,0,0,0,0,0,0,0,0,0,0,0,0,0,0,0,0,0,0,0,0,0,0,0,0,0,0,0,0,0,0,0,0,0,0,0,0,0,0,0,0,0,0,0,0,0,0,0,0,0,
0,0,0,0,0,0,13610,0,0,0,0,0,0,0,0,0,0,0,0,0,0,0,0,0,0,0,0,0,0,0,0,0,0,0,0,0,0,0,0,0,0,0,0,0,0,0,0,0,0,0,0,0,0,0,0,0,0,0,0,0,0,0,0,0,0,0,0,0,0,0,0,0,0,0,0,0,0,0,0,0,
0,0,0,0,0,0,13610,0,0,0,0,0,0,0,0,0,0,0,0,0,0,0,0,0,0,0,0,0,0,0,0,0,0,0,0,0,0,0,0,0,0,0,0,0,0,0,0,0,0,0,0,0,0,0,0,0,0,0,0,0,0,0,0,0,0,0,0,0,0,0,0,0,0,0,0,0,0,0,0,0,
0,0,0,0,0,0,13610,0,0,0,0,0,0,0,0,0,0,0,0,0,0,0,0,0,0,0,0,0,0,0,0,0,0,0,0,0,0,0,0,0,0,0,0,0,0,0,0,0,0,0,0,0,0,0,0,0,0,0,0,0,0,0,0,0,0,0,0,0,0,0,0,0,0,0,0,0,0,0,0,0,
0,0,0,0,0,0,13610,0,0,0,0,0,0,0,0,0,0,0,0,0,0,0,0,0,0,0,0,0,0,0,0,0,0,0,0,0,0,0,0,0,0,0,0,0,0,0,0,0,0,0,0,0,0,0,0,0,0,0,0,0,0,0,0,0,0,0,0,0,0,0,0,0,0,0,0,0,0,0,0,0,
0,0,0,0,0,0,13610,0,0,0,0,0,0,0,0,0,0,0,0,0,0,0,0,0,0,0,0,0,0,0,0,0,0,0,0,0,0,0,0,0,0,0,0,0,0,0,0,0,0,0,0,0,0,0,0,0,0,0,0,0,0,0,0,0,0,0,0,0,0,0,0,0,0,0,0,0,0,0,0,0,
0,0,0,0,0,0,0,0,0,0,0,0,0,0,0,0,0,0,0,0,0,0,0,0,0,0,0,0,0,0,0,0,0,0,0,0,0,0,0,0,0,0,0,0,0,0,0,0,0,0,0,0,0,0,0,0,0,0,0,0,0,0,0,0,0,0,0,0,0,0,0,0,0,0,0,0,0,0,0,0,
0,0,0,0,0,0,0,0,0,0,0,0,0,0,0,0,0,0,0,0,0,0,0,0,0,0,0,0,0,0,0,0,0,0,0,0,0,0,0,0,0,0,0,0,0,0,0,0,0,0,0,0,0,0,0,0,0,0,0,0,0,0,0,0,0,0,0,0,0,0,0,0,0,0,0,0,0,0,0,0,
0,0,0,0,0,0,0,0,0,0,0,0,0,0,0,0,0,0,0,0,0,0,0,0,0,0,0,0,0,0,0,0,0,0,0,0,0,0,0,0,0,0,0,0,0,0,0,0,0,0,0,0,0,0,0,0,0,0,0,0,0,0,0,0,0,0,0,0,0,0,0,0,0,0,0,0,0,0,0,0,
0,0,0,0,0,0,0,0,0,0,0,0,0,0,0,0,0,0,0,0,0,0,0,0,0,0,0,0,0,0,0,0,0,0,0,0,0,0,0,0,0,0,0,0,0,0,0,0,0,0,0,0,0,0,0,0,0,0,0,0,0,0,0,0,0,0,0,0,0,0,0,0,0,0,0,0,0,0,0,0,
0,0,0,0,0,0,0,0,0,0,0,0,0,0,0,0,0,0,0,0,0,0,0,0,0,0,0,0,0,0,0,0,0,0,0,0,0,0,0,0,0,0,0,0,0,0,0,0,0,0,0,0,0,0,0,0,0,0,0,0,0,0,0,0,0,0,0,0,0,0,0,0,0,0,0,0,0,0,0,0,
0,0,0,0,0,0,0,0,0,0,0,0,0,0,0,0,0,0,0,0,0,0,0,0,0,0,0,0,0,0,0,0,0,0,0,0,0,0,0,0,0,0,0,0,0,0,0,0,0,0,0,0,0,0,0,0,0,0,0,0,0,0,0,0,0,0,0,0,0,0,0,0,0,0,0,0,0,0,0,0,
0,0,0,0,0,0,0,0,0,0,0,0,0,0,0,0,0,0,0,0,0,0,0,0,0,0,0,0,0,0,0,0,0,0,0,0,0,0,0,0,0,0,0,0,0,0,0,0,0,0,0,0,0,0,0,0,0,0,0,0,0,0,0,0,0,0,0,0,0,0,0,0,0,0,0,0,0,0,0,0,
0,0,0,0,0,0,0,0,0,0,0,0,0,0,0,0,0,0,0,0,0,0,0,0,0,0,0,0,0,0,0,0,0,0,0,0,0,0,0,0,0,0,0,0,0,0,0,0,0,0,0,0,0,0,0,0,0,0,0,0,0,0,0,0,0,0,0,0,0,0,0,0,0,0,0,0,0,0,0,0,
0,0,0,0,0,0,0,0,0,0,0,0,0,0,0,0,0,0,0,0,0,0,0,0,0,0,0,0,0,0,0,0,0,0,0,0,0,0,0,0,0,0,0,0,0,0,0,0,0,0,0,0,0,0,0,0,0,0,0,0,0,0,0,0,0,0,0,0,0,0,0,0,0,0,0,0,0,0,0,0,
0,0,0,0,0,0,0,0,0,0,0,0,0,0,0,0,0,0,0,0,0,0,0,0,0,0,0,0,0,0,0,0,0,0,0,0,0,0,0,0,0,0,0,0,0,0,0,0,0,0,0,0,0,0,0,0,0,0,0,0,0,0,0,0,0,0,0,0,0,0,0,0,0,0,0,0,0,0,0,0,
0,0,0,0,0,0,0,0,0,0,0,0,0,0,0,0,0,0,0,0,0,0,0,0,0,0,0,0,0,0,0,0,0,0,0,0,0,0,0,0,0,0,0,0,0,0,0,0,0,0,0,0,0,0,0,0,0,0,0,0,0,0,0,0,0,0,0,0,0,0,0,0,0,0,0,0,0,0,0,0,
0,0,0,0,0,0,0,0,0,0,0,0,0,0,0,0,0,0,0,0,0,0,0,0,0,0,0,0,0,0,0,0,0,0,0,0,0,0,0,0,0,0,0,0,0,0,0,0,0,0,0,0,0,0,0,0,0,0,0,0,0,0,0,0,0,0,0,0,0,0,0,0,0,0,0,0,0,0,0,0,
0,0,0,0,0,0,0,0,0,0,0,0,0,0,0,0,0,0,0,0,0,0,0,0,0,0,0,0,0,0,0,0,0,0,0,0,0,0,0,0,0,0,0,0,0,0,0,0,0,0,0,0,0,0,0,0,0,0,0,0,0,0,0,0,0,0,0,0,0,0,0,0,0,0,0,0,0,0,0,0,
0,0,0,0,0,0,0,0,0,0,0,0,0,0,0,0,0,0,0,0,0,0,0,0,0,0,0,0,0,0,0,0,0,0,0,0,0,0,0,0,0,0,0,0,0,0,0,0,0,0,0,0,0,0,0,0,0,0,0,0,0,0,0,0,0,0,0,0,0,0,0,0,0,0,0,0,0,0,0,0,
0,0,0,0,0,0,0,0,0,0,0,0,0,0,0,0,0,0,0,0,0,0,0,0,0,0,0,0,0,0,0,0,0,0,0,0,0,0,0,0,0,0,0,0,0,0,0,0,0,0,0,0,0,0,0,0,0,0,0,0,0,0,0,0,0,0,0,0,0,0,0,0,0,0,0,0,0,0,0,0,
0,0,0,0,0,0,0,0,0,0,0,0,0,0,0,0,0,0,0,0,0,0,0,0,0,0,0,0,0,0,0,0,0,0,0,0,0,0,0,0,0,0,0,0,0,0,0,0,0,0,0,0,0,0,0,0,0,0,0,0,0,0,0,0,0,0,0,0,0,0,0,0,0,0,0,0,0,0,0,0,
0,0,0,0,0,0,0,0,0,0,0,0,0,0,0,0,0,0,0,0,0,0,0,0,0,0,0,0,0,0,0,0,0,0,0,0,0,0,0,0,0,0,0,0,0,0,0,0,0,0,0,0,0,0,0,0,0,0,0,0,0,0,0,0,0,0,0,0,0,0,0,0,0,0,0,0,0,0,0,0,
0,0,0,0,0,0,0,0,0,0,0,0,0,0,0,0,0,0,0,0,0,0,0,0,0,0,0,0,0,0,0,0,0,0,0,0,0,0,0,0,0,0,0,0,0,0,0,0,0,0,0,0,0,0,0,0,0,0,0,0,0,0,0,0,0,0,0,0,0,0,0,0,0,0,0,0,0,0,0,0,
0,0,0,0,0,0,0,0,0,0,0,0,0,0,0,0,0,0,0,0,0,0,0,0,0,0,0,0,0,0,0,0,0,0,0,0,0,0,0,0,0,0,0,0,0,0,0,0,0,0,0,0,0,0,0,0,0,0,0,0,0,0,0,0,0,0,0,0,0,0,0,0,0,0,0,0,0,0,0,0,
0,0,0,0,0,0,0,0,0,0,0,0,0,0,0,0,0,0,0,0,0,0,0,0,0,0,0,0,0,0,0,0,0,0,0,0,0,0,0,0,0,0,0,0,0,0,0,0,0,0,0,0,0,0,0,0,0,0,0,0,0,0,0,0,0,0,0,0,0,0,0,0,0,0,0,0,0,0,0,0,
0,0,0,0,0,0,0,0,0,0,0,0,0,0,0,0,0,0,0,0,0,0,0,0,0,0,0,0,0,0,0,0,0,0,0,0,0,0,0,0,0,0,0,0,0,0,0,0,0,0,0,0,0,0,0,0,0,0,0,0,0,0,0,0,0,0,0,0,0,0,0,0,0,0,0,0,0,0,0,0,
0,0,0,0,0,0,0,0,0,0,0,0,0,0,0,0,0,0,0,0,0,0,0,0,0,0,0,0,0,0,0,0,0,0,0,0,0,0,0,0,0,0,0,0,0,0,0,0,0,0,0,0,0,0,0,0,0,0,0,0,0,0,0,0,0,0,0,0,0,0,0,0,0,0,0,0,0,0,0,0,
0,0,0,0,0,0,0,0,0,0,0,0,0,0,0,0,0,0,0,0,0,0,0,0,0,0,0,0,0,0,0,0,0,0,0,0,0,0,0,0,0,0,0,0,0,0,0,0,0,0,0,0,0,0,0,0,0,0,0,0,0,0,0,0,0,0,0,0,0,0,0,0,0,0,0,0,0,0,0,0,
0,0,0,0,0,0,0,0,0,0,0,0,0,0,0,0,0,0,0,0,0,0,0,0,0,0,0,0,0,0,0,0,0,0,0,0,0,0,0,0,0,0,0,0,0,0,0,0,0,0,0,0,0,0,0,0,0,0,0,0,0,0,0,0,0,0,0,0,0,0,0,0,0,0,0,0,0,0,0,0,
0,0,0,0,0,0,0,0,0,0,0,0,0,0,0,0,0,0,0,0,0,0,0,0,0,0,0,0,0,0,0,0,0,0,0,0,0,0,0,0,0,0,0,0,0,0,0,0,0,0,0,0,0,0,0,0,0,0,0,0,0,0,0,0,0,0,0,0,0,0,0,0,0,0,0,0,0,0,0,0,
0,0,0,0,0,0,0,0,0,0,0,0,0,0,0,0,0,0,0,0,0,0,0,0,0,0,0,0,0,0,0,0,0,0,0,0,0,0,0,0,0,0,0,0,0,0,0,0,0,0,0,0,0,0,0,0,0,0,0,0,0,0,0,0,0,0,0,0,0,0,0,0,0,0,0,0,0,0,0,0,
0,0,0,0,0,0,0,0,0,0,0,0,0,0,0,0,0,0,0,0,0,0,0,0,0,0,0,0,0,0,0,0,0,0,0,0,0,0,0,0,0,0,0,0,0,0,0,0,0,0,0,0,0,0,0,0,0,0,0,0,0,0,0,0,0,0,0,0,0,0,0,0,0,0,0,0,0,0,0,0,
0,0,0,0,0,0,0,0,0,0,0,0,0,0,0,0,0,0,0,0,0,0,0,0,0,0,0,0,0,0,0,0,0,0,0,0,0,0,0,0,0,0,0,0,0,0,0,0,0,0,0,0,0,0,0,0,0,0,0,0,0,0,0,0,0,0,0,0,0,0,0,0,0,0,0,0,0,0,0,0,
0,0,0,0,0,0,0,0,0,0,0,0,0,0,0,0,0,0,0,0,0,0,0,0,0,0,0,0,0,0,0,0,0,0,0,0,0,0,0,0,0,0,0,0,0,0,0,0,0,0,0,0,0,0,0,0,0,0,0,0,0,0,0,0,0,0,0,0,0,0,0,0,0,0,0,0,0,0,0,0,
0,0,0,0,0,0,0,0,0,0,0,0,0,0,0,0,0,0,0,0,0,0,0,0,0,0,0,0,0,0,0,0,0,0,0,0,0,0,0,0,0,0,0,0,0,0,0,0,0,0,0,0,0,0,0,0,0,0,0,0,0,0,0,0,0,0,0,0,0,0,0,0,0,0,0,0,0,0,0,0,
0,0,0,0,0,0,0,0,0,0,0,0,0,0,0,0,0,0,0,0,0,0,0,0,0,0,0,0,0,0,0,0,0,0,0,0,0,0,0,0,0,0,0,0,0,0,0,0,0,0,0,0,0,0,0,0,0,0,0,0,0,0,0,0,0,0,0,0,0,0,0,0,0,0,0,0,0,0,0,0,
0,0,0,0,0,0,0,0,0,0,0,0,0,0,0,0,0,0,0,0,0,0,0,0,0,0,0,0,0,0,0,0,0,0,0,0,0,0,0,0,0,0,0,0,0,0,0,0,0,0,0,0,0,0,0,0,0,0,0,0,0,0,0,0,0,0,0,0,0,0,0,0,0,0,0,0,0,0,0,0,
0,0,0,0,0,0,0,0,0,0,0,0,0,0,0,0,0,0,0,0,0,0,0,0,0,0,0,0,0,0,0,0,0,0,0,0,0,0,0,0,0,0,0,0,0,0,0,0,0,0,0,0,0,0,0,0,0,0,0,0,0,0,0,0,0,0,0,0,0,0,0,0,0,0,0,0,0,0,0,0,
0,0,0,0,0,0,0,0,0,0,0,0,0,0,0,0,0,0,0,0,0,0,0,0,0,0,0,0,0,0,0,0,0,0,0,0,0,0,0,0,0,0,0,0,0,0,0,0,0,0,0,0,0,0,0,0,0,0,0,0,0,0,0,0,0,0,0,0,0,0,0,0,0,0,0,0,0,0,0,0,
0,0,0,0,0,0,0,0,0,0,0,0,0,0,0,0,0,0,0,0,0,0,0,0,0,0,0,0,0,0,0,0,0,0,0,0,0,0,0,0,0,0,0,0,0,0,0,0,0,0,0,0,0,0,0,0,0,0,0,0,0,0,0,0,0,0,0,0,0,0,0,0,0,0,0,0,0,0,0,0,
0,0,0,0,0,0,0,0,0,0,0,0,0,0,0,0,0,0,0,0,0,0,0,0,0,0,0,0,0,0,0,0,0,0,0,0,0,0,0,0,0,0,0,0,0,0,0,0,0,0,0,0,0,0,0,0,0,0,0,0,0,0,0,0,0,0,0,0,0,0,0,0,0,0,0,0,0,0,0,0,
0,0,0,0,0,0,0,0,0,0,0,0,0,0,0,0,0,0,0,0,0,0,0,0,0,0,0,0,0,0,0,0,0,0,0,0,0,0,0,0,0,0,0,0,0,0,0,0,0,0,0,0,0,0,0,0,0,0,0,0,0,0,0,0,0,0,0,0,0,0,0,0,0,0,0,0,0,0,0,0,
0,0,0,0,0,0,0,0,0,0,0,0,0,0,0,0,0,0,0,0,0,0,0,0,0,0,0,0,0,0,0,0,0,0,0,0,0,0,0,0,0,0,0,0,0,0,0,0,0,0,0,0,0,0,0,0,0,0,0,0,0,0,0,0,0,0,0,0,0,0,0,0,0,0,0,0,0,0,0,0,
0,0,0,0,0,0,0,0,0,0,0,0,0,0,0,0,0,0,0,0,0,0,0,0,0,0,0,0,0,0,0,0,0,0,0,0,0,0,0,0,0,0,0,0,0,0,0,0,0,0,0,0,0,0,0,0,0,0,0,0,0,0,0,0,0,0,0,0,0,0,0,0,0,0,0,0,0,0,0,0,
0,0,0,0,0,0,0,0,0,0,0,0,0,0,0,0,0,0,0,0,0,0,0,0,0,0,0,0,0,0,0,0,0,0,0,0,0,0,0,0,0,0,0,0,0,0,0,0,0,0,0,0,0,0,0,0,0,0,0,0,0,0,0,0,0,0,0,0,0,0,0,0,0,0,0,0,0,0,0,0,
0,0,0,0,0,0,0,0,0,0,0,0,0,0,0,0,0,0,0,0,0,0,0,0,0,0,0,0,0,0,0,0,0,0,0,0,0,0,0,0,0,0,0,0,0,0,0,0,0,0,0,0,0,0,0,0,0,0,0,0,0,0,0,0,0,0,0,0,0,0,0,0,0,0,0,0,0,0,0,0,
0,0,0,0,0,0,0,0,0,0,0,0,0,0,0,0,0,0,0,0,0,0,0,0,0,0,0,0,0,0,0,0,0,0,0,0,0,0,0,0,0,0,0,0,0,0,0,0,0,0,0,0,0,0,0,0,0,0,0,0,0,0,0,0,0,0,0,0,0,0,0,0,0,0,0,0,0,0,0,0,
0,0,0,0,0,0,0,0,0,0,0,0,0,0,0,0,0,0,0,0,0,0,0,0,0,0,0,0,0,0,0,0,0,0,0,0,0,0,0,0,0,0,0,0,0,0,0,0,0,0,0,0,0,0,0,0,0,0,0,0,0,0,0,0,0,0,0,0,0,0,0,0,0,0,0,0,0,0,0,0,
0,0,0,0,0,0,0,0,0,0,0,0,0,0,0,0,0,0,0,0,0,0,0,0,0,0,0,0,0,0,0,0,0,0,0,0,0,0,0,0,0,0,0,0,0,0,0,0,0,0,0,0,0,0,0,0,0,0,0,0,0,0,0,0,0,0,0,0,0,0,0,0,0,0,0,0,0,0,0,0,
0,0,0,0,0,0,0,0,0,0,0,0,0,0,0,0,0,0,0,0,0,0,0,0,0,0,0,0,0,0,0,0,0,0,0,0,0,0,0,0,0,0,0,0,0,0,0,0,0,0,0,0,0,0,0,0,0,0,0,0,0,0,0,0,0,0,0,0,0,0,0,0,0,0,0,0,0,0,0,0,
0,0,0,0,0,0,0,0,0,0,0,0,0,0,0,0,0,0,0,0,0,0,0,0,0,0,0,0,0,0,0,0,0,0,0,0,0,0,0,0,0,0,0,0,0,0,0,0,0,0,0,0,0,0,0,0,0,0,0,0,0,0,0,0,0,0,0,0,0,0,0,0,0,0,0,0,0,0,0,0,
0,0,0,0,0,0,0,0,0,0,0,0,0,0,0,0,0,0,0,0,0,0,0,0,0,0,0,0,0,0,0,0,0,0,0,0,0,0,0,0,0,0,0,0,0,0,0,0,0,0,0,0,0,0,0,0,0,0,0,0,0,0,0,0,0,0,0,0,0,0,0,0,0,0,0,0,0,0,0,0
</data>
 </layer>
 <layer name="leavesoverlay" width="80" height="70">
  <data encoding="csv">
10791,10790,10791,10790,10791,10790,10791,10790,10791,10790,10791,10790,9687,9757,0,0,0,0,9685,10791,10791,10790,10791,10790,10791,10790,10791,10790,10791,10791,10859,10860,10859,10860,10859,10860,10859,10860,10790,10791,9686,9687,9686,9687,9755,9756,10859,10860,10859,10860,9755,9756,10859,10860,10859,10860,9755,9756,10859,10860,10859,10860,9755,9756,10859,10860,10859,10860,10791,10791,10790,10860,10859,10860,10791,10791,10790,10791,10790,10791,
10860,10859,10860,10859,10860,10859,10860,10859,10860,10790,10790,10790,10791,9826,0,0,0,0,9754,9687,10791,10859,10860,10859,10860,10859,10860,10859,10860,10860,10790,10791,10790,10791,10790,10791,10790,10791,10859,10860,9755,9756,9755,9756,9686,9687,10790,10791,10790,10791,9686,9687,10790,10791,10790,10791,9686,9687,10790,10791,10790,10791,9686,9687,10790,10791,10790,10791,10790,10791,10859,10791,10790,10791,10790,10791,10859,10860,10859,10860,
10791,9686,9687,10790,10791,10790,10791,10790,10791,10790,10791,10790,9826,0,0,0,0,0,9823,10790,10791,10790,10791,10790,10791,10790,10791,10790,10791,9687,10859,10860,10859,10860,10859,10860,10859,10860,10790,10791,9686,9687,9686,9687,9755,9756,10859,10860,10859,10860,9755,9756,10859,10860,10859,10860,9755,9756,10859,10860,10859,10860,9755,9756,10859,10860,10859,10860,10859,10860,10790,10860,10859,10860,10859,10860,10790,10791,10790,10791,
10791,10790,10791,10859,10860,10859,10860,10790,10790,10859,10860,9826,0,0,0,0,0,0,0,9685,10791,10859,10860,10859,10860,10859,10860,10859,10860,10791,10790,10791,9686,9687,10790,10791,9686,9687,10859,10860,9755,9756,9755,9756,9616,9686,10790,10791,10790,10791,9616,9686,10790,10791,10790,10791,9616,9686,10790,10791,10790,10791,9616,9686,10790,10791,10790,10791,10790,10791,10859,10791,10790,10791,10790,10791,10859,10791,10790,10791,
10860,10859,10860,10790,10791,10790,10791,10790,10859,10860,9826,0,0,0,0,0,0,0,0,9823,10790,10791,10791,10790,10791,10790,10791,10791,10791,10790,10791,10790,10791,10790,10791,10790,10791,10790,10791,10790,10791,10790,9686,9687,9686,9687,10790,10791,10790,10791,9686,9687,10790,10791,10790,10791,9686,9687,10790,10791,10790,10791,9686,9687,10790,10791,10790,10791,10790,10791,10790,10791,10790,10791,10790,10791,10790,10860,10859,10860,
10791,10790,10791,10859,10860,10859,10860,10790,10791,9826,0,0,0,0,0,0,0,0,0,0,9823,10791,10791,10859,10860,10859,10860,10790,10791,10859,10860,10859,10860,10859,10860,10859,10860,10859,10860,10790,10790,10790,9755,9756,9755,9756,10859,10860,10859,10860,9755,9756,10859,10860,10859,10860,9755,9756,10859,10860,10859,10860,9755,9756,10859,10860,10859,10860,10859,10860,10859,10860,10859,10860,10859,10860,10859,10791,10790,10791,
10860,10859,10860,10790,10791,9686,9687,10791,9757,0,0,0,0,0,0,0,0,0,0,0,0,9685,10791,10790,10791,10790,10791,10859,10860,10790,10791,10790,10791,10790,10791,10790,10791,10790,10791,10790,10791,9686,9687,9686,9686,9687,10790,10791,10790,10791,9686,9687,10790,10791,10790,10791,9686,9687,10790,10791,10790,10791,9686,9687,10790,10791,10790,10791,10790,10791,10790,10791,10790,10791,10790,10791,10790,10860,10859,10860,
10791,10790,10791,10859,10860,9755,9756,10791,9826,0,0,0,0,0,0,0,0,0,0,0,0,9754,10791,10859,10860,10859,10860,10790,10791,10859,10860,10859,10860,10859,10860,10859,10860,10791,10790,10859,10860,9755,9756,9686,9755,9756,10859,10860,10859,10860,9755,9756,10859,10860,10859,10860,9755,9756,10859,10860,10859,10860,9755,9756,10859,10860,10859,10860,10859,10860,10859,10860,10859,10860,10859,10860,10859,10791,10790,10791,
10860,10859,10860,10790,10791,9686,9687,9688,0,0,0,0,0,0,0,0,0,0,0,0,0,9754,10791,10790,10791,10790,10791,10859,10860,10790,10791,10790,10791,10790,10791,10790,10791,10790,10859,10860,9686,9687,9686,9686,9686,9687,9686,9687,9686,9687,9686,9687,9686,9687,9686,9687,9686,9687,9686,9687,9686,9687,9687,9687,10791,10791,10790,10791,10790,10791,9686,10791,10790,10791,10790,10791,9686,9687,9686,9687,
10791,9686,9687,10859,10860,9755,9756,9757,0,0,0,0,0,0,0,0,0,0,0,0,0,9823,10860,10859,10860,10859,10860,10791,10791,10790,10791,10790,10860,10859,10860,9686,9687,9755,9756,9686,9755,9756,9755,9756,9755,9756,9755,9756,9687,9687,9824,9825,9824,9825,9824,9687,9755,9756,9755,9756,9686,9687,9686,9687,9686,9687,9686,9687,10790,10791,9686,9687,9686,9687,10790,10791,10790,9756,9755,9756,
10790,10791,10790,10791,10790,10791,10790,9688,0,0,0,0,0,0,0,0,0,0,0,0,0,0,9685,10790,10791,10790,10791,10790,10791,10859,10860,10859,9687,9686,9687,9755,9756,9686,9687,9686,9687,9686,9687,9687,9686,9687,9687,9687,9825,9826,0,0,0,0,0,9823,9824,9824,9687,9687,9755,9756,9755,9756,9755,9756,9755,9756,10859,10860,9755,9756,9755,9756,10859,10860,9686,9687,9686,9687,
10859,10860,10859,10860,10790,10790,10790,9757,0,0,0,0,0,0,0,0,0,0,0,0,0,0,9754,10859,10860,10859,10860,10859,10860,10790,10791,10790,9687,9686,9687,9686,9687,9686,9687,9686,9824,9825,9824,9825,9824,9825,9824,9825,0,0,0,0,0,0,0,0,0,0,9823,9824,9825,9824,9825,9824,9825,9825,9686,9687,9686,9687,9686,9687,9686,9687,9686,9687,9755,9756,9755,9756,
10790,10791,10790,10791,10790,10791,10790,9826,0,0,0,0,0,0,0,0,0,0,0,0,0,0,9685,9687,9755,9756,10790,9687,9686,9686,9687,9686,9687,9686,9687,9755,9756,9755,9756,9826,0,0,0,0,0,0,0,0,0,0,0,0,0,0,0,0,0,0,0,0,0,0,0,0,0,0,9823,9686,9755,9756,9755,9756,9755,9756,9755,9756,9686,9687,9686,9687,
10859,10860,10791,10790,10859,10860,9826,0,0,0,0,0,0,0,0,0,0,0,0,0,0,0,0,10929,10790,9686,9687,9686,9687,9755,9756,9686,9687,9755,9756,9686,9686,9826,0,0,0,0,0,0,0,0,0,0,0,0,0,0,0,0,0,0,0,0,0,0,0,0,0,0,0,0,0,9823,9686,9686,9686,9686,9686,9686,9686,9687,9755,9756,9755,9756,
10790,10791,10790,10859,10860,9826,0,0,0,0,0,0,0,0,0,0,0,0,0,0,0,0,0,0,9685,9687,9755,9756,10790,9687,9686,9755,9756,9686,9687,9686,9757,0,0,0,0,0,0,0,0,0,0,0,0,0,0,0,0,0,0,0,0,0,0,0,0,0,0,0,0,0,0,0,0,9823,9824,9824,9825,9686,9755,9756,9686,9687,9686,9687,
9686,9687,9755,9756,9686,9619,0,0,0,0,0,0,0,0,0,0,0,0,0,0,0,0,0,0,0,10929,10790,9686,9687,9686,9687,9686,9687,9755,9756,9686,9826,0,0,0,0,0,0,0,0,0,0,0,0,0,0,0,0,0,0,0,0,0,0,0,0,0,0,0,0,0,0,0,0,0,0,0,0,9823,9824,9825,9755,9756,9755,9756,
9755,9756,9686,9687,9686,9687,9619,0,0,0,0,0,0,0,0,0,0,0,0,0,0,0,0,0,0,0,10929,9755,9756,9755,9756,9755,9756,9826,9825,9826,0,0,0,0,0,0,0,0,0,0,0,0,0,0,0,0,0,0,0,0,0,0,0,0,0,0,0,0,0,0,0,0,0,0,0,0,0,0,0,0,9823,9686,9824,9825,
9686,9687,9755,9756,9755,9756,9688,0,0,0,0,0,0,0,0,0,0,0,0,0,0,0,0,0,0,0,0,10929,10929,10929,10929,9824,9825,9826,0,0,0,0,0,0,0,0,0,0,0,0,0,0,0,0,0,0,0,0,0,0,0,0,0,0,0,0,0,0,0,0,0,0,0,0,0,0,0,0,0,0,0,0,0,0,
9755,9756,9686,9687,9686,9687,9757,0,0,0,0,0,0,0,0,0,0,0,0,0,0,0,0,0,0,0,0,0,0,0,0,0,0,0,0,0,0,0,0,0,0,0,0,0,0,0,0,0,0,0,0,0,0,0,0,0,0,0,0,0,0,0,0,0,0,0,0,0,0,0,0,0,0,0,0,0,0,0,0,0,
9686,9687,9755,9756,9755,9756,9688,0,0,0,0,0,0,0,0,0,0,0,0,0,0,0,0,0,0,0,0,0,0,0,0,0,0,0,0,0,0,0,0,0,0,0,0,0,0,0,0,0,0,0,0,0,0,0,0,0,0,0,0,0,0,0,0,0,0,0,0,0,0,0,0,0,0,0,0,0,0,0,0,0,
9755,9756,9686,9687,9686,9687,9757,0,0,0,0,0,0,0,0,0,0,0,0,0,0,0,0,0,0,0,0,0,0,0,0,0,0,0,0,0,0,0,0,0,0,0,0,0,0,0,0,0,0,0,0,0,0,0,0,0,0,0,0,0,0,0,0,0,0,0,0,0,0,0,0,0,0,0,0,0,9616,9686,9617,9618,
9686,9687,9755,9756,9755,9756,9688,0,0,0,0,0,0,0,0,0,0,0,0,0,0,0,0,0,0,0,0,0,0,0,0,0,0,0,0,0,0,0,0,0,0,0,0,0,0,0,0,0,0,0,0,0,0,0,0,0,0,0,0,0,0,0,0,0,0,0,0,0,0,0,0,0,0,0,0,9616,9686,9686,9686,9687,
10859,10860,9686,9687,9755,9755,9756,9757,0,0,0,0,0,0,0,0,0,0,0,0,0,0,0,0,0,0,0,0,0,0,0,0,0,0,0,0,0,0,0,0,0,0,0,0,0,0,0,0,0,0,0,0,0,0,0,0,0,0,0,0,0,0,0,0,0,0,0,0,0,0,0,0,0,9616,9617,9686,9755,9686,9755,9756,
9686,9687,9755,9756,9686,9755,9756,9686,9619,0,0,0,0,0,0,0,0,0,0,0,0,0,0,0,0,9616,9617,9618,9617,9618,9619,0,0,0,0,0,0,0,0,0,0,0,0,0,0,0,0,0,0,0,0,0,0,0,0,0,0,0,0,0,0,0,0,0,0,0,0,0,0,0,0,9616,9617,9686,9687,9686,9687,9686,9686,9687,
9686,9687,9686,9687,9755,9686,9687,9686,9687,9619,0,0,0,0,0,0,0,0,0,0,0,0,0,0,9616,9687,9686,9687,9686,9687,9687,9619,9617,9618,9617,9618,9617,9619,0,0,0,0,0,0,0,0,0,0,0,0,0,0,0,0,0,0,0,0,0,0,0,0,0,0,0,0,0,0,0,9616,9617,9686,9687,9755,9756,9755,9756,9686,9755,9756,
9755,9756,9755,9756,9686,9755,9756,9686,9687,9686,9617,9618,9617,9618,9617,9618,9619,0,0,0,9616,9618,9617,9618,9686,9687,9686,9687,9686,10791,9686,9687,9686,9687,9755,9756,9686,9687,9617,9618,9619,0,0,0,0,0,0,0,0,0,0,0,0,0,0,0,0,0,0,0,0,9616,9617,9618,9617,9618,9617,9618,9617,9618,9755,9755,9756,9686,9687,9686,9687,9618,9755,9756,
9686,9687,9686,9687,9755,9755,9756,9755,9756,9755,9756,9755,9756,9755,9756,9755,9756,9617,9618,9618,9687,9755,9756,9755,9756,9755,9755,9756,9755,9687,9686,9687,9686,9687,9686,9687,9755,9756,9755,9756,9688,9617,9618,9617,9618,9617,9618,9617,9618,0,0,0,0,0,0,0,0,0,0,0,9616,9687,9686,9756,9755,9756,9755,9756,9755,9756,9686,9755,9756,9755,9756,9755,9756,9687,9686,9687,
9755,9756,9755,9756,9755,9756,9686,9687,9686,9687,9755,9756,9755,9756,9755,9756,9686,9687,9686,9687,9755,9756,9755,9756,9755,9756,9686,9687,9686,9687,9755,9756,9755,9756,9755,9756,9686,9687,9686,9687,9686,9687,9686,9687,9686,9687,9686,9687,9686,9619,9617,9618,9617,9618,9686,9617,9618,9617,9618,9617,9687,9687,9686,9687,9686,9687,9686,9687,9686,9687,9755,9755,9686,9687,9686,9687,9755,9756,9755,9756,
9686,9687,9686,9687,9686,9687,9755,9756,9755,9756,9686,9687,9686,9687,9686,9687,9755,9756,9755,9756,9686,9687,9686,9687,9686,9687,9755,9756,9755,9756,9686,9687,9686,9687,9686,9687,9755,9756,9755,9756,9755,9756,9755,9756,9755,9756,9755,9756,9755,9756,9755,9756,9755,9756,9755,9756,9755,9756,9755,9756,9755,9756,9755,9756,9755,9756,9755,9756,9755,9756,9686,9686,9755,9756,9755,9756,9686,9686,9687,9686,
9755,9756,9755,9756,9755,9756,9686,9687,9686,9687,9755,9756,9755,9756,9755,9756,9686,9687,9686,9687,9755,9756,9755,9756,9755,9756,9686,9687,9686,9687,9755,9756,9755,9756,9755,9756,9686,9687,9686,9687,9686,9687,9686,9687,9686,9687,9686,9687,9686,9687,9686,9687,9686,9686,9687,9686,9687,9686,9687,9686,9687,9686,9687,9686,9687,9686,9687,9686,9687,9686,9686,9687,9686,9687,9686,9687,9686,9687,9686,9687,
9686,9687,9686,9687,9686,9687,9755,9756,9755,9756,9686,9687,9686,9687,9686,9687,9755,9756,9755,9756,9686,9687,9686,9687,9686,9687,9755,9756,9755,9756,9686,9687,9686,9687,9686,9687,9755,9756,9755,9756,9755,9756,9755,9756,9755,9756,9755,9756,9755,9756,9755,9756,9686,9755,9756,9755,9756,9755,9756,9755,9756,9755,9756,9755,9756,9755,9756,9755,9756,9755,9755,9756,9755,9756,9755,9756,9755,9756,9755,9756,
9755,9756,9755,9756,9755,9756,9686,9687,9686,9687,9755,9756,9755,9756,9755,9756,9686,9687,9686,9687,9755,9756,9755,9756,9755,9756,9686,9687,9686,9687,9755,9756,9755,9756,9755,9756,9686,9687,9686,9687,9686,9687,9686,9687,9686,9687,9686,9687,9686,9687,9686,9687,9686,9686,9687,9686,9687,9686,9687,9686,9687,9686,9687,9686,9687,9686,9687,9686,9687,9686,9686,9687,9686,9687,9686,9687,9686,9687,9686,9687,
9686,9687,9686,9687,9686,9687,9755,9756,9755,9756,9686,9687,9686,9687,9686,9687,9755,9756,9755,9756,9686,9687,9686,9687,9686,9687,9755,9756,9755,9756,9686,9687,9686,9687,9686,9687,9755,9756,9755,9756,9755,9756,9755,9756,9755,9756,9755,9756,9755,9756,9755,9756,9686,9755,9756,9755,9756,9755,9756,9755,9756,9755,9756,9755,9756,9755,9756,9755,9756,9755,9755,9756,9755,9756,9755,9756,9755,9756,9755,9756,
9755,9756,9755,9756,9755,9756,9686,9687,9686,9687,9755,9756,9755,9756,9755,9756,9686,9687,9686,9687,9755,9756,9755,9756,9755,9756,9686,9687,9686,9687,9755,9756,9755,9756,9755,9756,9686,9687,9686,9687,9686,9687,9686,9687,9686,9687,9686,9687,9686,9687,9686,9687,9686,9686,9687,9686,9687,9686,9687,9686,9687,9686,9687,9686,9687,9686,9687,9686,9687,9686,9686,9687,9686,9687,9686,9687,9686,9687,9686,9687,
9686,9687,9686,9687,9686,9687,9755,9756,9755,9756,9686,9687,9686,9687,9686,9687,9755,9756,9755,9756,9686,9687,9686,9687,9686,9687,9755,9756,9755,9756,9686,9687,9686,9687,9686,9687,9755,9756,9755,9756,9755,9756,9755,9756,9755,9756,9755,9756,9755,9756,9755,9756,9686,9755,9756,9755,9756,9755,9756,9755,9756,9755,9756,9755,9756,9755,9756,9755,9756,9755,9755,9756,9755,9756,9755,9756,9755,9756,9755,9756,
9686,9755,9756,9755,9756,9755,9756,9686,9687,9686,9687,9755,9756,9755,9756,9755,9756,9686,9687,9686,9687,9755,9756,9755,9756,9755,9756,9686,9687,9686,9687,9755,9756,9755,9756,9755,9756,9686,9687,9686,9687,9686,9687,9686,9687,9686,9687,9686,9687,9686,9687,9686,9687,9686,9686,9687,9686,9687,9686,9687,9686,9687,9686,9687,9686,9687,9686,9687,9686,9687,9686,9686,9687,9686,9687,9686,9687,9686,9687,9686,
9686,9686,9687,9686,9687,9686,9687,9755,9756,9755,9756,9686,9687,9686,9687,9686,9687,9755,9756,9755,9756,9686,9687,9686,9687,9686,9687,9755,9756,9755,9756,9686,9687,9686,9687,9686,9687,9755,9756,9755,9756,9755,9756,9755,9756,9755,9756,9755,9756,9755,9756,9755,9756,9686,9755,9756,9755,9756,9755,9756,9755,9756,9755,9756,9755,9756,9755,9756,9755,9756,9755,9755,9756,9755,9756,9755,9756,9755,9756,9686,
9756,9755,9756,9755,9756,9686,9687,9686,9687,9755,9756,9755,9756,9755,9756,9686,9687,9686,9687,9755,9756,9755,9756,9755,9756,9686,9687,9686,9687,9755,9756,9755,9756,9755,9756,9686,9687,9686,9687,9686,9687,9686,9687,9686,9687,9686,9687,9686,9687,9686,9687,9686,9686,9687,9686,9687,9686,9687,9686,9687,9686,9687,9686,9687,9686,9687,9686,9687,9686,9686,9687,9686,9687,9686,9687,9686,9687,9686,9687,9686,
9687,9686,9687,9686,9687,9755,9756,9755,9756,9686,9687,9686,9687,9686,9687,9755,9756,9755,9756,9686,9687,9686,9687,9686,9687,9755,9756,9755,9756,9686,9687,9686,9687,9686,9687,9755,9756,9755,9756,9755,9756,9755,9756,9755,9756,9755,9756,9755,9756,9755,9756,9686,9755,9756,9755,9756,9755,9756,9755,9756,9755,9756,9755,9756,9755,9756,9755,9756,9755,9755,9756,9755,9756,9755,9756,9755,9756,9755,9756,9686,
9686,9686,9755,9756,9755,9756,9755,9756,9686,9687,9686,9687,9755,9756,9755,9756,9755,9756,9686,9687,9686,9687,9755,9756,9755,9756,9755,9756,9686,9687,9686,9687,9755,9756,9755,9756,9755,9756,9686,9687,9686,9687,9686,9687,9686,9687,9686,9687,9686,9687,9686,9687,9686,9687,9686,9686,9687,9686,9687,9686,9687,9686,9687,9686,9687,9686,9687,9686,9687,9686,9687,9686,9686,9687,9686,9687,9686,9687,9686,9686,
9686,9686,9686,9687,9686,9687,9686,9687,9755,9756,9755,9756,9686,9687,9686,9687,9686,9687,9755,9756,9755,9756,9686,9687,9686,9687,9686,9687,9755,9756,9755,9756,9686,9687,9686,9687,9686,9687,9755,9756,9755,9756,9755,9756,9755,9756,9755,9756,9755,9756,9755,9756,9755,9756,9686,9755,9756,9755,9756,9755,9756,9755,9756,9755,9756,9755,9756,9755,9756,9755,9756,9755,9755,9756,9755,9756,9755,9756,9686,9686,
9756,9755,9756,9755,9756,9686,9687,9686,9687,9755,9756,9755,9756,9755,9756,9686,9687,9686,9687,9755,9756,9755,9756,9755,9756,9686,9687,9686,9687,9755,9756,9755,9756,9755,9756,9686,9687,9686,9687,9686,9687,9686,9687,9686,9687,9686,9687,9686,9687,9686,9687,9686,9686,9687,9686,9687,9686,9687,9686,9687,9686,9687,9686,9687,9686,9687,9686,9687,9686,9686,9687,9686,9687,9686,9687,9686,9687,9686,9686,9686,
9687,9686,9687,9686,9687,9755,9756,9755,9756,9686,9687,9686,9687,9686,9687,9755,9756,9755,9756,9686,9687,9686,9687,9686,9687,9755,9756,9755,9756,9686,9687,9686,9687,9686,9687,9755,9756,9755,9756,9755,9756,9755,9756,9755,9756,9755,9756,9755,9756,9755,9756,9686,9755,9756,9755,9756,9755,9756,9755,9756,9755,9756,9755,9756,9755,9756,9755,9756,9755,9755,9756,9755,9756,9755,9756,9755,9756,9755,9756,9686,
9686,9686,9755,9756,9755,9756,9755,9756,9686,9687,9686,9687,9755,9756,9755,9756,9755,9756,9686,9687,9686,9687,9755,9756,9755,9756,9755,9756,9686,9687,9686,9687,9755,9756,9755,9756,9755,9756,9686,9687,9686,9687,9686,9687,9686,9687,9686,9687,9686,9687,9686,9687,9686,9687,9686,9686,9687,9686,9687,9686,9687,9686,9687,9686,9687,9686,9687,9686,9687,9686,9687,9686,9686,9687,9686,9687,9686,9687,9686,9686,
9686,9686,9686,9687,9686,9687,9686,9687,9755,9756,9755,9756,9686,9687,9686,9687,9686,9687,9755,9756,9755,9756,9686,9687,9686,9687,9686,9687,9755,9756,9755,9756,9686,9687,9686,9687,9686,9687,9755,9756,9755,9756,9755,9756,9755,9756,9755,9756,9755,9756,9755,9756,9755,9756,9686,9755,9756,9755,9756,9755,9756,9755,9756,9755,9756,9755,9756,9755,9756,9755,9756,9755,9755,9756,9755,9756,9755,9686,9686,9686,
9756,9755,9756,9686,9687,9686,9687,9755,9756,9755,9756,9755,9756,9686,9687,9686,9687,9755,9756,9755,9756,9755,9756,9686,9687,9686,9687,9755,9756,9755,9756,9755,9756,9686,9687,9686,9687,9686,9687,9686,9687,9686,9687,9686,9687,9686,9687,9686,9687,9686,9686,9687,9686,9687,9686,9687,9686,9687,9686,9687,9686,9687,9686,9687,9686,9687,9686,9686,9687,9686,9687,9686,9687,9686,9687,9686,9687,9686,9686,9686,
9687,9686,9687,9755,9756,9755,9756,9686,9687,9686,9687,9686,9687,9755,9756,9755,9756,9686,9687,9686,9687,9686,9687,9755,9756,9755,9756,9686,9687,9686,9687,9686,9687,9755,9756,9755,9756,9755,9756,9755,9756,9755,9756,9755,9756,9755,9756,9755,9756,9686,9755,9756,9755,9756,9755,9756,9755,9756,9755,9756,9755,9756,9755,9756,9755,9756,9755,9755,9756,9755,9756,9755,9756,9755,9756,9755,9756,9686,9686,9686,
9755,9756,9755,9756,9755,9756,9686,9687,9686,9687,9755,9756,9755,9756,9755,9756,9686,9687,9686,9687,9755,9756,9755,9756,9755,9756,9686,9687,9686,9687,9755,9756,9755,9756,9755,9756,9686,9687,9686,9687,9686,9687,9686,9687,9686,9687,9686,9687,9686,9687,9686,9687,9686,9686,9687,9686,9687,9686,9687,9686,9687,9686,9687,9686,9687,9686,9687,9686,9687,9686,9686,9687,9686,9687,9686,9687,9686,9687,9686,9687,
9686,9687,9686,9687,9686,9687,9755,9756,9755,9756,9686,9687,9686,9687,9686,9687,9755,9756,9755,9756,9686,9687,9686,9687,9686,9687,9755,9756,9755,9756,9686,9687,9686,9687,9686,9687,9755,9756,9755,9756,9755,9756,9755,9756,9755,9756,9755,9756,9755,9756,9755,9756,9686,9755,9756,9755,9756,9755,9756,9755,9756,9755,9756,9755,9756,9755,9756,9755,9756,9755,9755,9756,9755,9756,9755,9756,9755,9756,9755,9756,
9755,9756,9755,9756,9755,9756,9686,9687,9686,9687,9755,9756,9755,9756,9755,9756,9686,9687,9686,9687,9755,9756,9755,9756,9755,9756,9686,9687,9686,9687,9755,9756,9755,9756,9755,9756,9686,9687,9686,9687,9686,9687,9686,9687,9686,9687,9686,9687,9686,9687,9686,9687,9686,9686,9687,9686,9687,9686,9687,9686,9687,9686,9687,9686,9687,9686,9687,9686,9687,9686,9686,9687,9686,9687,9686,9687,9686,9687,9686,9687,
9686,9687,9686,9687,9686,9687,9755,9756,9755,9756,9686,9687,9686,9687,9686,9687,9755,9756,9755,9756,9686,9687,9686,9687,9686,9687,9755,9756,9755,9756,9686,9687,9686,9687,9686,9687,9755,9756,9755,9756,9755,9756,9755,9756,9755,9756,9755,9756,9755,9756,9755,9756,9686,9755,9756,9755,9756,9755,9756,9755,9756,9755,9756,9755,9756,9755,9756,9755,9756,9755,9755,9756,9755,9756,9755,9756,9755,9756,9755,9756,
9755,9756,9755,9756,9755,9756,9686,9687,9686,9687,9755,9756,9755,9756,9755,9756,9686,9687,9686,9687,9755,9756,9755,9756,9755,9756,9686,9687,9686,9687,9755,9756,9755,9756,9755,9756,9686,9687,9686,9687,9686,9687,9686,9687,9686,9687,9686,9687,9686,9687,9686,9687,9686,9686,9687,9686,9687,9686,9687,9686,9687,9686,9687,9686,9687,9686,9687,9686,9687,9686,9686,9687,9686,9687,9686,9687,9686,9687,9686,9687,
9686,9687,9686,9687,9686,9687,9755,9756,9755,9756,9686,9687,9686,9687,9686,9687,9755,9756,9755,9756,9686,9687,9686,9687,9686,9687,9755,9756,9755,9756,9686,9687,9686,9687,9686,9687,9755,9756,9755,9756,9755,9756,9755,9756,9755,9756,9755,9756,9755,9756,9755,9756,9686,9755,9756,9755,9756,9755,9756,9755,9756,9755,9756,9755,9756,9755,9756,9755,9756,9755,9755,9756,9755,9756,9755,9756,9755,9756,9755,9756,
9756,9755,9756,9755,9756,9686,9687,9686,9687,9755,9756,9755,9756,9755,9756,9686,9687,9686,9687,9755,9756,9755,9756,9755,9756,9686,9687,9686,9687,9755,9756,9755,9756,9755,9756,9686,9687,9686,9687,9686,9687,9686,9687,9686,9687,9686,9687,9686,9687,9686,9687,9686,9686,9687,9686,9687,9686,9687,9686,9687,9686,9687,9686,9687,9686,9687,9686,9687,9686,9686,9687,9686,9687,9686,9687,9686,9687,9686,9687,9686,
9687,9686,9687,9686,9687,9755,9756,9755,9756,9686,9687,9686,9687,9686,9687,9755,9756,9755,9756,9686,9687,9686,9687,9686,9687,9755,9756,9755,9756,9686,9687,9686,9687,9686,9687,9755,9756,9755,9756,9755,9756,9755,9756,9755,9756,9755,9756,9755,9756,9755,9756,9686,9755,9756,9755,9756,9755,9756,9755,9756,9755,9756,9755,9756,9755,9756,9755,9756,9755,9755,9756,9755,9756,9755,9756,9755,9756,9755,9756,9686,
9686,9686,9686,9755,9756,9755,9756,9755,9756,9686,9687,9686,9687,9755,9756,9755,9756,9755,9756,9686,9687,9686,9687,9755,9756,9755,9756,9755,9756,9686,9687,9686,9687,9755,9756,9755,9756,9755,9756,9686,9687,9686,9687,9686,9687,9686,9687,9686,9687,9686,9687,9686,9687,9686,9687,9686,9686,9687,9686,9687,9686,9687,9686,9687,9686,9687,9686,9687,9686,9687,9686,9687,9686,9686,9687,9686,9687,9686,9687,9686,
9686,9686,9686,9686,9687,9686,9687,9686,9687,9755,9756,9755,9756,9686,9687,9686,9687,9686,9687,9755,9756,9755,9756,9686,9687,9686,9687,9686,9687,9755,9756,9755,9756,9686,9687,9686,9687,9686,9687,9755,9756,9755,9756,9755,9756,9755,9756,9755,9756,9755,9756,9755,9756,9755,9756,9686,9755,9756,9755,9756,9755,9756,9755,9756,9755,9756,9755,9756,9755,9756,9755,9756,9755,9755,9756,9755,9756,9755,9756,9755,
9756,9755,9756,9755,9756,9686,9687,9686,9687,9755,9756,9755,9756,9755,9756,9686,9687,9686,9687,9755,9756,9755,9756,9755,9756,9686,9687,9686,9687,9755,9756,9755,9756,9755,9756,9686,9687,9686,9687,9686,9687,9686,9687,9686,9687,9686,9687,9686,9687,9686,9687,9686,9686,9687,9686,9687,9686,9687,9686,9687,9686,9687,9686,9687,9686,9687,9686,9687,9686,9686,9687,9686,9687,9686,9687,9686,9687,9686,9687,9686,
9687,9686,9687,9686,9687,9755,9756,9755,9756,9686,9687,9686,9687,9686,9687,9755,9756,9755,9756,9686,9687,9686,9687,9686,9687,9755,9756,9755,9756,9686,9687,9686,9687,9686,9687,9755,9756,9755,9756,9755,9756,9755,9756,9755,9756,9755,9756,9755,9756,9755,9756,9686,9755,9756,9755,9756,9755,9756,9755,9756,9755,9756,9755,9756,9755,9756,9755,9756,9755,9755,9756,9755,9756,9755,9756,9755,9756,9755,9756,9686,
9755,9756,9755,9756,9755,9756,9686,9687,9686,9687,9755,9756,9755,9756,9755,9756,9686,9687,9686,9687,9755,9756,9755,9756,9755,9756,9686,9687,9686,9687,9755,9756,9755,9756,9755,9756,9686,9687,9686,9687,9686,9687,9686,9687,9686,9687,9686,9687,9686,9687,9686,9687,9686,9686,9687,9686,9687,9686,9687,9686,9687,9686,9687,9686,9687,9686,9687,9686,9687,9686,9686,9687,9686,9687,9686,9687,9686,9687,9686,9687,
9686,9687,9686,9824,9824,9825,9824,9825,9755,9756,9755,9756,9755,9756,9686,9687,9686,9687,9755,9756,9755,9756,9755,9756,9686,9687,9686,9687,9755,9756,9755,9756,9755,9756,9686,9687,9686,9687,9755,9756,9755,9756,9755,9756,9686,9687,9686,9687,9686,9687,9686,9687,9686,9687,9686,9687,9686,9687,9686,9687,9686,9686,9687,9686,9687,9686,9687,9686,9687,9686,9687,9686,9687,9686,9687,9686,9687,9686,9686,9687,
9686,9686,9826,0,0,0,0,0,9823,9687,9686,9687,9686,9687,9755,9756,9755,9756,9686,9687,9686,9687,9686,9687,9755,9756,9755,9756,9686,9687,9686,9687,9686,9687,9755,9756,9755,9756,9686,9687,9686,9687,9686,9687,9755,9756,9755,9756,9755,9756,9755,9756,9755,9756,9755,9756,9755,9756,9755,9756,9686,9755,9756,9755,9756,9755,9756,9755,9756,9755,9756,9755,9756,9755,9756,9755,9756,9755,9755,9756,
9686,9688,0,0,0,0,0,0,0,9685,9755,9756,9755,9756,9755,9756,9686,9687,9686,9687,9755,9756,9755,9756,9755,9756,9686,9687,9686,9687,9755,9756,9755,9756,9755,9756,9686,9687,9686,9687,9755,9756,9755,9756,9755,9756,9686,9687,9686,9687,9686,9687,9686,9687,9686,9687,9686,9687,9686,9687,9686,9687,9686,9686,9687,9686,9687,9686,9687,9686,9687,9686,9687,9686,9687,9686,9687,9686,9687,9686,
9686,9757,0,0,0,0,0,0,0,9754,9686,9687,9686,9687,9686,9687,9755,9756,9755,9756,9686,9687,9686,9687,9686,9687,9755,9756,9755,9756,9686,9687,9686,9687,9686,9687,9755,9756,9755,9756,9686,9687,9686,9687,9686,9687,9755,9756,9755,9756,9755,9756,9755,9756,9755,9756,9755,9756,9755,9756,9755,9756,9686,9755,9756,9755,9756,9755,9756,9755,9756,9755,9756,9755,9756,9755,9756,9755,9756,9755,
9686,9757,0,0,0,0,0,0,0,9755,9756,9755,9756,9755,9756,9686,9687,9686,9687,9755,9756,9755,9756,9755,9756,9686,9687,9686,9687,9755,9756,9755,9756,9755,9756,9686,9687,9686,9687,9755,9756,9755,9756,9755,9756,9686,9687,9686,9687,9686,9687,9686,9687,9686,9687,9686,9687,9686,9687,9686,9687,9686,9686,9687,9686,9687,9686,9687,9686,9687,9686,9687,9686,9687,9686,9687,9686,9687,9686,9686,
9686,9686,9619,0,0,0,0,0,9616,9686,9687,9686,9687,9686,9687,9755,9756,9755,9756,9686,9687,9686,9687,9686,9687,9755,9756,9755,9756,9686,9687,9686,9687,9686,9687,9755,9756,9755,9756,9686,9687,9686,9687,9686,9687,9755,9756,9755,9756,9755,9756,9755,9756,9755,9756,9755,9756,9755,9756,9755,9756,9686,9755,9756,9755,9756,9755,9756,9755,9756,9755,9756,9755,9756,9755,9756,9755,9756,9755,9755,
9686,9755,9756,9755,9617,9618,9617,9618,9687,9686,9687,9755,9756,9755,9756,9755,9756,9686,9687,9686,9687,9755,9756,9755,9756,9755,9756,9686,9687,9686,9687,9755,9756,9755,9756,9755,9756,9686,9687,9686,9687,9686,9687,9686,9687,9686,9687,9686,9687,9686,9687,9686,9687,9686,9686,9687,9686,9687,9686,9687,9686,9687,9686,9687,9686,9687,9686,9687,9686,9687,9686,9686,9687,9686,9687,9686,9687,9686,9687,9686,
9686,9686,9687,9686,9687,9686,9687,9755,9756,9755,9756,9686,9687,9686,9687,9686,9687,9755,9756,9755,9756,9686,9687,9686,9687,9686,9687,9755,9756,9755,9756,9686,9687,9686,9687,9686,9687,9755,9756,9755,9756,9755,9756,9755,9756,9755,9756,9755,9756,9755,9756,9755,9756,9686,9755,9756,9755,9756,9755,9756,9755,9756,9755,9756,9755,9756,9755,9756,9755,9756,9755,9755,9756,9755,9756,9755,9756,9755,9756,9755,
9755,9756,9755,9756,9755,9756,9686,9687,9686,9687,9755,9756,9755,9756,9755,9756,9686,9687,9686,9687,9755,9756,9755,9756,9755,9756,9686,9687,9686,9687,9755,9756,9755,9756,9755,9756,9686,9687,9686,9687,9686,9687,9686,9687,9686,9687,9686,9687,9686,9687,9686,9687,9686,9686,9687,9686,9687,9686,9687,9686,9687,9686,9687,9686,9687,9686,9687,9686,9687,9686,9686,9687,9686,9687,9686,9687,9686,9687,9686,9687,
9686,9687,9686,9687,9686,9687,9755,9756,9755,9756,9686,9687,9686,9687,9686,9687,9755,9756,9755,9756,9686,9687,9686,9687,9686,9687,9755,9756,9755,9756,9686,9687,9686,9687,9686,9687,9755,9756,9755,9756,9755,9756,9755,9756,9755,9756,9755,9756,9755,9756,9755,9756,9686,9755,9756,9755,9756,9755,9756,9755,9756,9755,9756,9755,9756,9755,9756,9755,9756,9755,9755,9756,9755,9756,9755,9756,9755,9756,9755,9756
</data>
 </layer>
 <layer name="bridgeoverlay" width="80" height="70">
  <data encoding="csv">
0,0,0,0,0,0,0,0,0,0,0,0,0,0,0,0,0,0,0,0,0,0,0,0,0,0,0,0,0,0,0,0,0,0,0,0,0,0,0,0,0,0,0,0,0,0,0,0,0,0,0,0,0,0,0,0,0,0,0,0,0,0,0,0,0,0,0,0,0,0,0,0,0,0,0,0,0,0,0,0,
0,0,0,0,0,0,0,0,0,0,0,0,0,0,0,0,0,0,0,0,0,0,0,0,0,0,0,0,0,0,0,0,0,0,0,0,0,0,0,0,0,0,0,0,0,0,0,0,0,0,0,0,0,0,0,0,0,0,0,0,0,0,0,0,0,0,0,0,0,0,0,0,0,0,0,0,0,0,0,0,
0,0,0,0,0,0,0,0,0,0,0,0,0,0,0,0,0,0,0,0,0,0,0,0,0,0,0,0,0,0,0,0,0,0,0,0,0,0,0,0,0,0,0,0,0,0,0,0,0,0,0,0,0,0,0,0,0,0,0,0,0,0,0,0,0,0,0,0,0,0,0,0,0,0,0,0,0,0,0,0,
0,0,0,0,0,0,0,0,0,0,0,0,0,0,0,0,0,0,0,0,0,0,0,0,0,0,0,0,0,0,0,0,0,0,0,0,0,0,0,0,0,0,0,0,0,0,0,0,0,0,0,0,0,0,0,0,0,0,0,0,0,0,0,0,0,0,0,0,0,0,0,0,0,0,0,0,0,0,0,0,
0,0,0,0,0,0,0,0,0,0,0,0,0,0,0,0,0,0,0,0,0,0,0,0,0,0,0,0,0,0,0,0,0,0,0,0,0,0,0,0,0,0,0,0,0,0,0,0,0,0,0,0,0,0,0,0,0,0,0,0,0,0,0,0,0,0,0,0,0,0,0,0,0,0,0,0,0,0,0,0,
0,0,0,0,0,0,0,0,0,0,0,0,0,0,0,0,0,0,0,0,0,0,0,0,0,0,0,0,0,0,0,0,0,0,0,0,0,0,0,0,0,0,0,0,0,0,0,0,0,0,0,0,0,0,0,0,0,0,0,0,0,0,0,0,0,0,0,0,0,0,0,0,0,0,0,0,0,0,0,0,
0,0,0,0,0,0,0,0,0,0,0,0,0,0,0,0,0,0,0,0,0,0,0,0,0,0,0,0,0,0,0,0,0,0,0,0,0,0,0,0,0,0,0,0,0,0,0,0,0,0,0,0,0,0,0,0,0,0,0,0,0,0,0,0,0,0,0,0,0,0,0,0,0,0,0,0,0,0,0,0,
0,0,0,0,0,0,0,0,0,0,0,0,0,0,0,0,0,0,0,0,0,0,0,0,0,0,0,0,0,0,0,0,0,0,0,0,0,0,0,0,0,0,0,0,0,0,0,0,0,0,0,0,0,0,0,0,0,0,0,0,0,0,0,0,0,0,0,0,0,0,0,0,0,0,0,0,0,0,0,0,
0,0,0,0,0,0,0,0,0,0,0,0,0,0,0,0,0,0,0,0,0,0,0,0,0,0,0,0,0,0,0,0,0,0,0,0,0,0,0,0,0,0,0,0,0,0,0,0,0,0,0,0,0,0,0,0,0,0,0,0,0,0,0,0,0,0,0,0,0,0,0,0,0,0,0,0,0,0,0,0,
0,0,0,0,0,0,0,0,0,0,0,0,0,0,0,0,0,0,0,0,0,0,0,0,0,0,0,0,0,0,0,0,0,0,0,0,0,0,0,0,0,0,0,0,0,0,0,0,0,0,0,0,0,0,0,0,0,0,0,0,0,0,0,0,0,0,0,0,0,0,0,0,0,0,0,0,0,0,0,0,
0,0,0,0,0,0,0,0,0,0,0,0,0,0,0,0,0,0,0,0,0,0,0,0,0,0,0,0,0,0,0,0,0,0,0,0,0,0,0,0,0,0,0,0,0,0,0,0,0,0,0,0,0,0,0,0,0,0,0,0,0,0,0,0,0,0,0,0,0,0,0,0,0,0,0,0,0,0,0,0,
0,0,0,0,0,0,0,0,0,0,0,0,0,0,0,0,0,0,0,0,0,0,0,0,0,0,0,0,0,0,0,0,0,0,0,0,0,0,0,0,0,0,0,0,0,0,0,0,0,0,0,0,0,0,0,0,0,0,0,0,0,0,0,0,0,0,0,0,0,0,0,0,0,0,0,0,0,0,0,0,
0,0,0,0,0,0,0,0,0,0,0,0,0,0,0,0,0,0,0,0,0,0,0,0,0,0,0,0,0,0,0,0,0,0,0,0,0,0,0,0,0,0,0,0,0,0,0,0,0,0,0,0,0,0,0,0,0,0,0,0,0,0,0,0,0,0,0,0,0,0,0,0,0,0,0,0,0,0,0,0,
0,0,0,0,0,0,0,0,0,0,0,0,0,0,0,0,0,0,0,0,0,0,0,0,0,0,0,0,0,0,0,0,0,0,0,0,0,0,0,0,0,0,0,0,0,0,0,0,0,0,0,0,0,0,0,0,0,0,0,0,0,0,0,0,0,0,0,0,0,0,0,0,0,0,0,0,0,0,0,0,
0,0,0,0,0,0,0,0,0,0,0,0,0,0,0,0,0,0,0,0,0,0,0,0,0,0,0,0,0,0,0,0,0,0,0,0,0,0,0,0,0,0,0,0,0,0,0,0,0,0,0,0,0,0,0,0,0,0,0,0,0,0,0,0,0,0,0,0,0,0,0,0,0,0,0,0,0,0,0,0,
0,0,0,0,0,0,0,0,0,0,0,0,0,0,0,0,0,0,0,0,0,0,0,0,0,0,0,0,0,0,0,0,0,0,0,0,0,0,0,0,0,0,0,0,0,0,0,0,0,0,0,0,0,0,0,0,0,0,0,0,0,0,0,0,0,0,0,0,0,0,0,0,0,0,0,0,0,0,0,0,
0,0,0,0,0,0,0,0,0,0,0,0,0,0,0,0,0,0,0,0,0,0,0,0,0,0,0,0,0,0,0,0,0,0,0,0,0,0,0,0,0,0,0,0,0,0,0,0,0,0,0,0,0,0,0,0,0,0,0,0,0,0,0,0,0,0,0,0,0,0,0,0,0,0,0,0,0,0,0,0,
0,0,0,0,0,0,0,0,0,0,0,0,0,0,0,0,0,0,0,0,0,0,0,0,0,0,0,0,0,0,0,0,0,0,0,0,0,0,0,0,0,0,0,0,0,0,0,0,0,0,0,0,0,0,0,0,0,0,0,0,0,0,0,0,0,0,0,0,0,0,0,0,0,0,0,0,0,0,0,0,
0,0,0,0,0,0,0,0,0,0,0,0,0,0,0,0,0,0,0,0,0,0,0,0,0,0,0,0,0,0,0,0,0,0,0,0,0,0,0,0,0,0,0,0,0,0,0,0,0,0,0,0,0,0,0,0,0,0,0,0,0,0,0,0,0,0,0,0,0,0,0,0,0,0,0,0,0,0,0,0,
0,0,0,0,0,0,0,0,0,0,0,0,0,0,0,0,0,0,0,0,0,0,0,0,0,0,0,0,0,0,0,0,0,0,0,0,0,0,0,0,0,0,0,0,0,0,0,0,0,0,0,0,0,0,0,0,0,0,0,0,0,0,0,0,0,0,0,0,0,0,0,0,0,0,0,0,0,0,0,0,
0,0,0,0,0,0,0,0,0,0,0,0,0,0,0,0,0,0,0,0,0,0,0,0,0,0,0,0,0,0,0,0,0,0,0,0,0,0,0,0,0,0,0,0,0,0,0,0,0,0,0,0,0,0,0,0,0,0,0,0,0,0,0,0,0,0,0,0,0,0,0,0,0,0,0,0,0,0,0,0,
0,0,0,0,0,0,0,0,0,0,0,0,0,0,0,0,0,0,0,0,0,0,0,0,0,0,0,0,0,0,0,0,0,0,0,0,0,0,0,0,0,0,0,0,0,0,0,0,0,0,0,0,0,0,0,0,0,0,0,0,0,0,0,0,0,0,0,0,0,0,0,0,0,0,0,0,0,0,0,0,
0,0,0,0,0,0,0,0,0,0,0,0,0,0,0,0,0,0,0,0,0,0,0,0,0,0,0,0,0,0,0,0,0,0,0,0,0,0,0,0,0,0,0,0,0,0,0,0,0,0,0,0,0,0,0,0,0,0,0,0,0,0,0,0,0,0,0,0,0,0,0,0,0,0,0,0,0,0,0,0,
0,0,0,0,0,0,0,0,0,0,0,0,0,0,0,0,0,0,0,0,0,0,0,0,0,0,0,0,0,0,0,0,0,0,0,0,0,0,0,0,0,0,0,0,0,0,0,0,0,0,0,0,0,0,0,0,0,0,0,0,0,0,0,0,0,0,0,0,0,0,0,0,0,0,0,0,0,0,0,0,
0,0,0,0,0,0,0,0,0,0,0,0,0,0,0,0,0,0,0,0,0,0,0,0,0,0,0,0,0,0,0,0,0,0,0,0,0,0,0,0,0,0,0,0,0,0,0,0,0,0,0,0,0,0,0,0,0,0,0,0,0,0,0,0,0,0,0,0,0,0,0,0,0,0,0,0,0,0,0,0,
0,0,0,0,0,0,0,0,0,0,0,0,0,0,0,0,0,0,0,0,0,0,0,0,0,0,0,0,0,0,0,0,0,0,0,0,0,0,0,0,0,0,0,0,0,0,0,0,0,0,0,0,0,0,0,0,0,0,0,0,0,0,0,0,0,0,0,0,0,0,0,0,0,0,0,0,0,0,0,0,
0,0,0,0,0,0,0,0,0,0,0,0,0,0,0,0,0,0,0,0,0,0,0,0,0,0,0,0,0,0,0,0,0,0,0,0,0,0,0,0,0,0,0,0,0,0,0,0,0,0,0,0,0,0,0,0,0,0,0,0,0,0,0,0,0,0,0,0,0,0,0,0,0,0,0,0,0,0,0,0,
0,0,0,0,0,0,0,0,0,0,0,0,0,0,0,0,0,0,0,0,0,0,0,0,0,0,0,0,0,0,0,0,0,0,0,0,0,0,0,0,0,0,0,0,0,0,0,0,0,0,0,0,0,0,0,0,0,0,0,0,0,0,0,0,0,0,0,0,0,0,0,0,0,0,0,0,0,0,0,0,
0,0,0,0,0,0,0,0,0,0,0,0,0,0,0,0,0,0,0,0,0,0,0,0,0,0,0,0,0,0,0,0,0,0,0,0,0,0,0,0,0,0,0,0,0,0,0,0,0,0,0,0,0,0,0,0,0,0,0,0,0,0,0,0,0,0,0,0,0,0,0,0,0,0,0,0,0,0,0,0,
0,0,0,0,0,0,0,0,0,0,0,0,0,0,0,0,0,0,0,0,0,0,0,0,0,0,0,0,0,0,0,0,0,0,0,0,0,0,0,0,0,0,0,0,0,0,0,0,0,0,0,0,0,0,0,0,0,0,0,0,0,0,0,0,0,0,0,0,0,0,0,0,0,0,0,0,0,0,0,0,
0,0,0,0,0,0,0,0,0,0,0,0,0,0,0,0,0,0,0,0,0,0,0,0,0,0,0,0,0,0,0,0,0,0,0,0,0,0,0,0,0,0,0,0,0,0,0,0,0,0,0,0,0,0,0,0,0,0,0,0,0,0,0,0,0,0,0,0,0,0,0,0,0,0,0,0,0,0,0,0,
0,0,0,0,0,0,0,0,0,0,0,0,0,0,0,0,0,0,0,0,0,0,0,0,0,0,0,0,0,0,0,0,0,0,0,0,0,0,0,0,0,0,0,0,0,0,0,0,0,0,0,0,0,0,0,0,0,0,0,0,0,0,0,0,0,0,0,0,0,0,0,0,0,0,0,0,0,0,0,0,
0,0,0,0,0,0,0,0,0,0,0,0,0,0,0,0,0,0,0,0,0,0,0,0,0,0,0,0,0,0,0,0,0,0,0,0,0,0,0,0,0,0,0,0,0,0,0,0,0,0,0,0,0,0,0,0,0,0,0,0,0,0,0,0,0,0,0,0,0,0,0,0,0,0,0,0,0,0,0,0,
0,0,0,0,0,0,0,0,0,0,0,0,0,0,0,0,0,0,0,0,0,0,0,0,0,0,0,0,0,0,0,0,0,0,0,0,0,0,0,0,0,0,0,0,0,0,0,0,0,0,0,0,0,0,0,0,0,0,0,0,0,0,0,0,0,0,0,0,0,0,0,0,0,0,0,0,0,0,0,0,
0,0,0,0,0,0,0,0,0,0,0,0,0,0,0,0,0,0,0,0,0,0,0,0,0,0,0,0,0,0,0,0,0,0,0,0,0,0,0,0,0,0,0,0,0,0,0,0,0,0,0,0,0,0,0,0,0,0,0,0,0,0,0,0,0,0,0,0,0,0,0,0,0,0,0,0,0,0,0,0,
0,0,0,0,0,0,0,0,0,0,0,0,0,0,0,0,0,0,0,0,0,0,0,0,0,0,0,0,0,0,0,0,0,0,0,0,0,0,0,0,0,0,0,0,0,0,0,0,0,0,0,0,0,0,0,0,0,0,0,0,0,0,0,0,0,0,0,0,0,0,0,0,0,0,0,0,0,0,0,0,
0,0,0,0,0,0,0,0,0,0,0,0,0,0,0,0,0,0,0,0,0,0,0,0,0,0,0,0,0,0,0,0,0,0,0,0,0,0,0,0,0,0,0,0,0,0,0,0,0,0,0,0,0,0,0,0,0,0,0,0,0,0,0,0,0,0,0,0,0,0,0,0,0,0,0,0,0,0,0,0,
0,0,0,0,0,0,0,0,0,0,0,0,0,0,0,0,0,0,0,0,0,0,0,0,0,0,0,0,0,0,0,0,0,0,0,0,0,0,0,0,0,0,0,0,0,0,0,0,0,0,0,0,0,0,0,0,0,0,0,0,0,0,0,0,0,0,0,0,0,0,0,0,0,0,0,0,0,0,0,0,
0,0,0,0,0,0,0,0,0,0,0,0,0,0,0,0,0,0,0,0,0,0,0,0,0,0,0,0,0,0,0,0,0,0,0,0,0,0,0,0,0,0,0,0,0,0,0,0,0,0,0,0,0,0,0,0,0,0,0,0,0,0,0,0,0,0,0,0,0,0,0,0,0,0,0,0,0,0,0,0,
0,0,0,0,0,0,0,0,0,0,0,0,0,0,0,0,0,0,0,0,0,0,0,0,0,0,0,0,0,0,0,0,0,0,0,0,0,0,0,0,0,0,0,0,0,0,0,0,0,0,0,0,0,0,0,0,0,0,0,0,0,0,0,0,0,0,0,0,0,0,0,0,0,0,0,0,0,0,0,0,
0,0,0,0,0,0,0,0,0,0,0,0,0,0,0,0,0,0,0,0,0,0,0,0,0,0,0,0,0,0,0,0,0,0,0,0,0,0,0,0,0,0,0,0,0,0,0,0,0,0,0,0,0,0,0,0,0,0,0,0,0,0,0,0,0,0,0,0,0,0,0,0,0,0,0,0,0,0,0,0,
0,0,0,0,0,0,0,0,0,0,0,0,0,0,0,0,0,0,0,0,0,0,0,0,0,0,0,0,0,0,0,0,0,0,0,0,0,0,0,0,0,0,0,0,0,0,0,0,0,0,0,0,0,0,0,0,0,0,0,0,0,0,0,0,0,0,0,0,0,0,0,0,0,0,0,0,0,0,0,0,
0,0,0,0,0,0,0,0,0,0,0,0,0,0,0,0,0,0,0,0,0,0,0,0,0,0,0,0,0,0,0,0,0,0,0,0,0,0,0,0,0,0,0,0,0,0,0,0,0,0,0,0,0,0,0,0,0,0,0,0,0,0,0,0,0,0,0,0,0,0,0,0,0,0,0,0,0,0,0,0,
0,0,0,0,0,0,0,0,0,0,0,0,0,0,0,0,0,0,0,0,0,0,0,0,0,0,0,0,0,0,0,0,0,0,0,0,0,0,0,0,0,0,0,0,0,0,0,0,0,0,0,0,0,0,0,0,0,0,0,0,0,0,0,0,0,0,0,0,0,0,0,0,0,0,0,0,0,0,0,0,
0,0,0,0,0,0,0,0,0,0,0,0,0,0,0,0,0,0,0,0,0,0,0,0,0,0,0,0,0,0,0,0,0,0,0,0,0,0,0,0,0,0,0,0,0,0,0,0,0,0,0,0,0,0,0,0,0,0,0,0,0,0,0,0,0,0,0,0,0,0,0,0,0,0,0,0,0,0,0,0,
0,0,0,0,0,0,0,0,0,0,0,0,0,0,0,0,0,0,0,0,0,0,0,0,0,0,0,0,0,0,0,0,0,0,0,0,0,0,0,0,0,0,0,0,0,0,0,0,0,0,0,0,0,0,0,0,0,0,0,0,0,0,0,0,0,0,0,0,0,0,0,0,0,0,0,0,0,0,0,0,
0,0,0,0,0,0,0,0,0,0,0,0,0,0,0,0,0,0,0,0,0,0,0,0,0,0,0,0,0,0,0,0,0,0,0,0,0,0,0,0,0,0,0,0,0,0,0,0,0,0,0,0,0,0,0,0,0,0,0,0,0,0,0,0,0,0,0,0,0,0,0,0,0,0,0,0,0,0,0,0,
0,0,0,0,0,0,0,0,0,0,0,0,0,0,0,0,0,0,0,0,0,0,0,0,0,0,0,0,0,0,0,0,0,0,0,0,0,0,0,0,0,0,0,0,0,0,0,0,0,0,0,0,0,0,0,0,0,0,0,0,0,0,0,0,0,0,0,0,0,0,0,0,0,0,0,0,0,0,0,0,
0,0,0,0,0,0,0,0,0,0,0,0,0,0,0,0,0,0,0,0,0,0,0,0,0,0,0,0,0,0,0,0,0,0,0,0,0,0,0,0,0,0,0,0,0,0,0,0,0,0,0,0,0,0,0,0,0,0,0,0,0,0,0,0,0,0,0,0,0,0,0,0,0,0,0,0,0,0,0,0,
0,0,0,0,0,0,0,0,0,0,0,0,0,0,0,0,0,0,0,0,0,0,0,0,0,0,0,0,0,0,0,0,0,0,0,0,0,0,0,0,0,0,0,0,0,0,0,0,0,0,0,0,0,0,0,0,0,0,0,0,0,0,0,0,0,0,0,0,0,0,0,0,0,0,0,0,0,0,0,0,
0,0,0,0,0,0,0,0,0,0,0,0,0,0,0,0,0,0,0,0,0,0,0,0,0,0,0,0,0,0,0,0,0,0,0,0,0,0,0,0,0,0,0,0,0,0,0,0,0,0,0,0,0,0,0,0,0,0,0,0,0,0,0,0,0,0,0,0,0,0,0,0,0,0,0,0,0,0,0,0,
0,0,0,0,0,0,0,0,0,0,0,0,0,0,0,0,0,0,0,0,0,0,0,0,0,0,0,0,0,0,0,0,0,0,0,0,0,0,0,0,0,0,0,0,0,0,0,0,0,0,0,0,0,0,0,0,0,0,0,0,0,0,0,0,0,0,0,0,0,0,0,0,0,0,0,0,0,0,0,0,
0,0,0,0,0,0,0,0,0,0,0,0,0,0,0,0,0,0,0,0,0,0,0,0,0,0,0,0,0,0,0,0,0,0,0,0,0,0,0,0,0,0,0,0,0,0,0,0,0,0,0,0,0,0,0,0,0,0,0,0,0,0,0,0,0,0,0,0,0,0,0,0,0,0,0,0,0,0,0,0,
0,0,0,0,0,0,0,0,0,0,0,0,0,0,0,0,0,0,0,0,0,0,0,0,0,0,0,0,0,0,0,0,0,0,0,0,0,0,0,0,0,0,0,0,0,0,0,0,0,0,0,0,0,0,0,0,0,0,0,0,0,0,0,0,0,0,0,0,0,0,0,0,0,0,0,0,0,0,0,0,
0,0,0,0,0,0,0,0,0,0,0,0,0,0,0,0,0,0,0,0,0,0,0,0,0,0,0,0,0,0,0,0,0,0,0,0,0,0,0,0,0,0,0,0,0,0,0,0,0,0,0,0,0,0,0,0,0,0,0,0,0,0,0,0,0,0,0,0,0,0,0,0,0,0,0,0,0,0,0,0,
0,0,0,0,0,0,0,0,0,0,0,0,0,0,0,0,0,0,0,0,0,0,0,0,0,0,0,0,0,0,0,0,0,0,0,0,0,0,0,0,0,0,0,0,0,0,0,0,0,0,0,0,0,0,0,0,0,0,0,0,0,0,0,0,0,0,0,0,0,0,0,0,0,0,0,0,0,0,0,0,
0,0,0,0,0,0,0,0,0,0,0,0,0,0,0,0,0,0,0,0,0,0,0,0,0,0,0,0,0,0,0,0,0,0,0,0,0,0,0,0,0,0,0,0,0,0,0,0,0,0,0,0,0,0,0,0,0,0,0,0,0,0,0,0,0,0,0,0,0,0,0,0,0,0,0,0,0,0,0,0,
0,0,0,0,0,0,0,0,0,0,0,0,0,0,0,0,0,0,0,0,0,0,0,0,0,0,0,0,0,0,0,0,0,0,0,0,0,0,0,0,0,0,0,0,0,0,0,0,0,0,0,0,0,0,0,0,0,0,0,0,0,0,0,0,0,0,0,0,0,0,0,0,0,0,0,0,0,0,0,0,
0,0,0,0,0,0,0,0,0,0,0,0,0,0,0,0,0,0,0,0,0,0,0,0,0,0,0,0,0,0,0,0,0,0,0,0,0,0,0,0,0,0,0,0,0,0,0,0,0,0,0,0,0,0,0,0,0,0,0,0,0,0,0,0,0,0,0,0,0,0,0,0,0,0,0,0,0,0,0,0,
0,0,0,0,0,0,0,0,0,0,0,0,0,0,0,0,0,0,0,0,0,0,0,0,0,0,0,0,0,0,0,0,0,0,0,0,0,0,0,0,0,0,0,0,0,0,0,0,0,0,0,0,0,0,0,0,0,0,0,0,0,0,0,0,0,0,0,0,0,0,0,0,0,0,0,0,0,0,0,0,
0,0,0,0,0,0,0,0,0,0,0,0,0,0,0,0,0,0,0,0,0,0,0,0,0,0,0,0,0,0,0,0,0,0,0,0,0,0,0,0,0,0,0,0,0,0,0,0,0,0,0,0,0,0,0,0,0,0,0,0,0,0,0,0,0,0,0,0,0,0,0,0,0,0,0,0,0,0,0,0,
0,0,0,0,0,0,0,0,0,0,0,0,0,0,0,0,0,0,0,0,0,0,0,0,0,0,0,0,0,0,0,0,0,0,0,0,0,0,0,0,0,0,0,0,0,0,0,0,0,0,0,0,0,0,0,0,0,0,0,0,0,0,0,0,0,0,0,0,0,0,0,0,0,0,0,0,0,0,0,0,
0,0,0,0,0,0,0,0,0,0,0,0,0,0,0,0,0,0,0,0,0,0,0,0,0,0,0,0,0,0,0,0,0,0,0,0,0,0,0,0,0,0,0,0,0,0,0,0,0,0,0,0,0,0,0,0,0,0,0,0,0,0,0,0,0,0,0,0,0,0,0,0,0,0,0,0,0,0,0,0,
0,0,0,0,0,0,0,0,0,0,0,0,0,0,0,0,0,0,0,0,0,0,0,0,0,0,0,0,0,0,0,0,0,0,0,0,0,0,0,0,0,0,0,0,0,0,0,0,0,0,0,0,0,0,0,0,0,0,0,0,0,0,0,0,0,0,0,0,0,0,0,0,0,0,0,0,0,0,0,0,
0,0,0,0,0,0,0,0,0,0,0,0,0,0,0,0,0,0,0,0,0,0,0,0,0,0,0,0,0,0,0,0,0,0,0,0,0,0,0,0,0,0,0,0,0,0,0,0,0,0,0,0,0,0,0,0,0,0,0,0,0,0,0,0,0,0,0,0,0,0,0,0,0,0,0,0,0,0,0,0,
0,0,0,0,0,0,0,0,0,0,0,0,0,0,0,0,0,0,0,0,0,0,0,0,0,0,0,0,0,0,0,0,0,0,0,0,0,0,0,0,0,0,0,0,0,0,0,0,0,0,0,0,0,0,0,0,0,0,0,0,0,0,0,0,0,0,0,0,0,0,0,0,0,0,0,0,0,0,0,0,
0,0,0,0,0,0,0,0,0,0,0,0,0,0,0,0,0,0,0,0,0,0,0,0,0,0,0,0,0,0,0,0,0,0,0,0,0,0,0,0,0,0,0,0,0,0,0,0,0,0,0,0,0,0,0,0,0,0,0,0,0,0,0,0,0,0,0,0,0,0,0,0,0,0,0,0,0,0,0,0,
0,0,0,0,0,0,0,0,0,0,0,0,0,0,0,0,0,0,0,0,0,0,0,0,0,0,0,0,0,0,0,0,0,0,0,0,0,0,0,0,0,0,0,0,0,0,0,0,0,0,0,0,0,0,0,0,0,0,0,0,0,0,0,0,0,0,0,0,0,0,0,0,0,0,0,0,0,0,0,0,
0,0,0,0,0,0,0,0,0,0,0,0,0,0,0,0,0,0,0,0,0,0,0,0,0,0,0,0,0,0,0,0,0,0,0,0,0,0,0,0,0,0,0,0,0,0,0,0,0,0,0,0,0,0,0,0,0,0,0,0,0,0,0,0,0,0,0,0,0,0,0,0,0,0,0,0,0,0,0,0,
0,0,0,0,0,0,0,0,0,0,0,0,0,0,0,0,0,0,0,0,0,0,0,0,0,0,0,0,0,0,0,0,0,0,0,0,0,0,0,0,0,0,0,0,0,0,0,0,0,0,0,0,0,0,0,0,0,0,0,0,0,0,0,0,0,0,0,0,0,0,0,0,0,0,0,0,0,0,0,0
</data>
 </layer>
 <layer name="topoverlay" width="80" height="70">
  <data encoding="csv">
0,0,0,0,0,0,0,0,0,0,0,0,0,0,0,0,0,0,0,0,0,0,0,0,0,0,0,0,0,0,0,0,0,0,0,0,0,0,0,0,0,0,0,0,0,0,0,0,0,0,0,0,0,0,0,0,0,0,0,0,0,0,0,0,0,0,0,0,0,0,0,0,0,0,0,0,0,0,0,0,
0,0,0,0,0,0,0,0,0,0,0,0,0,0,0,0,0,0,0,0,0,0,0,0,0,0,0,0,0,0,0,0,0,0,0,0,0,0,0,0,0,0,0,0,0,0,0,0,0,0,0,0,0,0,0,0,0,0,0,0,0,0,0,0,0,0,0,0,0,0,0,0,0,0,0,0,0,0,0,0,
0,0,0,0,0,0,0,0,0,0,0,0,0,0,0,0,0,0,0,0,0,0,0,0,0,0,0,0,0,0,0,0,0,0,0,0,0,0,0,0,0,0,0,0,0,0,0,0,0,0,0,0,0,0,0,0,0,0,0,0,0,0,0,0,0,0,0,0,0,0,0,0,0,0,0,0,0,0,0,0,
0,0,0,0,0,0,0,0,0,0,0,0,0,0,0,0,0,0,0,0,0,0,0,0,0,0,0,0,0,0,0,0,0,0,0,0,0,0,0,0,0,0,0,0,0,0,0,0,0,0,0,0,0,0,0,0,0,0,0,0,0,0,0,0,0,0,0,0,0,0,0,0,0,0,0,0,0,0,0,0,
0,0,0,0,0,0,0,0,0,0,0,0,0,0,0,0,0,0,0,0,0,0,0,0,0,0,0,0,0,0,0,0,0,0,0,0,0,0,0,0,0,0,0,0,0,0,0,0,0,0,0,0,0,0,0,0,0,0,0,0,0,0,0,0,0,0,0,0,0,0,0,0,0,0,0,0,0,0,0,0,
0,0,0,0,0,0,0,0,0,0,0,0,0,0,0,0,0,0,0,0,0,0,0,0,0,0,0,0,0,0,0,0,0,0,0,0,0,0,0,0,0,0,0,0,0,0,0,0,0,0,0,0,0,0,0,0,0,0,0,0,0,0,0,0,0,0,0,0,0,0,0,0,0,0,0,0,0,0,0,0,
0,0,0,0,0,0,0,0,0,0,0,0,0,0,0,0,0,0,0,0,0,0,0,0,0,0,0,0,0,0,0,0,0,0,0,0,0,0,0,0,0,0,0,0,0,0,0,0,0,0,0,0,0,0,0,0,0,0,0,0,0,0,0,0,0,0,0,0,0,0,0,0,0,0,0,0,0,0,0,0,
0,0,0,0,0,0,0,0,0,0,0,0,0,0,0,0,0,0,0,0,0,0,0,0,0,0,0,0,0,0,0,0,0,0,0,0,0,0,0,0,0,0,0,0,0,0,0,0,0,0,0,0,0,0,0,0,0,0,0,0,0,0,0,0,0,0,0,0,0,0,0,0,0,0,0,0,0,0,0,0,
0,0,0,0,0,0,0,0,0,0,0,0,0,0,0,0,0,0,0,0,0,0,0,0,0,0,0,0,0,0,0,0,0,0,0,0,0,0,0,0,0,0,0,0,0,0,0,0,0,0,0,0,0,0,0,0,0,0,0,0,0,0,0,0,0,0,0,0,0,0,0,0,0,0,0,0,0,0,0,0,
0,0,0,0,0,0,0,0,0,0,0,0,0,0,0,0,0,0,0,0,0,0,0,0,0,0,0,0,0,0,0,0,0,0,0,0,0,0,0,0,0,0,0,0,0,0,0,0,0,0,0,0,0,0,0,0,0,0,0,0,0,0,0,0,0,0,0,0,0,0,0,0,0,0,0,0,0,0,0,0,
0,0,0,0,0,0,0,0,0,0,0,0,0,0,0,0,0,0,0,0,0,0,0,0,0,0,0,0,0,0,0,0,0,0,0,0,0,0,0,0,0,0,0,0,0,0,0,0,0,0,0,0,0,0,0,0,0,0,0,0,0,0,0,0,0,0,0,0,0,0,0,0,0,0,0,0,0,0,0,0,
0,0,0,0,0,0,0,0,0,0,0,0,0,0,0,0,0,0,0,0,0,0,0,0,0,0,0,0,0,0,0,0,0,0,0,0,0,0,0,0,0,0,0,0,0,0,0,0,0,0,0,0,0,0,0,0,0,0,0,0,0,0,0,0,0,0,0,0,0,0,0,0,0,0,0,0,0,0,0,0,
0,0,0,0,0,0,0,0,0,0,0,0,0,0,0,0,0,0,0,0,0,0,0,0,0,0,0,0,0,0,0,0,0,0,0,0,0,0,0,0,0,0,0,0,0,0,0,0,0,0,0,0,0,0,0,0,0,0,0,0,0,0,0,0,0,0,0,0,0,0,0,0,0,0,0,0,0,0,0,0,
0,0,0,0,0,0,0,0,0,0,0,0,0,0,0,0,0,0,0,0,0,0,0,0,0,0,0,0,0,0,0,0,0,0,0,0,0,0,0,0,0,0,0,0,0,0,0,0,0,0,0,0,0,0,0,0,0,0,0,0,0,0,0,0,0,0,0,0,0,0,0,0,0,0,0,0,0,0,0,0,
0,0,0,0,0,0,0,0,0,0,0,0,0,0,0,0,0,0,0,0,0,0,0,0,0,0,0,0,0,0,0,0,0,0,0,0,0,0,0,0,0,0,0,0,0,0,0,0,0,0,0,0,0,0,0,0,0,0,0,0,0,0,0,0,0,0,0,0,0,0,0,0,0,0,0,0,0,0,0,0,
0,0,0,0,0,0,0,0,0,0,0,0,0,0,0,0,0,0,0,0,0,0,0,0,0,0,0,0,0,0,0,0,0,0,0,0,0,0,0,0,0,0,0,0,0,0,0,0,0,0,0,0,0,0,0,0,0,0,0,0,0,0,0,0,0,0,0,0,0,0,0,0,0,0,0,0,0,0,0,0,
0,0,0,0,0,0,0,0,0,0,0,0,0,0,0,0,0,0,0,0,0,0,0,0,0,0,0,0,0,0,0,0,0,0,0,0,0,0,0,0,0,0,0,0,0,0,0,0,0,0,0,0,0,0,0,0,0,0,0,0,0,0,0,0,0,0,0,0,0,0,0,0,0,0,0,0,0,0,0,0,
0,0,0,0,0,0,0,0,0,0,0,0,0,0,0,0,0,0,0,0,0,0,0,0,0,0,0,0,0,0,0,0,0,0,0,0,0,0,0,0,0,0,0,0,0,0,0,0,0,0,0,0,0,0,0,0,0,0,0,0,0,0,0,0,0,0,0,0,0,0,0,0,0,0,0,0,0,0,0,0,
0,0,0,0,0,0,0,0,0,0,0,0,0,0,0,0,0,0,0,0,0,0,0,0,0,0,0,0,0,0,0,0,0,0,0,0,0,0,0,0,0,0,0,0,0,0,0,0,0,0,0,0,0,0,0,0,0,0,0,0,0,0,0,0,0,0,0,0,0,0,0,0,0,0,0,0,0,0,0,0,
0,0,0,0,0,0,0,0,0,0,0,0,0,0,0,0,0,0,0,0,0,0,0,0,0,0,0,0,0,0,0,0,0,0,0,0,0,0,0,0,0,0,0,0,0,0,0,0,0,0,0,0,0,0,0,0,0,0,0,0,0,0,0,0,0,0,0,0,0,0,0,0,0,0,0,0,0,0,0,0,
0,0,0,0,0,0,0,0,0,0,0,0,0,0,0,0,0,0,0,0,0,0,0,0,0,0,0,0,0,0,0,0,0,0,0,0,0,0,0,0,0,0,0,0,0,0,0,0,0,0,0,0,0,0,0,0,0,0,0,0,0,0,0,0,0,0,0,0,0,0,0,0,0,0,0,0,0,0,0,0,
0,0,0,0,0,0,0,0,0,0,0,0,0,0,0,0,0,0,0,0,0,0,0,0,0,0,0,0,0,0,0,0,0,0,0,0,0,0,0,0,0,0,0,0,0,0,0,0,0,0,0,0,0,0,0,0,0,0,0,0,0,0,0,0,0,0,0,0,0,0,0,0,0,0,0,0,0,0,0,0,
0,0,0,0,0,0,0,0,0,0,0,0,0,0,0,0,0,0,0,0,0,0,0,0,0,0,0,0,0,0,0,0,0,0,0,0,0,0,0,0,0,0,0,0,0,0,0,0,0,0,0,0,0,0,0,0,0,0,0,0,0,0,0,0,0,0,0,0,0,0,0,0,0,0,0,0,0,0,0,0,
0,0,0,0,0,0,0,0,0,0,0,0,0,0,0,0,0,0,0,0,0,0,0,0,0,0,0,0,0,0,0,0,0,0,0,0,0,0,0,0,0,0,0,0,0,0,0,0,0,0,0,0,0,0,0,0,0,0,0,0,0,0,0,0,0,0,0,0,0,0,0,0,0,0,0,0,0,0,0,0,
0,0,0,0,0,0,0,0,0,0,0,0,0,0,0,0,0,0,0,0,0,0,0,0,0,0,0,0,0,0,0,0,0,0,0,0,0,0,0,0,0,0,0,0,0,0,0,0,0,0,0,0,0,0,0,0,0,0,0,0,0,0,0,0,0,0,0,0,0,0,0,0,0,0,0,0,0,0,0,0,
0,0,0,0,0,0,0,0,0,0,0,0,0,0,0,0,0,0,0,0,0,0,0,0,0,0,0,0,0,0,0,0,0,0,0,0,0,0,0,0,0,0,0,0,0,0,0,0,0,0,0,0,0,0,0,0,0,0,0,0,0,0,0,0,0,0,0,0,0,0,0,0,0,0,0,0,0,0,0,0,
0,0,0,0,0,0,0,0,0,0,0,0,0,0,0,0,0,0,0,0,0,0,0,0,0,0,0,0,0,0,0,0,0,0,0,0,0,0,0,0,0,0,0,0,0,0,0,0,0,0,0,0,0,0,0,0,0,0,0,0,0,0,0,0,0,0,0,0,0,0,0,0,0,0,0,0,0,0,0,0,
0,0,0,0,0,0,0,0,0,0,0,0,0,0,0,0,0,0,0,0,0,0,0,0,0,0,0,0,0,0,0,0,0,0,0,0,0,0,0,0,0,0,0,0,0,0,0,0,0,0,0,0,0,0,0,0,0,0,0,0,0,0,0,0,0,0,0,0,0,0,0,0,0,0,0,0,0,0,0,0,
0,0,0,0,0,0,0,0,0,0,0,0,0,0,0,0,0,0,0,0,0,0,0,0,0,0,0,0,0,0,0,0,0,0,0,0,0,0,0,0,0,0,0,0,0,0,0,0,0,0,0,0,0,0,0,0,0,0,0,0,0,0,0,0,0,0,0,0,0,0,0,0,0,0,0,0,0,0,0,0,
0,0,0,0,0,0,0,0,0,0,0,0,0,0,0,0,0,0,0,0,0,0,0,0,0,0,0,0,0,0,0,0,0,0,0,0,0,0,0,0,0,0,0,0,0,0,0,0,0,0,0,0,0,0,0,0,0,0,0,0,0,0,0,0,0,0,0,0,0,0,0,0,0,0,0,0,0,0,0,0,
0,0,0,0,0,0,0,0,0,0,0,0,0,0,0,0,0,0,0,0,0,0,0,0,0,0,0,0,0,0,0,0,0,0,0,0,0,0,0,0,0,0,0,0,0,0,0,0,0,0,0,0,0,0,0,0,0,0,0,0,0,0,0,0,0,0,0,0,0,0,0,0,0,0,0,0,0,0,0,0,
0,0,0,0,0,0,0,0,0,0,0,0,0,0,0,0,0,0,0,0,0,0,0,0,0,0,0,0,0,0,0,0,0,0,0,0,0,0,0,0,0,0,0,0,0,0,0,0,0,0,0,0,0,0,0,0,0,0,0,0,0,0,0,0,0,0,0,0,0,0,0,0,0,0,0,0,0,0,0,0,
0,0,0,0,0,0,0,0,0,0,0,0,0,0,0,0,0,0,0,0,0,0,0,0,0,0,0,0,0,0,0,0,0,0,0,0,0,0,0,0,0,0,0,0,0,0,0,0,0,0,0,0,0,0,0,0,0,0,0,0,0,0,0,0,0,0,0,0,0,0,0,0,0,0,0,0,0,0,0,0,
0,0,0,0,0,0,0,0,0,0,0,0,0,0,0,0,0,0,0,0,0,0,0,0,0,0,0,0,0,0,0,0,0,0,0,0,0,0,0,0,0,0,0,0,0,0,0,0,0,0,0,0,0,0,0,0,0,0,0,0,0,0,0,0,0,0,0,0,0,0,0,0,0,0,0,0,0,0,0,0,
0,0,0,0,0,0,0,0,0,0,0,0,0,0,0,0,0,0,0,0,0,0,0,0,0,0,0,0,0,0,0,0,0,0,0,0,0,0,0,0,0,0,0,0,0,0,0,0,0,0,0,0,0,0,0,0,0,0,0,0,0,0,0,0,0,0,0,0,0,0,0,0,0,0,0,0,0,0,0,0,
0,0,0,0,0,0,0,0,0,0,0,0,0,0,0,0,0,0,0,0,0,0,0,0,0,0,0,0,0,0,0,0,0,0,0,0,0,0,0,0,0,0,0,0,0,0,0,0,0,0,0,0,0,0,0,0,0,0,0,0,0,0,0,0,0,0,0,0,0,0,0,0,0,0,0,0,0,0,0,0,
0,0,0,0,0,0,0,0,0,0,0,0,0,0,0,0,0,0,0,0,0,0,0,0,0,0,0,0,0,0,0,0,0,0,0,0,0,0,0,0,0,0,0,0,0,0,0,0,0,0,0,0,0,0,0,0,0,0,0,0,0,0,0,0,0,0,0,0,0,0,0,0,0,0,0,0,0,0,0,0,
0,0,0,0,0,0,0,0,0,0,0,0,0,0,0,0,0,0,0,0,0,0,0,0,0,0,0,0,0,0,0,0,0,0,0,0,0,0,0,0,0,0,0,0,0,0,0,0,0,0,0,0,0,0,0,0,0,0,0,0,0,0,0,0,0,0,0,0,0,0,0,0,0,0,0,0,0,0,0,0,
0,0,0,0,0,0,0,0,0,0,0,0,0,0,0,0,0,0,0,0,0,0,0,0,0,0,0,0,0,0,0,0,0,0,0,0,0,0,0,0,0,0,0,0,0,0,0,0,0,0,0,0,0,0,0,0,0,0,0,0,0,0,0,0,0,0,0,0,0,0,0,0,0,0,0,0,0,0,0,0,
0,0,0,0,0,0,0,0,0,0,0,0,0,0,0,0,0,0,0,0,0,0,0,0,0,0,0,0,0,0,0,0,0,0,0,0,0,0,0,0,0,0,0,0,0,0,0,0,0,0,0,0,0,0,0,0,0,0,0,0,0,0,0,0,0,0,0,0,0,0,0,0,0,0,0,0,0,0,0,0,
0,0,0,0,0,0,0,0,0,0,0,0,0,0,0,0,0,0,0,0,0,0,0,0,0,0,0,0,0,0,0,0,0,0,0,0,0,0,0,0,0,0,0,0,0,0,0,0,0,0,0,0,0,0,0,0,0,0,0,0,0,0,0,0,0,0,0,0,0,0,0,0,0,0,0,0,0,0,0,0,
0,0,0,0,0,0,0,0,0,0,0,0,0,0,0,0,0,0,0,0,0,0,0,0,0,0,0,0,0,0,0,0,0,0,0,0,0,0,0,0,0,0,0,0,0,0,0,0,0,0,0,0,0,0,0,0,0,0,0,0,0,0,0,0,0,0,0,0,0,0,0,0,0,0,0,0,0,0,0,0,
0,0,0,0,0,0,0,0,0,0,0,0,0,0,0,0,0,0,0,0,0,0,0,0,0,0,0,0,0,0,0,0,0,0,0,0,0,0,0,0,0,0,0,0,0,0,0,0,0,0,0,0,0,0,0,0,0,0,0,0,0,0,0,0,0,0,0,0,0,0,0,0,0,0,0,0,0,0,0,0,
0,0,0,0,0,0,0,0,0,0,0,0,0,0,0,0,0,0,0,0,0,0,0,0,0,0,0,0,0,0,0,0,0,0,0,0,0,0,0,0,0,0,0,0,0,0,0,0,0,0,0,0,0,0,0,0,0,0,0,0,0,0,0,0,0,0,0,0,0,0,0,0,0,0,0,0,0,0,0,0,
0,0,0,0,0,0,0,0,0,0,0,0,0,0,0,0,0,0,0,0,0,0,0,0,0,0,0,0,0,0,0,0,0,0,0,0,0,0,0,0,0,0,0,0,0,0,0,0,0,0,0,0,0,0,0,0,0,0,0,0,0,0,0,0,0,0,0,0,0,0,0,0,0,0,0,0,0,0,0,0,
0,0,0,0,0,0,0,0,0,0,0,0,0,0,0,0,0,0,0,0,0,0,0,0,0,0,0,0,0,0,0,0,0,0,0,0,0,0,0,0,0,0,0,0,0,0,0,0,0,0,0,0,0,0,0,0,0,0,0,0,0,0,0,0,0,0,0,0,0,0,0,0,0,0,0,0,0,0,0,0,
0,0,0,0,0,0,0,0,0,0,0,0,0,0,0,0,0,0,0,0,0,0,0,0,0,0,0,0,0,0,0,0,0,0,0,0,0,0,0,0,0,0,0,0,0,0,0,0,0,0,0,0,0,0,0,0,0,0,0,0,0,0,0,0,0,0,0,0,0,0,0,0,0,0,0,0,0,0,0,0,
0,0,0,0,0,0,0,0,0,0,0,0,0,0,0,0,0,0,0,0,0,0,0,0,0,0,0,0,0,0,0,0,0,0,0,0,0,0,0,0,0,0,0,0,0,0,0,0,0,0,0,0,0,0,0,0,0,0,0,0,0,0,0,0,0,0,0,0,0,0,0,0,0,0,0,0,0,0,0,0,
0,0,0,0,0,0,0,0,0,0,0,0,0,0,0,0,0,0,0,0,0,0,0,0,0,0,0,0,0,0,0,0,0,0,0,0,0,0,0,0,0,0,0,0,0,0,0,0,0,0,0,0,0,0,0,0,0,0,0,0,0,0,0,0,0,0,0,0,0,0,0,0,0,0,0,0,0,0,0,0,
0,0,0,0,0,0,0,0,0,0,0,0,0,0,0,0,0,0,0,0,0,0,0,0,0,0,0,0,0,0,0,0,0,0,0,0,0,0,0,0,0,0,0,0,0,0,0,0,0,0,0,0,0,0,0,0,0,0,0,0,0,0,0,0,0,0,0,0,0,0,0,0,0,0,0,0,0,0,0,0,
0,0,0,0,0,0,0,0,0,0,0,0,0,0,0,0,0,0,0,0,0,0,0,0,0,0,0,0,0,0,0,0,0,0,0,0,0,0,0,0,0,0,0,0,0,0,0,0,0,0,0,0,0,0,0,0,0,0,0,0,0,0,0,0,0,0,0,0,0,0,0,0,0,0,0,0,0,0,0,0,
0,0,0,0,0,0,0,0,0,0,0,0,0,0,0,0,0,0,0,0,0,0,0,0,0,0,0,0,0,0,0,0,0,0,0,0,0,0,0,0,0,0,0,0,0,0,0,0,0,0,0,0,0,0,0,0,0,0,0,0,0,0,0,0,0,0,0,0,0,0,0,0,0,0,0,0,0,0,0,0,
0,0,0,0,0,0,0,0,0,0,0,0,0,0,0,0,0,0,0,0,0,0,0,0,0,0,0,0,0,0,0,0,0,0,0,0,0,0,0,0,0,0,0,0,0,0,0,0,0,0,0,0,0,0,0,0,0,0,0,0,0,0,0,0,0,0,0,0,0,0,0,0,0,0,0,0,0,0,0,0,
0,0,0,0,0,0,0,0,0,0,0,0,0,0,0,0,0,0,0,0,0,0,0,0,0,0,0,0,0,0,0,0,0,0,0,0,0,0,0,0,0,0,0,0,0,0,0,0,0,0,0,0,0,0,0,0,0,0,0,0,0,0,0,0,0,0,0,0,0,0,0,0,0,0,0,0,0,0,0,0,
0,0,0,0,0,0,0,0,0,0,0,0,0,0,0,0,0,0,0,0,0,0,0,0,0,0,0,0,0,0,0,0,0,0,0,0,0,0,0,0,0,0,0,0,0,0,0,0,0,0,0,0,0,0,0,0,0,0,0,0,0,0,0,0,0,0,0,0,0,0,0,0,0,0,0,0,0,0,0,0,
0,0,0,0,0,0,0,0,0,0,0,0,0,0,0,0,0,0,0,0,0,0,0,0,0,0,0,0,0,0,0,0,0,0,0,0,0,0,0,0,0,0,0,0,0,0,0,0,0,0,0,0,0,0,0,0,0,0,0,0,0,0,0,0,0,0,0,0,0,0,0,0,0,0,0,0,0,0,0,0,
0,0,0,0,0,0,0,0,0,0,0,0,0,0,0,0,0,0,0,0,0,0,0,0,0,0,0,0,0,0,0,0,0,0,0,0,0,0,0,0,0,0,0,0,0,0,0,0,0,0,0,0,0,0,0,0,0,0,0,0,0,0,0,0,0,0,0,0,0,0,0,0,0,0,0,0,0,0,0,0,
0,0,0,0,0,0,0,0,0,0,0,0,0,0,0,0,0,0,0,0,0,0,0,0,0,0,0,0,0,0,0,0,0,0,0,0,0,0,0,0,0,0,0,0,0,0,0,0,0,0,0,0,0,0,0,0,0,0,0,0,0,0,0,0,0,0,0,0,0,0,0,0,0,0,0,0,0,0,0,0,
0,0,0,0,0,0,0,0,0,0,0,0,0,0,0,0,0,0,0,0,0,0,0,0,0,0,0,0,0,0,0,0,0,0,0,0,0,0,0,0,0,0,0,0,0,0,0,0,0,0,0,0,0,0,0,0,0,0,0,0,0,0,0,0,0,0,0,0,0,0,0,0,0,0,0,0,0,0,0,0,
0,0,0,0,0,0,0,0,0,0,0,0,0,0,0,0,0,0,0,0,0,0,0,0,0,0,0,0,0,0,0,0,0,0,0,0,0,0,0,0,0,0,0,0,0,0,0,0,0,0,0,0,0,0,0,0,0,0,0,0,0,0,0,0,0,0,0,0,0,0,0,0,0,0,0,0,0,0,0,0,
0,0,0,0,0,0,0,0,0,0,0,0,0,0,0,0,0,0,0,0,0,0,0,0,0,0,0,0,0,0,0,0,0,0,0,0,0,0,0,0,0,0,0,0,0,0,0,0,0,0,0,0,0,0,0,0,0,0,0,0,0,0,0,0,0,0,0,0,0,0,0,0,0,0,0,0,0,0,0,0,
0,0,0,0,0,0,0,0,0,0,0,0,0,0,0,0,0,0,0,0,0,0,0,0,0,0,0,0,0,0,0,0,0,0,0,0,0,0,0,0,0,0,0,0,0,0,0,0,0,0,0,0,0,0,0,0,0,0,0,0,0,0,0,0,0,0,0,0,0,0,0,0,0,0,0,0,0,0,0,0,
0,0,0,0,0,0,0,0,0,0,0,0,0,0,0,0,0,0,0,0,0,0,0,0,0,0,0,0,0,0,0,0,0,0,0,0,0,0,0,0,0,0,0,0,0,0,0,0,0,0,0,0,0,0,0,0,0,0,0,0,0,0,0,0,0,0,0,0,0,0,0,0,0,0,0,0,0,0,0,0,
0,0,0,0,0,0,0,0,0,0,0,0,0,0,0,0,0,0,0,0,0,0,0,0,0,0,0,0,0,0,0,0,0,0,0,0,0,0,0,0,0,0,0,0,0,0,0,0,0,0,0,0,0,0,0,0,0,0,0,0,0,0,0,0,0,0,0,0,0,0,0,0,0,0,0,0,0,0,0,0,
0,0,0,0,0,0,0,0,0,0,0,0,0,0,0,0,0,0,0,0,0,0,0,0,0,0,0,0,0,0,0,0,0,0,0,0,0,0,0,0,0,0,0,0,0,0,0,0,0,0,0,0,0,0,0,0,0,0,0,0,0,0,0,0,0,0,0,0,0,0,0,0,0,0,0,0,0,0,0,0,
0,0,0,0,0,0,0,0,0,0,0,0,0,0,0,0,0,0,0,0,0,0,0,0,0,0,0,0,0,0,0,0,0,0,0,0,0,0,0,0,0,0,0,0,0,0,0,0,0,0,0,0,0,0,0,0,0,0,0,0,0,0,0,0,0,0,0,0,0,0,0,0,0,0,0,0,0,0,0,0,
0,0,0,0,0,0,0,0,0,0,0,0,0,0,0,0,0,0,0,0,0,0,0,0,0,0,0,0,0,0,0,0,0,0,0,0,0,0,0,0,0,0,0,0,0,0,0,0,0,0,0,0,0,0,0,0,0,0,0,0,0,0,0,0,0,0,0,0,0,0,0,0,0,0,0,0,0,0,0,0,
0,0,0,0,0,0,0,0,0,0,0,0,0,0,0,0,0,0,0,0,0,0,0,0,0,0,0,0,0,0,0,0,0,0,0,0,0,0,0,0,0,0,0,0,0,0,0,0,0,0,0,0,0,0,0,0,0,0,0,0,0,0,0,0,0,0,0,0,0,0,0,0,0,0,0,0,0,0,0,0,
0,0,0,0,0,0,0,0,0,0,0,0,0,0,0,0,0,0,0,0,0,0,0,0,0,0,0,0,0,0,0,0,0,0,0,0,0,0,0,0,0,0,0,0,0,0,0,0,0,0,0,0,0,0,0,0,0,0,0,0,0,0,0,0,0,0,0,0,0,0,0,0,0,0,0,0,0,0,0,0,
0,0,0,0,0,0,0,0,0,0,0,0,0,0,0,0,0,0,0,0,0,0,0,0,0,0,0,0,0,0,0,0,0,0,0,0,0,0,0,0,0,0,0,0,0,0,0,0,0,0,0,0,0,0,0,0,0,0,0,0,0,0,0,0,0,0,0,0,0,0,0,0,0,0,0,0,0,0,0,0
</data>
 </layer>
 <layer name="shadow2" width="80" height="70" opacity="0.3">
  <data encoding="csv">
0,0,0,0,0,0,0,0,0,0,0,0,0,0,0,0,0,0,0,0,0,0,0,0,0,0,0,0,0,0,0,0,0,0,0,0,0,0,0,0,0,0,0,0,0,0,0,0,0,0,0,0,0,0,0,0,0,0,0,0,0,0,0,0,0,0,0,0,0,0,0,0,0,0,0,0,0,0,0,0,
0,0,0,0,0,0,0,0,0,0,0,0,0,0,0,0,0,0,0,0,0,0,0,0,0,0,0,0,0,0,0,0,0,0,0,0,0,0,0,0,0,0,0,0,0,0,0,0,0,0,0,0,0,0,0,0,0,0,0,0,0,0,0,0,0,0,0,0,0,0,0,0,0,0,0,0,0,0,0,0,
0,0,0,0,0,0,0,0,0,0,0,0,0,0,0,0,0,0,0,0,0,0,0,0,0,0,0,0,0,0,0,0,0,0,0,0,0,0,0,0,0,0,0,0,0,0,0,0,0,0,0,0,0,0,0,0,0,0,0,0,0,0,0,0,0,0,0,0,0,0,0,0,0,0,0,0,0,0,0,0,
0,0,0,0,0,0,0,0,0,0,0,0,0,0,0,0,0,0,0,0,0,0,0,0,0,0,0,0,0,0,0,0,0,0,0,0,0,0,0,0,0,0,0,0,0,0,0,0,0,0,0,0,0,0,0,0,0,0,0,0,0,0,0,0,0,0,0,0,0,0,0,0,0,0,0,0,0,0,0,0,
0,0,0,0,0,0,0,0,0,0,0,0,0,0,0,0,0,0,0,0,0,0,0,0,0,0,0,0,0,0,0,0,0,0,0,0,0,0,0,0,0,0,0,0,0,0,0,0,0,0,0,0,0,0,0,0,0,0,0,0,0,0,0,0,0,0,0,0,0,0,0,0,0,0,0,0,0,0,0,0,
0,0,0,0,0,0,0,0,0,0,0,0,0,0,0,0,0,0,0,0,0,0,0,0,0,0,0,0,0,0,0,0,0,0,0,0,0,0,0,0,0,0,0,0,0,0,0,0,0,0,0,0,0,0,0,0,0,0,0,0,0,0,0,0,0,0,0,0,0,0,0,0,0,0,0,0,0,0,0,0,
0,0,0,0,0,0,0,0,0,0,0,0,0,0,0,0,0,0,0,0,0,0,0,0,0,0,0,0,0,0,0,0,0,0,0,0,0,0,0,0,0,0,0,0,0,0,0,0,0,0,0,0,0,0,0,0,0,0,0,0,0,0,0,0,0,0,0,0,0,0,0,0,0,0,0,0,0,0,0,0,
0,0,0,0,0,0,0,0,0,0,0,0,0,0,0,0,0,0,0,0,0,0,0,0,0,0,0,0,0,0,0,0,0,0,0,0,0,0,0,0,0,0,0,0,0,0,0,0,0,0,0,0,0,0,0,0,0,0,0,0,0,0,0,0,0,0,0,0,0,0,0,0,0,0,0,0,0,0,0,0,
0,0,0,0,0,0,0,0,0,0,0,0,0,0,0,0,0,0,0,0,0,0,0,0,0,0,0,0,0,0,0,0,0,0,0,0,0,0,0,0,0,0,0,0,0,0,0,0,0,0,0,0,0,0,0,0,0,0,0,0,0,0,0,0,0,0,0,0,0,0,0,0,0,0,0,0,0,0,0,0,
0,0,0,0,0,0,0,0,0,0,0,0,0,0,0,0,0,0,0,0,0,0,0,0,0,0,0,0,0,0,0,0,0,0,0,0,0,0,0,0,0,0,0,0,0,0,0,0,0,0,0,0,0,0,0,0,0,0,0,0,0,0,0,0,0,0,0,0,0,0,0,0,0,0,0,0,0,0,0,0,
0,0,0,0,0,0,0,0,0,0,0,0,0,0,0,0,0,0,0,0,0,0,0,0,0,0,0,0,0,0,0,0,0,0,0,0,0,0,0,0,0,0,0,0,0,0,0,0,0,0,0,0,0,0,0,0,0,0,0,0,0,0,0,0,0,0,0,0,0,0,0,0,0,0,0,0,0,0,0,0,
0,0,0,0,0,0,0,0,0,0,0,0,0,0,0,0,0,0,0,0,0,0,0,0,0,0,0,0,0,0,0,0,0,0,0,0,0,0,0,0,0,0,0,0,0,0,0,0,0,0,0,0,0,0,0,0,0,0,0,0,0,0,0,0,0,0,0,0,0,0,0,0,0,0,0,0,0,0,0,0,
0,0,0,0,0,0,0,0,0,0,0,0,0,0,0,0,0,0,0,0,0,0,0,0,0,0,0,0,0,0,0,0,0,0,0,0,0,0,0,0,0,0,0,0,0,0,0,0,0,0,0,0,0,0,0,0,0,0,0,0,0,0,0,0,0,0,0,0,0,0,0,0,0,0,0,0,0,0,0,0,
0,0,0,0,0,0,0,0,0,0,0,0,0,0,0,0,0,0,0,0,0,0,0,0,0,0,0,0,0,0,0,0,0,0,0,0,0,0,0,0,0,0,0,0,0,0,0,0,0,0,0,0,0,0,0,0,0,0,0,0,0,0,0,0,0,0,0,0,0,0,0,0,0,0,0,0,0,0,0,0,
0,0,0,0,0,0,0,0,0,0,0,0,0,0,0,0,0,0,0,0,0,0,0,0,0,0,0,0,0,0,0,0,0,0,0,0,0,0,0,0,0,0,0,0,0,0,0,0,0,0,0,0,0,0,0,0,0,0,0,0,0,0,0,0,0,0,0,0,0,0,0,0,0,0,0,0,0,0,0,0,
0,0,0,0,0,0,0,0,0,0,0,0,0,0,0,0,0,0,0,0,0,0,0,0,0,0,0,0,0,0,0,0,0,0,0,0,0,0,0,0,0,0,0,0,0,0,0,0,0,0,0,0,0,0,0,0,0,0,0,0,0,0,0,0,0,0,0,0,0,0,0,0,0,0,0,0,0,0,0,0,
0,0,0,0,0,0,0,0,0,0,0,0,0,0,0,0,0,0,0,0,0,0,0,0,0,0,0,0,0,0,0,0,0,0,0,0,0,0,0,0,0,0,0,0,0,0,0,0,0,0,0,0,0,0,0,0,0,0,0,0,0,0,0,0,0,0,0,0,0,0,0,0,0,0,0,0,0,0,0,0,
0,0,0,0,0,0,0,0,0,0,0,0,0,0,0,0,0,0,0,0,0,0,0,0,0,0,0,0,0,0,0,0,0,0,0,0,0,0,0,0,0,0,0,0,0,0,0,0,0,0,0,0,0,0,0,0,0,0,0,0,0,0,0,0,0,0,0,0,0,0,0,0,0,0,0,0,0,0,0,0,
0,0,0,0,0,0,0,0,0,0,0,0,0,0,0,0,0,0,0,0,0,0,0,0,0,0,0,0,0,0,0,0,0,0,0,0,0,0,0,0,0,0,0,0,0,0,0,0,0,0,0,0,0,0,0,0,0,0,0,0,0,0,0,0,0,0,0,0,0,0,0,0,0,0,0,0,0,0,0,0,
0,0,0,0,0,0,0,0,0,0,0,0,0,0,0,0,0,0,0,0,0,0,0,0,0,0,0,0,0,0,0,0,0,0,0,0,0,0,0,0,0,0,0,0,0,0,0,0,0,0,0,0,0,0,0,0,0,0,0,0,0,0,0,0,0,0,0,0,0,0,0,0,0,0,0,0,0,0,0,0,
0,0,0,0,0,0,0,0,0,0,0,0,0,0,0,0,0,0,0,0,0,0,0,0,0,0,0,0,0,0,0,0,0,0,0,0,0,0,0,0,0,0,0,0,0,0,0,0,0,0,0,0,0,0,0,0,0,0,0,0,0,0,0,0,0,0,0,0,0,0,0,0,0,0,0,0,0,0,0,0,
0,0,0,0,0,0,0,0,0,0,0,0,0,0,0,0,0,0,0,0,0,0,0,0,0,0,0,0,0,0,0,0,0,0,0,0,0,0,0,0,0,0,0,0,0,0,0,0,0,0,0,0,0,0,0,0,0,0,0,0,0,0,0,0,0,0,0,0,0,0,0,0,0,0,0,0,0,0,0,0,
0,0,0,0,0,0,0,0,0,0,0,0,0,0,0,0,0,0,0,0,0,0,0,0,0,0,0,0,0,0,0,0,0,0,0,0,0,0,0,0,0,0,0,0,0,0,0,0,0,0,0,0,0,0,0,0,0,0,0,0,0,0,0,0,0,0,0,0,0,0,0,0,0,0,0,0,0,0,0,0,
0,0,0,0,0,0,0,0,0,0,0,0,0,0,0,0,0,0,0,0,0,0,0,0,0,0,0,0,0,0,0,0,0,0,0,0,0,0,0,0,0,0,0,0,0,0,0,0,0,0,0,0,0,0,0,0,0,0,0,0,0,0,0,0,0,0,0,0,0,0,0,0,0,0,0,0,0,0,0,0,
0,0,0,0,0,0,0,0,0,0,0,0,0,0,0,0,0,0,0,0,0,0,0,0,0,0,0,0,0,0,0,0,0,0,0,0,0,0,0,0,0,0,0,0,0,0,0,0,0,0,0,0,0,0,0,0,0,0,0,0,0,0,0,0,0,0,0,0,0,0,0,0,0,0,0,0,0,0,0,0,
0,0,0,0,0,0,0,0,0,0,0,0,0,0,0,0,0,0,0,0,0,0,0,0,0,0,0,0,0,0,0,0,0,0,0,0,0,0,0,0,0,0,0,0,0,0,0,0,0,0,0,0,0,0,0,0,0,0,0,0,0,0,0,0,0,0,0,0,0,0,0,0,0,0,0,0,0,0,0,0,
0,0,0,0,0,0,0,0,0,0,0,0,0,0,0,0,0,0,0,0,0,0,0,0,0,0,0,0,0,0,0,0,0,0,0,0,0,0,0,0,0,0,0,0,0,0,0,0,0,0,0,0,0,0,0,0,0,0,0,0,0,0,0,0,0,0,0,0,0,0,0,0,0,0,0,0,0,0,0,0,
0,0,0,0,0,0,0,0,0,0,0,0,0,0,0,0,0,0,0,0,0,0,0,0,0,0,0,0,0,0,0,0,0,0,0,0,0,0,0,0,0,0,0,0,0,0,0,0,0,0,0,0,0,0,0,0,0,0,0,0,0,0,0,0,0,0,0,0,0,0,0,0,0,0,0,0,0,0,0,0,
0,0,0,0,0,0,0,0,0,0,0,0,0,0,0,0,0,0,0,0,0,0,0,0,0,0,0,0,0,0,0,0,0,0,0,0,0,0,0,0,0,0,0,0,0,0,0,0,0,0,0,0,0,0,0,0,0,0,0,0,0,0,0,0,0,0,0,0,0,0,0,0,0,0,0,0,0,0,0,0,
0,0,0,0,0,0,0,0,0,0,0,0,0,0,0,0,0,0,0,0,0,0,0,0,0,0,0,0,0,0,0,0,0,0,0,0,0,0,0,0,0,0,0,0,0,0,0,0,0,0,0,0,0,0,0,0,0,0,0,0,0,0,0,0,0,0,0,0,0,0,0,0,0,0,0,0,0,0,0,0,
0,0,0,0,0,0,0,0,0,0,0,0,0,0,0,0,0,0,0,0,0,0,0,0,0,0,0,0,0,0,0,0,0,0,0,0,0,0,0,0,0,0,0,0,0,0,0,0,0,0,0,0,0,0,0,0,0,0,0,0,0,0,0,0,0,0,0,0,0,0,0,0,0,0,0,0,0,0,0,0,
0,0,0,0,0,0,0,0,0,0,0,0,0,0,0,0,0,0,0,0,0,0,0,0,0,0,0,0,0,0,0,0,0,0,0,0,0,0,0,0,0,0,0,0,0,0,0,0,0,0,0,0,0,0,0,0,0,0,0,0,0,0,0,0,0,0,0,0,0,0,0,0,0,0,0,0,0,0,0,0,
0,0,0,0,0,0,0,0,0,0,0,0,0,0,0,0,0,0,0,0,0,0,0,0,0,0,0,0,0,0,0,0,0,0,0,0,0,0,0,0,0,0,0,0,0,0,0,0,0,0,0,0,0,0,0,0,0,0,0,0,0,0,0,0,0,0,0,0,0,0,0,0,0,0,0,0,0,0,0,0,
0,0,0,0,0,0,0,0,0,0,0,0,0,0,0,0,0,0,0,0,0,0,0,0,0,0,0,0,0,0,0,0,0,0,0,0,0,0,0,0,0,0,0,0,0,0,0,0,0,0,0,0,0,0,0,0,0,0,0,0,0,0,0,0,0,0,0,0,0,0,0,0,0,0,0,0,0,0,0,0,
0,0,0,0,0,0,0,0,0,0,0,0,0,0,0,0,0,0,0,0,0,0,0,0,0,0,0,0,0,0,0,0,0,0,0,0,0,0,0,0,0,0,0,0,0,0,0,0,0,0,0,0,0,0,0,0,0,0,0,0,0,0,0,0,0,0,0,0,0,0,0,0,0,0,0,0,0,0,0,0,
0,0,0,0,0,0,0,0,0,0,0,0,0,0,0,0,0,0,0,0,0,0,0,0,0,0,0,0,0,0,0,0,0,0,0,0,0,0,0,0,0,0,0,0,0,0,0,0,0,0,0,0,0,0,0,0,0,0,0,0,0,0,0,0,0,0,0,0,0,0,0,0,0,0,0,0,0,0,0,0,
0,0,0,0,0,0,0,0,0,0,0,0,0,0,0,0,0,0,0,0,0,0,0,0,0,0,0,0,0,0,0,0,0,0,0,0,0,0,0,0,0,0,0,0,0,0,0,0,0,0,0,0,0,0,0,0,0,0,0,0,0,0,0,0,0,0,0,0,0,0,0,0,0,0,0,0,0,0,0,0,
0,0,0,0,0,0,0,0,0,0,0,0,0,0,0,0,0,0,0,0,0,0,0,0,0,0,0,0,0,0,0,0,0,0,0,0,0,0,0,0,0,0,0,0,0,0,0,0,0,0,0,0,0,0,0,0,0,0,0,0,0,0,0,0,0,0,0,0,0,0,0,0,0,0,0,0,0,0,0,0,
0,0,0,0,0,0,0,0,0,0,0,0,0,0,0,0,0,0,0,0,0,0,0,0,0,0,0,0,0,0,0,0,0,0,0,0,0,0,0,0,0,0,0,0,0,0,0,0,0,0,0,0,0,0,0,0,0,0,0,0,0,0,0,0,0,0,0,0,0,0,0,0,0,0,0,0,0,0,0,0,
0,0,0,0,0,0,0,0,0,0,0,0,0,0,0,0,0,0,0,0,0,0,0,0,0,0,0,0,0,0,0,0,0,0,0,0,0,0,0,0,0,0,0,0,0,0,0,0,0,0,0,0,0,0,0,0,0,0,0,0,0,0,0,0,0,0,0,0,0,0,0,0,0,0,0,0,0,0,0,0,
0,0,0,0,0,0,0,0,0,0,0,0,0,0,0,0,0,0,0,0,0,0,0,0,0,0,0,0,0,0,0,0,0,0,0,0,0,0,0,0,0,0,0,0,0,0,0,0,0,0,0,0,0,0,0,0,0,0,0,0,0,0,0,0,0,0,0,0,0,0,0,0,0,0,0,0,0,0,0,0,
0,0,0,0,0,0,0,0,0,0,0,0,0,0,0,0,0,0,0,0,0,0,0,0,0,0,0,0,0,0,0,0,0,0,0,0,0,0,0,0,0,0,0,0,0,0,0,0,0,0,0,0,0,0,0,0,0,0,0,0,0,0,0,0,0,0,0,0,0,0,0,0,0,0,0,0,0,0,0,0,
0,0,0,0,0,0,0,0,0,0,0,0,0,0,0,0,0,0,0,0,0,0,0,0,0,0,0,0,0,0,0,0,0,0,0,0,0,0,0,0,0,0,0,0,0,0,0,0,0,0,0,0,0,0,0,0,0,0,0,0,0,0,0,0,0,0,0,0,0,0,0,0,0,0,0,0,0,0,0,0,
0,0,0,0,0,0,0,0,0,0,0,0,0,0,0,0,0,0,0,0,0,0,0,0,0,0,0,0,0,0,0,0,0,0,0,0,0,0,0,0,0,0,0,0,0,0,0,0,0,0,0,0,0,0,0,0,0,0,0,0,0,0,0,0,0,0,0,0,0,0,0,0,0,0,0,0,0,0,0,0,
0,0,0,0,0,0,0,0,0,0,0,0,0,0,0,0,0,0,0,0,0,0,0,0,0,0,0,0,0,0,0,0,0,0,0,0,0,0,0,0,0,0,0,0,0,0,0,0,0,0,0,0,0,0,0,0,0,0,0,0,0,0,0,0,0,0,0,0,0,0,0,0,0,0,0,0,0,0,0,0,
0,0,0,0,0,0,0,0,0,0,0,0,0,0,0,0,0,0,0,0,0,0,0,0,0,0,0,0,0,0,0,0,0,0,0,0,0,0,0,0,0,0,0,0,0,0,0,0,0,0,0,0,0,0,0,0,0,0,0,0,0,0,0,0,0,0,0,0,0,0,0,0,0,0,0,0,0,0,0,0,
0,0,0,0,0,0,0,0,0,0,0,0,0,0,0,0,0,0,0,0,0,0,0,0,0,0,0,0,0,0,0,0,0,0,0,0,0,0,0,0,0,0,0,0,0,0,0,0,0,0,0,0,0,0,0,0,0,0,0,0,0,0,0,0,0,0,0,0,0,0,0,0,0,0,0,0,0,0,0,0,
0,0,0,0,0,0,0,0,0,0,0,0,0,0,0,0,0,0,0,0,0,0,0,0,0,0,0,0,0,0,0,0,0,0,0,0,0,0,0,0,0,0,0,0,0,0,0,0,0,0,0,0,0,0,0,0,0,0,0,0,0,0,0,0,0,0,0,0,0,0,0,0,0,0,0,0,0,0,0,0,
0,0,0,0,0,0,0,0,0,0,0,0,0,0,0,0,0,0,0,0,0,0,0,0,0,0,0,0,0,0,0,0,0,0,0,0,0,0,0,0,0,0,0,0,0,0,0,0,0,0,0,0,0,0,0,0,0,0,0,0,0,0,0,0,0,0,0,0,0,0,0,0,0,0,0,0,0,0,0,0,
0,0,0,0,0,0,0,0,0,0,0,0,0,0,0,0,0,0,0,0,0,0,0,0,0,0,0,0,0,0,0,0,0,0,0,0,0,0,0,0,0,0,0,0,0,0,0,0,0,0,0,0,0,0,0,0,0,0,0,0,0,0,0,0,0,0,0,0,0,0,0,0,0,0,0,0,0,0,0,0,
0,0,0,0,0,0,0,0,0,0,0,0,0,0,0,0,0,0,0,0,0,0,0,0,0,0,0,0,0,0,0,0,0,0,0,0,0,0,0,0,0,0,0,0,0,0,0,0,0,0,0,0,0,0,0,0,0,0,0,0,0,0,0,0,0,0,0,0,0,0,0,0,0,0,0,0,0,0,0,0,
0,0,0,0,0,0,0,0,0,0,0,0,0,0,0,0,0,0,0,0,0,0,0,0,0,0,0,0,0,0,0,0,0,0,0,0,0,0,0,0,0,0,0,0,0,0,0,0,0,0,0,0,0,0,0,0,0,0,0,0,0,0,0,0,0,0,0,0,0,0,0,0,0,0,0,0,0,0,0,0,
0,0,0,0,0,0,0,0,0,0,0,0,0,0,0,0,0,0,0,0,0,0,0,0,0,0,0,0,0,0,0,0,0,0,0,0,0,0,0,0,0,0,0,0,0,0,0,0,0,0,0,0,0,0,0,0,0,0,0,0,0,0,0,0,0,0,0,0,0,0,0,0,0,0,0,0,0,0,0,0,
0,0,0,0,0,0,0,0,0,0,0,0,0,0,0,0,0,0,0,0,0,0,0,0,0,0,0,0,0,0,0,0,0,0,0,0,0,0,0,0,0,0,0,0,0,0,0,0,0,0,0,0,0,0,0,0,0,0,0,0,0,0,0,0,0,0,0,0,0,0,0,0,0,0,0,0,0,0,0,0,
0,0,0,0,0,0,0,0,0,0,0,0,0,0,0,0,0,0,0,0,0,0,0,0,0,0,0,0,0,0,0,0,0,0,0,0,0,0,0,0,0,0,0,0,0,0,0,0,0,0,0,0,0,0,0,0,0,0,0,0,0,0,0,0,0,0,0,0,0,0,0,0,0,0,0,0,0,0,0,0,
0,0,0,0,0,0,0,0,0,0,0,0,0,0,0,0,0,0,0,0,0,0,0,0,0,0,0,0,0,0,0,0,0,0,0,0,0,0,0,0,0,0,0,0,0,0,0,0,0,0,0,0,0,0,0,0,0,0,0,0,0,0,0,0,0,0,0,0,0,0,0,0,0,0,0,0,0,0,0,0,
0,0,0,0,0,0,0,0,0,0,0,0,0,0,0,0,0,0,0,0,0,0,0,0,0,0,0,0,0,0,0,0,0,0,0,0,0,0,0,0,0,0,0,0,0,0,0,0,0,0,0,0,0,0,0,0,0,0,0,0,0,0,0,0,0,0,0,0,0,0,0,0,0,0,0,0,0,0,0,0,
0,0,0,0,0,0,0,0,0,0,0,0,0,0,0,0,0,0,0,0,0,0,0,0,0,0,0,0,0,0,0,0,0,0,0,0,0,0,0,0,0,0,0,0,0,0,0,0,0,0,0,0,0,0,0,0,0,0,0,0,0,0,0,0,0,0,0,0,0,0,0,0,0,0,0,0,0,0,0,0,
0,0,0,0,0,0,0,0,0,0,0,0,0,0,0,0,0,0,0,0,0,0,0,0,0,0,0,0,0,0,0,0,0,0,0,0,0,0,0,0,0,0,0,0,0,0,0,0,0,0,0,0,0,0,0,0,0,0,0,0,0,0,0,0,0,0,0,0,0,0,0,0,0,0,0,0,0,0,0,0,
0,0,0,0,0,0,0,0,0,0,0,0,0,0,0,0,0,0,0,0,0,0,0,0,0,0,0,0,0,0,0,0,0,0,0,0,0,0,0,0,0,0,0,0,0,0,0,0,0,0,0,0,0,0,0,0,0,0,0,0,0,0,0,0,0,0,0,0,0,0,0,0,0,0,0,0,0,0,0,0,
0,0,0,0,0,0,0,0,0,0,0,0,0,0,0,0,0,0,0,0,0,0,0,0,0,0,0,0,0,0,0,0,0,0,0,0,0,0,0,0,0,0,0,0,0,0,0,0,0,0,0,0,0,0,0,0,0,0,0,0,0,0,0,0,0,0,0,0,0,0,0,0,0,0,0,0,0,0,0,0,
0,0,0,0,0,0,0,0,0,0,0,0,0,0,0,0,0,0,0,0,0,0,0,0,0,0,0,0,0,0,0,0,0,0,0,0,0,0,0,0,0,0,0,0,0,0,0,0,0,0,0,0,0,0,0,0,0,0,0,0,0,0,0,0,0,0,0,0,0,0,0,0,0,0,0,0,0,0,0,0,
0,0,0,0,0,0,0,0,0,0,0,0,0,0,0,0,0,0,0,0,0,0,0,0,0,0,0,0,0,0,0,0,0,0,0,0,0,0,0,0,0,0,0,0,0,0,0,0,0,0,0,0,0,0,0,0,0,0,0,0,0,0,0,0,0,0,0,0,0,0,0,0,0,0,0,0,0,0,0,0,
0,0,0,0,0,0,0,0,0,0,0,0,0,0,0,0,0,0,0,0,0,0,0,0,0,0,0,0,0,0,0,0,0,0,0,0,0,0,0,0,0,0,0,0,0,0,0,0,0,0,0,0,0,0,0,0,0,0,0,0,0,0,0,0,0,0,0,0,0,0,0,0,0,0,0,0,0,0,0,0,
0,0,0,0,0,0,0,0,0,0,0,0,0,0,0,0,0,0,0,0,0,0,0,0,0,0,0,0,0,0,0,0,0,0,0,0,0,0,0,0,0,0,0,0,0,0,0,0,0,0,0,0,0,0,0,0,0,0,0,0,0,0,0,0,0,0,0,0,0,0,0,0,0,0,0,0,0,0,0,0,
0,0,0,0,0,0,0,0,0,0,0,0,0,0,0,0,0,0,0,0,0,0,0,0,0,0,0,0,0,0,0,0,0,0,0,0,0,0,0,0,0,0,0,0,0,0,0,0,0,0,0,0,0,0,0,0,0,0,0,0,0,0,0,0,0,0,0,0,0,0,0,0,0,0,0,0,0,0,0,0,
0,0,0,0,0,0,0,0,0,0,0,0,0,0,0,0,0,0,0,0,0,0,0,0,0,0,0,0,0,0,0,0,0,0,0,0,0,0,0,0,0,0,0,0,0,0,0,0,0,0,0,0,0,0,0,0,0,0,0,0,0,0,0,0,0,0,0,0,0,0,0,0,0,0,0,0,0,0,0,0,
0,0,0,0,0,0,0,0,0,0,0,0,0,0,0,0,0,0,0,0,0,0,0,0,0,0,0,0,0,0,0,0,0,0,0,0,0,0,0,0,0,0,0,0,0,0,0,0,0,0,0,0,0,0,0,0,0,0,0,0,0,0,0,0,0,0,0,0,0,0,0,0,0,0,0,0,0,0,0,0,
0,0,0,0,0,0,0,0,0,0,0,0,0,0,0,0,0,0,0,0,0,0,0,0,0,0,0,0,0,0,0,0,0,0,0,0,0,0,0,0,0,0,0,0,0,0,0,0,0,0,0,0,0,0,0,0,0,0,0,0,0,0,0,0,0,0,0,0,0,0,0,0,0,0,0,0,0,0,0,0,
0,0,0,0,0,0,0,0,0,0,0,0,0,0,0,0,0,0,0,0,0,0,0,0,0,0,0,0,0,0,0,0,0,0,0,0,0,0,0,0,0,0,0,0,0,0,0,0,0,0,0,0,0,0,0,0,0,0,0,0,0,0,0,0,0,0,0,0,0,0,0,0,0,0,0,0,0,0,0,0
</data>
 </layer>
 <objectgroup name="upper"/>
 <imagelayer name="godrays_1" opacity="0.5" offsetx="96" offsety="864">
  <image source="../art/parallax/godrays.png" width="145" height="1200"/>
  <properties>
   <property name="max_shimmer" type="float" value="0.5"/>
   <property name="min_shimmer" type="float" value="0.33"/>
   <property name="movespeed" type="float" value="1"/>
   <property name="shimmer" type="bool" value="true"/>
  </properties>
 </imagelayer>
 <layer name="Collision7" width="80" height="70" visible="0">
  <data encoding="csv">
0,0,0,0,0,0,0,0,0,0,0,0,0,0,0,0,0,0,0,0,0,0,0,0,0,0,0,0,0,0,0,0,0,0,0,0,0,0,0,0,0,0,0,0,0,0,0,0,0,0,0,0,0,0,0,0,0,0,0,0,0,0,0,0,0,0,0,0,0,0,0,0,0,0,0,0,0,0,0,0,
0,0,0,0,0,0,0,0,0,0,0,0,0,0,0,0,0,0,0,0,0,0,0,0,0,0,0,0,0,0,0,0,0,0,0,0,0,0,0,0,0,0,0,0,0,0,0,0,0,0,0,0,0,0,0,0,0,0,0,0,0,0,0,0,0,0,0,0,0,0,0,0,0,0,0,0,0,0,0,0,
0,0,0,0,0,0,0,0,0,0,0,0,0,0,0,0,0,0,0,0,0,0,0,0,0,0,0,0,0,0,0,0,0,0,0,0,0,0,0,0,0,0,0,0,0,0,0,0,0,0,0,0,0,0,0,0,0,0,0,0,0,0,0,0,0,0,0,0,0,0,0,0,0,0,0,0,0,0,0,0,
0,0,0,0,0,0,0,0,0,0,0,0,0,0,0,0,0,0,0,0,0,0,0,0,0,0,0,0,0,0,0,0,0,0,0,0,0,0,0,0,0,0,0,0,0,0,0,0,0,0,0,0,0,0,0,0,0,0,0,0,0,0,0,0,0,0,0,0,0,0,0,0,0,0,0,0,0,0,0,0,
0,0,0,0,0,0,0,0,0,0,0,0,0,0,0,0,0,0,0,0,0,0,0,0,0,0,0,0,0,0,0,0,0,0,0,0,0,0,0,0,0,0,0,0,0,0,0,0,0,0,0,0,0,0,0,0,0,0,0,0,0,0,0,0,0,0,0,0,0,0,0,0,0,0,0,0,0,0,0,0,
0,0,0,0,0,0,0,0,0,0,0,0,0,0,0,0,0,0,0,0,0,0,0,0,0,0,0,0,0,0,0,0,0,0,0,0,0,0,0,0,0,0,0,0,0,0,0,0,0,0,0,0,0,0,0,0,0,0,0,0,0,0,0,0,0,0,0,0,0,0,0,0,0,0,0,0,0,0,0,0,
0,0,0,0,0,0,0,0,0,0,0,0,0,0,0,0,0,0,0,0,0,0,0,0,0,0,0,0,0,0,0,0,0,0,0,0,0,0,0,0,0,0,0,0,0,0,0,0,0,0,0,0,0,0,0,0,0,0,0,0,0,0,0,0,0,0,0,0,0,0,0,0,0,0,0,0,0,0,0,0,
0,0,0,0,0,0,0,0,0,0,0,0,0,0,0,0,0,0,0,0,0,0,0,0,0,0,0,0,0,0,0,0,0,0,0,0,0,0,0,0,0,0,0,0,0,0,0,0,0,0,0,0,0,0,0,0,0,0,0,0,0,0,0,0,0,0,0,0,0,0,0,0,0,0,0,0,0,0,0,0,
0,0,0,0,0,0,0,0,0,0,0,0,0,0,0,0,0,0,0,0,0,0,0,0,0,0,0,0,0,0,0,0,0,0,0,0,0,0,0,0,0,0,0,0,0,0,0,0,0,0,0,0,0,0,0,0,0,0,0,0,0,0,0,0,0,0,0,0,0,0,0,0,0,0,0,0,0,0,0,0,
0,0,0,0,0,0,0,0,0,0,0,0,0,0,0,0,0,0,0,0,0,0,0,0,0,0,0,0,0,0,0,0,0,0,0,0,0,0,0,0,0,0,0,0,0,0,0,0,0,0,0,0,0,0,0,0,0,0,0,0,0,0,0,0,0,0,0,0,0,0,0,0,0,0,0,0,0,0,0,0,
0,0,0,0,0,0,0,0,0,0,0,0,0,0,0,0,0,0,0,0,0,0,0,0,0,0,0,0,0,0,0,0,0,0,0,0,0,0,0,0,0,0,0,0,0,0,0,0,0,0,0,0,0,0,0,0,0,0,0,0,0,0,0,0,0,0,0,0,0,0,0,0,0,0,0,0,0,0,0,0,
0,0,0,0,0,0,0,0,0,0,0,0,0,0,0,0,0,0,0,0,0,0,0,0,0,0,0,0,0,0,0,0,0,0,0,0,0,0,0,0,0,0,0,0,0,0,0,0,0,0,0,0,0,0,0,0,0,0,0,0,0,0,0,0,0,0,0,0,0,0,0,0,0,0,0,0,0,0,0,0,
0,0,0,0,0,0,0,0,0,0,0,0,0,0,0,0,0,0,0,0,0,0,0,0,0,0,0,0,0,0,0,0,0,0,0,0,0,0,0,0,0,0,0,0,0,0,0,0,0,0,0,0,0,0,0,0,0,0,0,0,0,0,0,0,0,0,0,0,0,0,0,0,0,0,0,0,0,0,0,0,
0,0,0,0,0,0,0,0,0,0,0,0,0,0,0,0,0,0,0,0,0,0,0,0,0,0,0,0,0,0,0,0,0,0,0,0,0,0,0,0,0,0,0,0,0,0,0,0,0,0,0,0,0,0,0,0,0,0,0,0,0,0,0,0,0,0,0,0,0,0,0,0,0,0,0,0,0,0,0,0,
0,0,0,0,0,0,0,0,0,0,0,0,0,0,0,0,0,0,0,0,0,0,0,0,0,0,0,0,0,0,0,0,0,0,0,0,0,0,0,0,0,0,0,0,0,0,0,0,0,0,0,0,0,0,0,0,0,0,0,0,0,0,0,0,0,0,0,0,0,0,0,0,0,0,0,0,0,0,0,0,
0,0,0,0,0,0,0,0,0,0,0,0,0,0,0,0,0,0,0,0,0,0,0,0,0,0,0,0,0,0,0,0,0,0,0,0,0,0,0,0,0,0,0,0,0,0,0,0,0,0,0,0,0,0,0,0,0,0,0,0,0,0,0,0,0,0,0,0,0,0,0,0,0,0,0,0,0,0,0,0,
0,0,0,0,0,0,0,0,0,0,0,0,0,0,0,0,0,0,0,0,0,0,0,0,0,0,0,0,0,0,0,0,0,0,0,0,0,0,0,0,0,0,0,0,0,0,0,0,0,0,0,0,0,0,0,0,0,0,0,0,0,0,0,0,0,0,0,0,0,0,0,0,0,0,0,0,0,0,0,0,
0,0,0,0,0,0,0,0,0,0,0,0,0,0,0,0,0,0,0,0,0,0,0,0,0,0,0,0,0,0,0,0,0,0,0,0,0,0,0,0,0,0,0,0,0,0,0,0,0,0,0,0,0,0,0,0,0,0,0,0,0,0,0,0,0,0,0,0,0,0,0,0,0,0,0,0,0,0,0,0,
0,0,0,0,0,0,0,0,0,0,0,0,0,0,0,0,0,0,0,0,0,0,0,0,0,0,0,0,0,0,0,0,0,0,0,0,0,0,0,0,0,0,0,0,0,0,0,0,0,0,0,0,0,0,0,0,0,0,0,0,0,0,0,0,0,0,0,0,0,0,0,0,0,0,0,0,0,0,0,0,
0,0,0,0,0,0,0,0,0,0,0,0,0,0,0,0,0,0,0,0,0,0,0,0,0,0,0,0,0,0,0,0,0,0,0,0,0,0,0,0,0,0,0,0,0,0,0,0,0,0,0,0,0,0,0,0,0,0,0,0,0,0,0,0,0,0,0,0,0,0,0,0,0,0,0,0,0,0,0,0,
0,0,0,0,0,0,0,0,0,0,0,0,0,0,0,0,0,0,0,0,0,0,0,0,0,0,0,0,0,0,0,0,0,0,0,0,0,0,0,0,0,0,0,0,0,0,0,0,0,0,0,0,0,0,0,0,0,0,0,0,0,0,0,0,0,0,0,0,0,0,0,0,0,0,0,0,0,0,0,0,
0,0,0,0,0,0,0,0,0,0,0,0,0,0,0,0,0,0,0,0,0,0,0,0,0,0,0,0,0,0,0,0,0,0,0,0,0,0,0,0,0,0,0,0,0,0,0,0,0,0,0,0,0,0,0,0,0,0,0,0,0,0,0,0,0,0,0,0,0,0,0,0,0,0,0,0,0,0,0,0,
0,0,0,0,0,0,0,0,0,0,0,0,0,0,0,0,0,0,0,0,0,0,0,0,0,0,0,0,0,0,0,0,0,0,0,0,0,0,0,0,0,0,0,0,0,0,0,0,0,0,0,0,0,0,0,0,0,0,0,0,0,0,0,0,0,0,0,0,0,0,0,0,0,0,0,0,0,0,0,0,
0,0,0,0,0,0,0,0,0,0,0,0,0,0,0,0,0,0,0,0,0,0,0,0,0,0,0,0,0,0,0,0,0,0,0,0,0,0,0,0,0,0,0,0,0,0,0,0,0,0,0,0,0,0,0,0,0,0,0,0,0,0,0,0,0,0,0,0,0,0,0,0,0,0,0,0,0,0,0,0,
0,0,0,0,0,0,0,0,0,0,0,0,0,0,0,0,0,0,0,0,0,0,0,0,0,0,0,0,0,0,0,0,0,0,0,0,0,0,0,0,0,0,0,0,0,0,0,0,0,0,0,0,0,0,0,0,0,0,0,0,0,0,0,0,0,0,0,0,0,0,0,0,0,0,0,0,0,0,0,0,
0,0,0,0,0,0,0,0,0,0,0,0,0,0,0,0,0,0,0,0,0,0,0,0,0,0,0,0,0,0,0,0,0,0,0,0,0,0,0,0,0,0,0,0,0,0,0,0,0,0,0,0,0,0,0,0,0,0,0,0,0,0,0,0,0,0,0,0,0,0,0,0,0,0,0,0,0,0,0,0,
0,0,0,0,0,0,0,0,0,0,0,0,0,0,0,0,0,0,0,0,0,0,0,0,0,0,0,0,0,0,0,0,0,0,0,0,0,0,0,0,0,0,0,0,0,0,0,0,0,0,0,0,0,0,0,0,0,0,0,0,0,0,0,0,0,0,0,0,0,0,0,0,0,0,0,0,0,0,0,0,
0,0,0,0,0,0,0,0,0,0,0,0,0,0,0,0,0,0,0,0,0,0,0,0,0,0,0,0,0,0,0,0,0,0,0,0,0,0,0,0,0,0,0,0,0,0,0,0,0,0,0,0,0,0,0,0,0,0,0,0,0,0,0,0,0,0,0,0,0,0,0,0,0,0,0,0,0,0,0,0,
0,0,0,0,0,0,0,0,0,0,0,0,0,0,0,0,0,0,0,0,0,0,0,0,0,0,0,0,0,0,0,0,0,0,0,0,0,0,0,0,0,0,0,0,0,0,0,0,0,0,0,0,0,0,0,0,0,0,0,0,0,0,0,0,0,0,0,0,0,0,0,0,0,0,0,0,0,0,0,0,
0,0,0,0,0,0,0,0,0,0,0,0,0,0,0,0,0,0,0,0,0,0,0,0,0,0,0,0,0,0,0,0,0,0,0,0,0,0,0,0,0,0,0,0,0,0,0,0,0,0,0,0,0,0,0,0,0,0,0,0,0,0,0,0,0,0,0,0,0,0,0,0,0,0,0,0,0,0,0,0,
0,0,0,0,0,0,0,0,0,0,0,0,0,9482,9482,9482,9482,9482,9482,9482,9482,9482,9482,9482,9482,9482,9482,9482,9482,9482,9482,9482,9482,9482,9482,9482,9482,9482,9482,9482,9482,9482,9482,9482,9482,9482,9482,9482,9482,9482,9482,9482,9482,9482,9482,9482,9482,9482,9482,9482,9482,9482,9482,9482,9482,9482,9482,9482,9482,9482,9482,9482,9482,9482,9482,9482,9482,9482,9482,9482,
0,0,0,0,0,0,0,0,0,0,0,0,0,9482,9482,9482,9482,9482,9482,9482,9482,9482,9482,9482,9482,9482,9482,9482,9482,9482,9482,9482,9482,9482,9482,9482,9482,9482,9482,9482,9482,9482,9482,9482,9482,9482,9482,9482,9482,9482,9482,9482,9482,9482,9482,9482,9482,9482,9482,9482,9482,9482,9482,9482,9482,9482,9482,9482,9482,9482,9482,9482,9482,9482,9482,9482,9482,9482,9482,9482,
0,0,0,0,0,0,0,0,0,0,0,0,0,9482,9482,9482,9482,9482,9482,9482,9482,9482,9482,9482,9482,9482,9482,9482,9482,9482,9482,9482,9482,9482,9482,9482,9482,9482,9482,9482,9482,9482,9482,9482,9482,9482,9482,9482,9482,9482,9482,9482,9482,9482,9482,9482,9482,9482,9482,9482,9482,9482,9482,9482,9482,9482,9482,9482,9482,9482,9482,9482,9482,9482,9482,9482,9482,9482,9482,9482,
0,0,0,0,0,0,0,0,0,0,0,0,0,9482,9482,9482,9482,9482,9482,9482,9482,9482,9482,9482,9482,9482,9482,9482,9482,9482,9482,9482,9482,9482,9482,9482,9482,9482,9482,9482,9482,9482,9482,9482,9482,9482,9482,9482,9482,9482,9482,9482,9482,9482,9482,9482,9482,9482,9482,9482,9482,9482,9482,9482,9482,9482,9482,9482,9482,9482,9482,9482,9482,9482,9482,9482,9482,9482,9482,9482,
0,0,0,0,0,0,0,0,0,0,0,0,0,9482,9482,9482,9482,9482,9482,9482,9482,9482,9482,9482,9482,9482,9482,9482,9482,9482,9482,9482,9482,9482,9482,9482,9482,9482,9482,9482,9482,9482,9482,9482,9482,9482,9482,9482,9482,9482,9482,9482,9482,9482,9482,9482,9482,9482,9482,9482,9482,9482,9482,9482,9482,9482,9482,9482,9482,9482,9482,9482,9482,9482,9482,9482,9482,9482,9482,9482,
0,0,0,0,0,0,0,0,0,0,0,0,0,9482,9482,9482,9482,9482,9482,9482,9482,9482,9482,9482,9482,9482,9482,9482,9482,9482,9482,9482,9482,9482,9482,9482,9482,9482,9482,9482,9482,9482,9482,9482,9482,9482,9482,9482,9482,9482,9482,9482,9482,9482,9482,9482,9482,9482,9482,9482,9482,9482,9482,9482,9482,9482,9482,9482,9482,9482,9482,9482,9482,9482,9482,9482,9482,9482,9482,9482,
0,0,0,0,0,0,0,0,0,0,0,0,0,9482,9482,9482,9482,9482,9482,9482,9482,9482,9482,9482,9482,9482,9482,9482,9482,9482,9482,9482,9482,9482,9482,9482,9482,9482,9482,9482,9482,9482,9482,9482,9482,9482,9482,9482,9482,9482,9482,9482,9482,9482,9482,9482,9482,9482,9482,9482,9482,9482,9482,9482,9482,9482,9482,9482,9482,9482,9482,9482,9482,9482,9482,9482,9482,9482,9482,9482,
0,0,0,0,0,0,0,0,0,0,0,0,0,9482,9482,9482,9482,9482,9482,9482,9482,9482,9482,9482,9482,9482,9482,9482,9482,9482,9482,9482,9482,9482,9482,9482,9482,9482,9482,9482,9482,9482,9482,9482,9482,9482,9482,9482,9482,9482,9482,9482,9482,9482,9482,9482,9482,9482,9482,9482,9482,9482,9482,9482,9482,9482,9482,9482,9482,9482,9482,9482,9482,9482,9482,9482,9482,9482,9482,9482,
0,0,0,0,0,0,0,0,0,0,0,0,0,9482,9482,9482,9482,9482,9482,9482,9482,9482,9482,9482,9482,9482,9482,9482,9482,9482,9482,9482,9482,9482,9482,9482,9482,9482,9482,9482,9482,9482,9482,9482,9482,9482,9482,9482,9482,9482,9482,9482,9482,9482,9482,9482,9482,9482,9482,9482,9482,9482,9482,9482,9482,9482,9482,9482,9482,9482,9482,9482,9482,9482,9482,9482,9482,9482,9482,9482,
0,0,0,0,0,0,0,0,0,0,0,0,0,9482,9482,9482,9482,9482,9482,9482,9482,9482,9482,9482,9482,9482,9482,9482,9482,9482,9482,9482,9482,9482,9482,9482,9482,9482,9482,9482,9482,9482,9482,9482,9482,9482,9482,9482,9482,9482,9482,9482,9482,9482,9482,9482,9482,9482,9482,9482,9482,9482,9482,9482,9482,9482,9482,9482,9482,9482,9482,9482,9482,9482,9482,9482,9482,9482,9482,9482,
0,0,0,0,0,0,0,0,0,0,0,0,0,9482,9482,9482,9482,9482,9482,9482,9482,9482,9482,9482,9482,9482,9482,9482,9482,9482,9482,9482,9482,9482,9482,9482,9482,9482,9482,9482,9482,9482,9482,9482,9482,9482,9482,9482,9482,9482,9482,9482,9482,9482,9482,9482,9482,9482,9482,9482,9482,9482,9482,9482,9482,9482,9482,9482,9482,9482,9482,9482,9482,9482,9482,9482,9482,9482,9482,9482,
0,0,0,0,0,0,0,0,0,0,0,0,0,9482,9482,9482,9482,9482,9482,9482,9482,9482,9482,9482,9482,9482,9482,9482,9482,9482,9482,9482,9482,9482,9482,9482,9482,9482,9482,9482,9482,9482,9482,9482,9482,9482,9482,9482,9482,9482,9482,9482,9482,9482,9482,9482,9482,9482,9482,9482,9482,9482,9482,9482,9482,9482,9482,9482,9482,9482,9482,9482,9482,9482,9482,9482,9482,9482,9482,9482,
0,0,0,0,0,0,0,0,0,0,0,0,0,9482,9482,9482,9482,9482,9482,9482,9482,9482,9482,9482,9482,9482,9482,9482,9482,9482,9482,9482,9482,9482,9482,9482,9482,9482,9482,9482,9482,9482,9482,9482,9482,9482,9482,9482,9482,9482,9482,9482,9482,9482,9482,9482,9482,9482,9482,9482,9482,9482,9482,9482,9482,9482,9482,9482,9482,9482,9482,9482,9482,9482,9482,9482,9482,9482,9482,9482,
0,0,0,0,0,0,0,0,0,0,0,0,0,9482,9482,9482,9482,9482,9482,9482,9482,9482,9482,9482,9482,9482,9482,9482,9482,9482,9482,9482,9482,9482,9482,9482,9482,9482,9482,9482,9482,9482,9482,9482,9482,9482,9482,9482,9482,9482,9482,9482,9482,9482,9482,9482,9482,9482,9482,9482,9482,9482,9482,9482,9482,9482,9482,9482,9482,9482,9482,9482,9482,9482,9482,9482,9482,9482,9482,9482,
0,0,0,0,0,0,0,0,0,0,0,0,0,9482,9482,9482,9482,9482,9482,9482,9482,9482,9482,9482,9482,9482,9482,9482,9482,9482,9482,9482,9482,9482,9482,9482,9482,9482,9482,9482,9482,9482,9482,9482,9482,9482,9482,9482,9482,9482,9482,9482,9482,9482,9482,9482,9482,9482,9482,9482,9482,9482,9482,9482,9482,9482,9482,9482,9482,9482,9482,9482,9482,9482,9482,9482,9482,9482,9482,9482,
0,0,0,0,0,0,0,0,0,0,0,0,0,9482,9482,9482,9482,9482,9482,9482,9482,9482,9482,9482,9482,9482,9482,9482,9482,9482,9482,9482,9482,9482,9482,9482,9482,9482,9482,9482,9482,9482,9482,9482,9482,9482,9482,9482,9482,9482,9482,9482,9482,9482,9482,9482,9482,9482,9482,9482,9482,9482,9482,9482,9482,9482,9482,9482,9482,9482,9482,9482,9482,9482,9482,9482,9482,9482,9482,9482,
0,0,0,0,0,0,0,0,0,0,0,0,0,9482,9482,9482,9482,9482,9482,9482,9482,9482,9482,9482,9482,9482,9482,9482,9482,9482,9482,9482,9482,9482,9482,9482,9482,9482,9482,9482,9482,9482,9482,9482,9482,9482,9482,9482,9482,9482,9482,9482,9482,9482,9482,9482,9482,9482,9482,9482,9482,9482,9482,9482,9482,9482,9482,9482,9482,9482,9482,9482,9482,9482,9482,9482,9482,9482,9482,9482,
0,0,0,0,0,0,0,0,0,0,0,0,0,9482,9482,9482,9482,9482,9482,9482,9482,9482,9482,9482,9482,9482,9482,9482,9482,9482,9482,9482,9482,9482,9482,9482,9482,9482,9482,9482,9482,9482,9482,9482,9482,9482,9482,9482,9482,9482,9482,9482,9482,9482,9482,9482,9482,9482,9482,9482,9482,9482,9482,9482,9482,9482,9482,9482,9482,9482,9482,9482,9482,9482,9482,9482,9482,9482,9482,9482,
0,0,0,0,0,0,0,0,0,0,0,0,0,9482,9482,9482,9482,9482,9482,9482,9482,9482,9482,9482,9482,9482,9482,9482,9482,9482,9482,9482,9482,9482,9482,9482,9482,9482,9482,9482,9482,9482,9482,9482,9482,9482,9482,9482,9482,9482,9482,9482,9482,9482,9482,9482,9482,9482,9482,9482,9482,9482,9482,9482,9482,9482,9482,9482,9482,9482,9482,9482,9482,9482,9482,9482,9482,9482,9482,9482,
0,0,0,0,0,0,0,0,0,0,0,0,0,9482,9482,9482,9482,9482,9482,9482,9482,9482,9482,9482,9482,9482,9482,9482,9482,9482,9482,9482,9482,9482,9482,9482,9482,9482,9482,9482,9482,9482,9482,9482,9482,9482,9482,9482,9482,9482,9482,9482,9482,9482,9482,9482,9482,9482,9482,9482,9482,9482,9482,9482,9482,9482,9482,9482,9482,9482,9482,9482,9482,9482,9482,9482,9482,9482,9482,9482,
0,0,0,0,0,0,0,0,0,0,0,0,0,9482,9482,9482,9482,9482,9482,9482,9482,9482,9482,9482,9482,9482,9482,9482,9482,9482,9482,9482,9482,9482,9482,9482,9482,9482,9482,9482,9482,9482,9482,9482,9482,9482,9482,9482,9482,9482,9482,9482,9482,9482,9482,9482,9482,9482,9482,9482,9482,9482,9482,9482,9482,9482,9482,9482,9482,9482,9482,9482,9482,9482,9482,9482,9482,9482,9482,9482,
0,0,0,0,0,0,0,0,0,0,0,0,0,9482,9482,9482,9482,9482,9482,9482,9482,9482,9482,9482,9482,9482,9482,9482,9482,9482,9482,9482,9482,9482,9482,9482,9482,9482,9482,9482,9482,9482,9482,9482,9482,9482,9482,9482,9482,9482,9482,9482,9482,9482,9482,9482,9482,9482,9482,9482,9482,9482,9482,9482,9482,9482,9482,9482,9482,9482,9482,9482,9482,9482,9482,9482,9482,9482,9482,9482,
0,0,0,0,0,0,0,0,0,0,0,0,0,9482,9482,9482,9482,9482,9482,9482,9482,9482,9482,9482,9482,9482,9482,9482,9482,9482,9482,9482,9482,9482,9482,9482,9482,9482,9482,9482,9482,9482,9482,9482,9482,9482,9482,9482,9482,9482,9482,9482,9482,9482,9482,9482,9482,9482,9482,9482,9482,9482,9482,9482,9482,9482,9482,9482,9482,9482,9482,9482,9482,9482,9482,9482,9482,9482,9482,9482,
0,0,0,0,0,0,0,0,0,0,0,0,0,9482,9482,9482,9482,9482,9482,9482,9482,9482,9482,9482,9482,9482,9482,9482,9482,9482,9482,9482,9482,9482,9482,9482,9482,9482,9482,9482,9482,9482,9482,9482,9482,9482,9482,9482,9482,9482,9482,9482,9482,9482,9482,9482,9482,9482,9482,9482,9482,9482,9482,9482,9482,9482,9482,9482,9482,9482,9482,9482,9482,9482,9482,9482,9482,9482,9482,9482,
0,0,0,0,0,0,0,0,0,0,0,0,0,9482,9482,9482,9482,9482,9482,9482,9482,9482,9482,9482,9482,9482,9482,9482,9482,9482,9482,9482,9482,9482,9482,9482,9482,9482,9482,9482,9482,9482,9482,9482,9482,9482,9482,9482,9482,9482,9482,9482,9482,9482,9482,9482,9482,9482,9482,9482,9482,9482,9482,9482,9482,9482,9482,9482,9482,9482,9482,9482,9482,9482,9482,9482,9482,9482,9482,9482,
0,0,0,0,0,0,0,0,0,0,0,0,0,9482,9482,9482,9482,9482,9482,9482,9482,9482,9482,9482,9482,9482,9482,9482,9482,9482,9482,9482,9482,9482,9482,9482,9482,9482,9482,9482,9482,9482,9482,9482,9482,9482,9482,9482,9482,9482,9482,9482,9482,9482,9482,9482,9482,9482,9482,9482,9482,9482,9482,9482,9482,9482,9482,9482,9482,9482,9482,9482,9482,9482,9482,9482,9482,9482,9482,9482,
0,0,0,0,0,0,0,0,0,0,0,0,0,9482,9482,9482,9482,9482,9482,9482,9482,9482,9482,9482,9482,9482,9482,9482,9482,9482,9482,9482,9482,9482,9482,9482,9482,9482,9482,9482,9482,9482,9482,9482,9482,9482,9482,9482,9482,9482,9482,9482,9482,9482,9482,9482,9482,9482,9482,9482,9482,9482,9482,9482,9482,9482,9482,9482,9482,9482,9482,9482,9482,9482,9482,9482,9482,9482,9482,9482,
0,0,0,0,0,0,0,0,0,0,0,0,0,9482,9482,9482,9482,9482,9482,9482,9482,9482,9482,9482,9482,9482,9482,9482,9482,9482,9482,9482,9482,9482,9482,9482,9482,9482,9482,9482,9482,9482,9482,9482,9482,9482,9482,9482,9482,9482,9482,9482,9482,9482,9482,9482,9482,9482,9482,9482,9482,9482,9482,9482,9482,9482,9482,9482,9482,9482,9482,9482,9482,9482,9482,9482,9482,9482,9482,9482,
0,0,0,0,0,0,0,0,0,0,0,0,0,9482,9482,9482,9482,9482,9482,9482,9482,9482,9482,9482,9482,9482,9482,9482,9482,9482,9482,9482,9482,9482,9482,9482,9482,9482,9482,9482,9482,9482,9482,9482,9482,9482,9482,9482,9482,9482,9482,9482,9482,9482,9482,9482,9482,9482,9482,9482,9482,9482,9482,9482,9482,9482,9482,9482,9482,9482,9482,9482,9482,9482,9482,9482,9482,9482,9482,9482,
0,0,0,0,0,0,0,0,0,0,0,0,0,9482,9482,9482,9482,9482,9482,9482,9482,9482,9482,9482,9482,9482,9482,9482,9482,9482,9482,9482,9482,9482,9482,9482,9482,9482,9482,9482,9482,9482,9482,9482,9482,9482,9482,9482,9482,9482,9482,9482,9482,9482,9482,9482,9482,9482,9482,9482,9482,9482,9482,9482,9482,9482,9482,9482,9482,9482,9482,9482,9482,9482,9482,9482,9482,9482,9482,9482,
0,0,0,0,0,0,0,0,0,0,0,0,0,9482,9482,9482,9482,9482,9482,9482,9482,9482,9482,9482,9482,9482,9482,9482,9482,9482,9482,9482,9482,9482,9482,9482,9482,9482,9482,9482,9482,9482,9482,9482,9482,9482,9482,9482,9482,9482,9482,9482,9482,9482,9482,9482,9482,9482,9482,9482,9482,9482,9482,9482,9482,9482,9482,9482,9482,9482,9482,9482,9482,9482,9482,9482,9482,9482,9482,9482,
0,0,0,0,0,0,0,0,0,0,0,0,0,9482,9482,9482,9482,9482,9482,9482,9482,9482,9482,9482,9482,9482,9482,9482,9482,9482,9482,9482,9482,9482,9482,9482,9482,9482,9482,9482,9482,9482,9482,9482,9482,9482,9482,9482,9482,9482,9482,9482,9482,9482,9482,9482,9482,9482,9482,9482,9482,9482,9482,9482,9482,9482,9482,9482,9482,9482,9482,9482,9482,9482,9482,9482,9482,9482,9482,9482,
0,0,0,0,0,0,0,0,0,0,0,0,0,9482,9482,9482,9482,9482,9482,9482,9482,9482,9482,9482,9482,9482,9482,9482,9482,9482,9482,9482,9482,9482,9482,9482,9482,9482,9482,9482,9482,9482,9482,9482,9482,9482,9482,9482,9482,9482,9482,9482,9482,9482,9482,9482,9482,9482,9482,9482,9482,9482,9482,9482,9482,9482,9482,9482,9482,9482,9482,9482,9482,9482,9482,9482,9482,9482,9482,9482,
0,0,0,0,0,0,0,0,0,0,0,0,0,9482,9482,9482,9482,9482,9482,9482,9482,9482,9482,9482,9482,9482,9482,9482,9482,9482,9482,9482,9482,9482,9482,9482,9482,9482,9482,9482,9482,9482,9482,9482,9482,9482,9482,9482,9482,9482,9482,9482,9482,9482,9482,9482,9482,9482,9482,9482,9482,9482,9482,9482,9482,9482,9482,9482,9482,9482,9482,9482,9482,9482,9482,9482,9482,9482,9482,9482,
0,0,0,0,0,0,0,0,0,0,0,0,0,9482,9482,9482,9482,9482,9482,9482,9482,9482,9482,9482,9482,9482,9482,9482,9482,9482,9482,9482,9482,9482,9482,9482,9482,9482,9482,9482,9482,9482,9482,9482,9482,9482,9482,9482,9482,9482,9482,9482,9482,9482,9482,9482,9482,9482,9482,9482,9482,9482,9482,9482,9482,9482,9482,9482,9482,9482,9482,9482,9482,9482,9482,9482,9482,9482,9482,9482,
0,0,0,0,0,0,0,0,0,0,0,0,0,9482,9482,9482,9482,9482,9482,9482,9482,9482,9482,9482,9482,9482,9482,9482,9482,9482,9482,9482,9482,9482,9482,9482,9482,9482,9482,9482,9482,9482,9482,9482,9482,9482,9482,9482,9482,9482,9482,9482,9482,9482,9482,9482,9482,9482,9482,9482,9482,9482,9482,9482,9482,9482,9482,9482,9482,9482,9482,9482,9482,9482,9482,9482,9482,9482,9482,9482,
0,0,0,0,0,0,0,0,0,0,0,0,0,9482,9482,9482,9482,9482,9482,9482,9482,9482,9482,9482,9482,9482,9482,9482,9482,9482,9482,9482,9482,9482,9482,9482,9482,9482,9482,9482,9482,9482,9482,9482,9482,9482,9482,9482,9482,9482,9482,9482,9482,9482,9482,9482,9482,9482,9482,9482,9482,9482,9482,9482,9482,9482,9482,9482,9482,9482,9482,9482,9482,9482,9482,9482,9482,9482,9482,9482,
0,0,0,0,0,0,0,0,0,0,0,0,0,9482,9482,9482,9482,9482,9482,9482,9482,9482,9482,9482,9482,9482,9482,9482,9482,9482,9482,9482,9482,9482,9482,9482,9482,9482,9482,9482,9482,9482,9482,9482,9482,9482,9482,9482,9482,9482,9482,9482,9482,9482,9482,9482,9482,9482,9482,9482,9482,9482,9482,9482,9482,9482,9482,9482,9482,9482,9482,9482,9482,9482,9482,9482,9482,9482,9482,9482,
0,0,0,0,0,0,0,0,0,0,0,0,0,9482,9482,9482,9482,9482,9482,9482,9482,9482,9482,9482,9482,9482,9482,9482,9482,9482,9482,9482,9482,9482,9482,9482,9482,9482,9482,9482,9482,9482,9482,9482,9482,9482,9482,9482,9482,9482,9482,9482,9482,9482,9482,9482,9482,9482,9482,9482,9482,9482,9482,9482,9482,9482,9482,9482,9482,9482,9482,9482,9482,9482,9482,9482,9482,9482,9482,9482,
0,0,0,0,0,0,0,0,0,0,0,0,0,9482,9482,9482,9482,9482,9482,9482,9482,9482,9482,9482,9482,9482,9482,9482,9482,9482,9482,9482,9482,9482,9482,9482,9482,9482,9482,9482,9482,9482,9482,9482,9482,9482,9482,9482,9482,9482,9482,9482,9482,9482,9482,9482,9482,9482,9482,9482,9482,9482,9482,9482,9482,9482,9482,9482,9482,9482,9482,9482,9482,9482,9482,9482,9482,9482,9482,9482
</data>
 </layer>
 <layer name="Collision6" width="80" height="70" visible="0">
  <data encoding="csv">
0,0,0,0,0,0,0,0,0,0,0,0,0,0,0,0,0,0,0,0,0,0,0,0,0,0,0,0,0,0,0,0,0,0,0,0,0,0,0,0,0,0,0,0,0,0,0,0,0,0,0,0,0,0,0,0,0,0,0,0,0,0,0,0,0,0,0,0,0,0,0,0,0,0,0,0,0,0,0,0,
0,0,0,0,0,0,0,0,0,0,0,0,0,0,0,0,0,0,0,0,0,0,0,0,0,0,0,0,0,0,0,0,0,0,0,0,0,0,0,0,0,0,0,0,0,0,0,0,0,0,0,0,0,0,0,0,0,0,0,0,0,0,0,0,0,0,0,0,0,0,0,0,0,0,0,0,0,0,0,0,
0,0,0,0,0,0,0,0,0,0,0,0,0,0,0,0,0,0,0,0,0,0,0,0,0,0,0,0,0,0,0,0,0,0,0,0,0,0,0,0,0,0,0,0,0,0,0,0,0,0,0,0,0,0,0,0,0,0,0,0,0,0,0,0,0,0,0,0,0,0,0,0,0,0,0,0,0,0,0,0,
0,0,0,0,0,0,0,0,0,0,0,0,0,0,0,0,0,0,0,0,0,0,0,0,0,0,0,0,0,0,0,0,0,0,0,0,0,0,0,0,0,0,0,0,0,0,0,0,0,0,0,0,0,0,0,0,0,0,0,0,0,0,0,0,0,0,0,0,0,0,0,0,0,0,0,0,0,0,0,0,
0,0,0,0,0,0,0,0,0,0,0,0,0,0,0,0,0,0,0,0,0,0,0,0,0,0,0,0,0,0,0,0,0,0,0,0,0,0,0,0,0,0,0,0,0,0,0,0,0,0,0,0,0,0,0,0,0,0,0,0,0,0,0,0,0,0,0,0,0,0,0,0,0,0,0,0,0,0,0,0,
0,0,0,0,0,0,0,0,0,0,0,0,0,0,0,0,0,0,0,0,0,0,0,0,0,0,0,0,0,0,0,0,0,0,0,0,0,0,0,0,0,0,0,0,0,0,0,0,0,0,0,0,0,0,0,0,0,0,0,0,0,0,0,0,0,0,0,0,0,0,0,0,0,0,0,0,0,0,0,0,
0,0,0,0,0,0,0,0,0,0,0,0,0,0,0,0,0,0,0,0,0,0,0,0,0,0,0,0,0,0,0,0,0,0,0,0,0,0,0,0,0,0,0,0,0,0,0,0,0,0,0,0,0,0,0,0,0,0,0,0,0,0,0,0,0,0,0,0,0,0,0,0,0,0,0,0,0,0,0,0,
0,0,0,0,0,0,0,0,0,0,0,0,0,0,0,0,0,0,0,0,0,0,0,0,0,0,0,0,0,0,0,0,0,0,0,0,0,0,0,0,0,0,0,0,0,0,0,0,0,0,0,0,0,0,0,0,0,0,0,0,0,0,0,0,0,0,0,0,0,0,0,0,0,0,0,0,0,0,0,0,
0,0,0,0,0,0,0,0,0,0,0,0,0,0,0,0,0,0,0,0,0,0,0,0,0,0,0,0,0,0,0,0,0,0,0,0,0,0,0,0,0,0,0,0,0,0,0,0,0,0,0,0,0,0,0,0,0,0,0,0,0,0,0,0,0,0,0,0,0,0,0,0,0,0,0,0,0,0,0,0,
0,0,0,0,0,0,0,0,0,0,0,0,0,0,0,0,0,0,0,0,0,0,0,0,0,0,0,0,0,0,0,0,0,0,0,0,0,0,0,0,0,0,0,0,0,0,0,0,0,0,0,0,0,0,0,0,0,0,0,0,0,0,0,0,0,0,0,0,0,0,0,0,0,0,0,0,0,0,0,0,
0,0,0,0,0,0,0,0,0,0,0,0,0,0,0,0,0,0,0,0,0,0,0,0,0,0,0,0,0,0,0,0,0,0,0,0,0,0,0,0,0,0,0,0,0,0,0,0,0,0,0,0,0,0,0,0,0,0,0,0,0,0,0,0,0,0,0,0,0,0,0,0,0,0,0,0,0,0,0,0,
0,0,0,0,0,0,0,0,0,0,0,0,0,0,0,0,0,0,0,0,0,0,0,0,0,0,0,0,0,0,0,0,0,0,0,0,0,0,0,0,0,0,0,0,0,0,0,0,0,0,0,0,0,0,0,0,0,0,0,0,0,0,0,0,0,0,0,0,0,0,0,0,0,0,0,0,0,0,0,0,
0,0,0,0,0,0,0,0,0,0,0,0,0,0,0,0,0,0,0,0,0,0,0,0,0,0,0,0,0,0,0,0,0,0,0,0,0,0,0,0,0,0,0,0,0,0,0,0,0,0,0,0,0,0,0,0,0,0,0,0,0,0,0,0,0,0,0,0,0,0,0,0,0,0,0,0,0,0,0,0,
0,0,0,0,0,0,0,0,0,0,0,0,0,0,0,0,0,0,0,0,0,0,0,0,0,0,0,0,0,0,0,0,0,0,0,0,0,0,0,0,0,0,0,0,0,0,0,0,0,0,0,0,0,0,0,0,0,0,0,0,0,0,0,0,0,0,0,0,0,0,0,0,0,0,0,0,0,0,0,0,
0,0,0,0,0,0,0,0,0,0,0,0,0,0,0,0,0,0,0,0,0,0,0,0,0,0,0,0,0,0,0,0,0,0,0,0,0,0,0,0,0,0,0,0,0,0,0,0,0,0,0,0,0,0,0,0,0,0,0,0,0,0,0,0,0,0,0,0,0,0,0,0,0,0,0,0,0,0,0,0,
0,0,0,0,0,0,0,0,0,0,0,0,0,0,0,0,0,0,0,0,0,0,0,0,0,0,0,0,0,0,0,0,0,0,0,0,0,0,0,0,0,0,0,0,0,0,0,0,0,0,0,0,0,0,0,0,0,0,0,0,0,0,0,0,0,0,0,0,0,0,0,0,0,0,0,0,0,0,0,0,
0,0,0,0,0,0,0,0,0,0,0,0,0,0,0,0,0,0,0,0,0,0,0,0,0,0,0,0,0,0,0,0,0,0,0,0,0,0,0,0,0,0,0,0,0,0,0,0,0,0,0,0,0,0,0,0,0,0,0,0,0,0,0,0,0,0,0,0,0,0,0,0,0,0,0,0,0,0,0,0,
0,0,0,0,0,0,0,0,0,0,0,0,0,0,0,0,0,0,0,0,0,0,0,0,0,0,0,0,0,0,0,0,0,0,0,0,0,0,0,0,0,0,0,0,0,0,0,0,0,0,0,0,0,0,0,0,0,0,0,0,0,0,0,0,0,0,0,0,0,0,0,0,0,0,0,0,0,0,0,0,
0,0,0,0,0,0,0,0,0,0,0,0,0,0,0,0,0,0,0,0,0,0,0,0,0,0,0,0,0,0,0,0,0,0,0,0,0,0,0,0,0,0,0,0,0,0,0,0,0,0,0,0,0,0,0,0,0,0,0,0,0,0,0,0,0,0,0,0,0,0,0,0,0,0,0,0,0,0,0,0,
0,0,0,0,0,0,0,0,0,0,0,0,0,0,0,0,0,0,0,0,0,0,0,0,0,0,0,0,0,0,0,0,0,0,0,0,0,0,0,0,0,0,0,0,0,0,0,0,0,0,0,0,0,0,0,0,0,0,0,0,0,0,0,0,0,0,0,0,0,0,0,0,0,0,0,0,0,0,0,0,
0,0,0,0,0,0,0,0,0,0,0,0,0,0,0,0,0,0,0,0,0,0,0,0,0,0,0,0,0,0,0,0,0,0,0,0,0,0,0,0,0,0,0,0,0,0,0,0,0,0,0,0,0,0,0,0,0,0,0,0,0,0,0,0,0,0,0,0,0,0,0,0,0,0,0,0,0,0,0,0,
0,0,0,0,0,0,0,0,0,0,0,0,0,0,0,0,0,0,0,0,0,0,0,0,0,0,0,0,0,0,0,0,0,0,0,0,0,0,0,0,0,0,0,0,0,0,0,0,0,0,0,0,0,0,0,0,0,0,0,0,0,0,0,0,0,0,0,0,0,0,0,0,0,0,0,0,0,0,0,0,
0,0,0,0,0,0,0,0,0,0,0,0,0,0,0,0,0,0,0,0,0,0,0,0,0,0,0,0,0,0,0,0,0,0,0,0,0,0,0,0,0,0,0,0,0,0,0,0,0,0,0,0,0,0,0,0,0,0,0,0,0,0,0,0,0,0,0,0,0,0,0,0,0,0,0,0,0,0,0,0,
0,0,0,0,0,0,0,0,0,0,0,0,0,0,0,0,0,0,0,0,0,0,0,0,0,0,0,0,0,0,0,0,0,0,0,0,0,0,0,0,0,0,0,0,0,0,0,0,0,0,0,0,0,0,0,0,0,0,0,0,0,0,0,0,0,0,0,0,0,0,0,0,0,0,0,0,0,0,0,0,
0,0,0,0,0,0,0,0,0,0,0,0,0,0,0,0,0,0,0,0,0,0,0,0,0,0,0,0,0,0,0,0,0,0,0,0,0,0,0,0,0,0,0,0,0,0,0,0,0,0,0,0,0,0,0,0,0,0,0,0,0,0,0,0,0,0,0,0,0,0,0,0,0,0,0,0,0,0,0,0,
0,0,0,0,0,0,0,0,0,0,0,0,0,0,0,0,0,0,0,0,0,0,0,0,0,0,0,0,0,0,0,0,0,0,0,0,0,0,0,0,0,0,0,0,0,0,0,0,0,0,0,0,0,0,0,0,0,0,0,0,0,0,0,0,0,0,0,0,0,0,0,0,0,0,0,0,0,0,0,0,
0,0,0,0,0,0,0,0,0,0,0,0,0,0,0,0,0,0,0,0,0,0,0,0,0,0,0,0,0,0,0,0,0,0,0,0,0,0,0,0,0,0,0,0,0,0,0,0,0,0,0,0,0,0,0,0,0,0,0,0,0,0,0,0,0,0,0,0,0,0,0,0,0,0,0,0,0,0,0,0,
0,0,0,0,0,0,0,0,0,0,0,0,0,0,0,0,0,0,0,0,0,0,0,0,0,0,0,0,0,0,0,0,0,0,0,0,0,0,0,0,0,0,0,0,0,0,0,0,0,0,0,0,0,0,0,0,0,0,0,0,0,0,0,0,0,0,0,0,0,0,0,0,0,0,0,0,0,0,0,0,
0,0,0,0,0,0,0,0,0,0,0,0,0,0,0,0,0,0,0,0,0,0,0,0,0,0,0,0,0,0,0,0,0,0,0,0,0,0,0,0,0,0,0,0,0,0,0,0,0,0,0,0,0,0,0,0,0,0,0,0,0,0,0,0,0,0,0,0,0,0,0,0,0,0,0,0,0,0,0,0,
0,0,0,0,0,0,0,0,0,0,0,0,0,0,0,0,0,0,0,0,0,0,0,0,0,0,0,0,0,0,0,0,0,0,0,0,0,0,0,0,0,0,0,0,0,0,0,0,0,0,0,0,0,0,0,0,0,0,0,0,0,0,0,0,0,0,0,0,0,0,0,0,0,0,0,0,0,0,0,0,
0,0,0,0,0,0,0,0,0,0,0,0,0,0,0,0,0,0,0,0,0,0,0,0,0,0,0,0,0,0,0,0,0,0,0,0,0,0,0,0,0,0,0,0,0,0,0,0,0,0,0,0,0,0,0,0,0,0,0,0,0,0,0,0,0,0,0,0,0,0,0,0,0,0,0,0,0,0,0,0,
0,0,0,0,0,0,0,0,0,0,0,0,0,0,0,0,0,0,0,0,0,0,0,0,0,0,0,0,0,0,0,0,0,0,0,0,0,0,0,0,0,0,0,0,0,0,0,0,0,0,0,0,0,0,0,0,0,0,0,0,0,0,0,0,0,0,0,0,0,0,0,0,0,0,0,0,0,0,0,0,
0,0,0,0,0,0,0,0,0,0,0,0,0,0,0,0,0,0,0,0,0,0,0,0,0,0,0,0,0,0,0,0,0,0,0,0,0,0,0,0,0,0,0,0,0,0,0,0,0,0,0,0,0,0,0,0,0,0,0,0,0,0,0,0,0,0,0,0,0,0,0,0,0,0,0,0,0,0,0,0,
0,0,0,0,0,0,0,0,0,0,0,0,0,0,0,0,0,0,0,0,0,0,0,0,0,0,0,0,0,0,0,0,0,0,0,0,0,0,0,0,0,0,0,0,0,0,0,0,0,0,0,0,0,0,0,0,0,0,0,0,0,0,0,0,0,0,0,0,0,0,0,0,0,0,0,0,0,0,0,0,
0,0,0,0,0,0,0,0,0,0,0,0,0,0,0,0,0,0,0,0,0,0,0,0,0,0,0,0,0,0,0,0,0,0,0,0,0,0,0,0,0,0,0,0,0,0,0,0,0,0,0,0,0,0,0,0,0,0,0,0,0,0,0,0,0,0,0,0,0,0,0,0,0,0,0,0,0,0,0,0,
0,0,0,0,0,0,0,0,0,0,0,0,0,0,0,0,0,0,0,0,0,0,0,0,0,0,0,0,0,0,0,0,0,0,0,0,0,0,0,0,0,0,0,0,0,0,0,0,0,0,0,0,0,0,0,0,0,0,0,0,0,0,0,0,0,0,0,0,0,0,0,0,0,0,0,0,0,0,0,0,
0,0,0,0,0,0,0,0,0,0,0,0,0,0,0,0,0,0,0,0,0,0,0,0,0,0,0,0,0,0,0,0,0,0,0,0,0,0,0,0,0,0,0,0,0,0,0,0,0,0,0,0,0,0,0,0,0,0,0,0,0,0,0,0,0,0,0,0,0,0,0,0,0,0,0,0,0,0,0,0,
0,0,0,0,0,0,0,0,0,0,0,0,0,0,0,0,0,0,0,0,0,0,0,0,0,0,0,0,0,0,0,0,0,0,0,0,0,0,0,0,0,0,0,0,0,0,0,0,0,0,0,0,0,0,0,0,0,0,0,0,0,0,0,0,0,0,0,0,0,0,0,0,0,0,0,0,0,0,0,0,
0,0,0,0,0,0,0,0,0,0,0,0,0,0,0,0,0,0,0,0,0,0,0,0,0,0,0,0,0,0,0,0,0,0,0,0,0,0,0,0,0,0,0,0,0,0,0,0,0,0,0,0,0,0,0,0,0,0,0,0,0,0,0,0,0,0,0,0,0,0,0,0,0,0,0,0,0,0,0,0,
0,0,0,0,0,0,0,0,0,0,0,0,0,0,0,0,0,0,0,0,0,0,0,0,0,0,0,0,0,0,0,0,0,0,0,0,0,0,0,0,0,0,0,0,0,0,0,0,0,0,0,0,0,0,0,0,0,0,0,0,0,0,0,0,0,0,0,0,0,0,0,0,0,0,0,0,0,0,0,0,
0,0,0,0,0,0,0,0,0,0,0,0,0,0,0,0,0,0,0,0,0,0,0,0,0,0,0,0,0,0,0,0,0,0,0,0,0,0,0,0,0,0,0,0,0,0,0,0,0,0,0,0,0,0,0,0,0,0,0,0,0,0,0,0,0,0,0,0,0,0,0,0,0,0,0,0,0,0,0,0,
0,0,0,0,0,0,0,0,0,0,0,0,0,0,0,0,0,0,0,0,0,0,0,0,0,0,0,0,0,0,0,0,0,0,0,0,0,0,0,0,0,0,0,0,0,0,0,0,0,0,0,0,0,0,0,0,0,0,0,0,0,0,0,0,0,0,0,0,0,0,0,0,0,0,0,0,0,0,0,0,
0,0,0,0,0,0,0,0,0,0,0,0,0,0,0,0,0,0,0,0,0,0,0,0,0,0,0,0,0,0,0,0,0,0,0,0,0,0,0,0,0,0,0,0,0,0,0,0,0,0,0,0,0,0,0,0,0,0,0,0,0,0,0,0,0,0,0,0,0,0,0,0,0,0,0,0,0,0,0,0,
0,0,0,0,0,0,0,0,0,0,0,0,0,0,0,0,0,0,0,0,0,0,0,0,0,0,0,0,0,0,0,0,0,0,0,0,0,0,0,0,0,0,0,0,0,0,0,0,0,0,0,0,0,0,0,0,0,0,0,0,0,0,0,0,0,0,0,0,0,0,0,0,0,0,0,0,0,0,0,0,
0,0,0,0,0,0,0,0,0,0,0,0,0,0,0,0,0,0,0,0,0,0,0,0,0,0,0,0,0,0,0,0,0,0,0,0,0,0,0,0,0,0,0,0,0,0,0,0,0,0,0,0,0,0,0,0,0,0,0,0,0,0,0,0,0,0,0,0,0,0,0,0,0,0,0,0,0,0,0,0,
0,0,0,0,0,0,0,0,0,0,0,0,0,0,0,0,0,0,0,0,0,0,0,0,0,0,0,0,0,0,0,0,0,0,0,0,0,0,0,0,0,0,0,0,0,0,0,0,0,0,0,0,0,0,0,0,0,0,0,0,0,0,0,0,0,0,0,0,0,0,0,0,0,0,0,0,0,0,0,0,
0,0,0,0,0,0,0,0,0,0,0,0,0,0,0,0,0,0,0,0,0,0,0,0,0,0,0,0,0,0,0,0,0,0,0,0,0,0,0,0,0,0,0,0,0,0,0,0,0,0,0,0,0,0,0,0,0,0,0,0,0,0,0,0,0,0,0,0,0,0,0,0,0,0,0,0,0,0,0,0,
0,0,0,0,0,0,0,0,0,0,0,0,0,0,0,0,0,0,0,0,0,0,0,0,0,0,0,0,0,0,0,0,0,0,0,0,0,0,0,0,0,0,0,0,0,0,0,0,0,0,0,0,0,0,0,0,0,0,0,0,0,0,0,0,0,0,0,0,0,0,0,0,0,0,0,0,0,0,0,0,
0,0,0,0,0,0,0,0,0,0,0,0,0,0,0,0,0,0,0,0,0,0,0,0,0,0,0,0,0,0,0,0,0,0,0,0,0,0,0,0,0,0,0,0,0,0,0,0,0,0,0,0,0,0,0,0,0,0,0,0,0,0,0,0,0,0,0,0,0,0,0,0,0,0,0,0,0,0,0,0,
0,0,0,0,0,0,0,0,0,0,0,0,0,0,0,0,0,0,0,0,0,0,0,0,0,0,0,0,0,0,0,0,0,0,0,0,0,0,0,0,0,0,0,0,0,0,0,0,0,0,0,0,0,0,0,0,0,0,0,0,0,0,0,0,0,0,0,0,0,0,0,0,0,0,0,0,0,0,0,0,
0,0,0,0,0,0,0,0,0,0,0,0,0,0,0,0,0,0,0,0,0,0,0,0,0,0,0,0,0,0,0,0,0,0,0,0,0,0,0,0,0,0,0,0,0,0,0,0,0,0,0,0,0,0,0,0,0,0,0,0,0,0,0,0,0,0,0,0,0,0,0,0,0,0,0,0,0,0,0,0,
0,0,0,0,0,0,0,0,0,0,0,0,0,0,0,0,0,0,0,0,0,0,0,0,0,0,0,0,0,0,0,0,0,0,0,0,0,0,0,0,0,0,0,0,0,0,0,0,0,0,0,0,0,0,0,0,0,0,0,0,0,0,0,0,0,0,0,0,0,0,0,0,0,0,0,0,0,0,0,0,
0,0,0,0,0,0,0,0,0,0,0,0,0,0,0,0,0,0,0,0,0,0,0,0,0,0,0,0,0,0,0,0,0,0,0,0,0,0,0,0,0,0,0,0,0,0,0,0,0,0,0,0,0,0,0,0,0,0,0,0,0,0,0,0,0,0,0,0,0,0,0,0,0,0,0,0,0,0,0,0,
0,0,0,0,0,0,0,0,0,0,0,0,0,0,0,0,0,0,0,0,0,0,0,0,0,0,0,0,0,0,0,0,0,0,0,0,0,0,0,0,0,0,0,0,0,0,0,0,0,0,0,0,0,0,0,0,0,0,0,0,0,0,0,0,0,0,0,0,0,0,0,0,0,0,0,0,0,0,0,0,
0,0,0,0,0,0,0,0,0,0,0,0,0,0,0,0,0,0,0,0,0,0,0,0,0,0,0,0,0,0,0,0,0,0,0,0,0,0,0,0,0,0,0,0,0,0,0,0,0,0,0,0,0,0,0,0,0,0,0,0,0,0,0,0,0,0,0,0,0,0,0,0,0,0,0,0,0,0,0,0,
0,0,0,0,0,0,0,0,0,0,0,0,0,0,0,0,0,0,0,0,0,0,0,0,0,0,0,0,0,0,0,0,0,0,0,0,0,0,0,0,0,0,0,0,0,0,0,0,0,0,0,0,0,0,0,0,0,0,0,0,0,0,0,0,0,0,0,0,0,0,0,0,0,0,0,0,0,0,0,0,
0,0,0,0,0,0,0,0,0,0,0,0,0,0,0,0,0,0,0,0,0,0,0,0,0,0,0,0,0,0,0,0,0,0,0,0,0,0,0,0,0,0,0,0,0,0,0,0,0,0,0,0,0,0,0,0,0,0,0,0,0,0,0,0,0,0,0,0,0,0,0,0,0,0,0,0,0,0,0,0,
0,0,0,0,0,0,0,0,0,0,0,0,0,0,0,0,0,0,0,0,0,0,0,0,0,0,0,0,0,0,0,0,0,0,0,0,0,0,0,0,0,0,0,0,0,0,0,0,0,0,0,0,0,0,0,0,0,0,0,0,0,0,0,0,0,0,0,0,0,0,0,0,0,0,0,0,0,0,0,0,
0,0,0,0,0,0,0,0,0,0,0,0,0,0,0,0,0,0,0,0,0,0,0,0,0,0,0,0,0,0,0,0,0,0,0,0,0,0,0,0,0,0,0,0,0,0,0,0,0,0,0,0,0,0,0,0,0,0,0,0,0,0,0,0,0,0,0,0,0,0,0,0,0,0,0,0,0,0,0,0,
0,0,0,0,0,0,0,0,0,0,0,0,0,0,0,0,0,0,0,0,0,0,0,0,0,0,0,0,0,0,0,0,0,0,0,0,0,0,0,0,0,0,0,0,0,0,0,0,0,0,0,0,0,0,0,0,0,0,0,0,0,0,0,0,0,0,0,0,0,0,0,0,0,0,0,0,0,0,0,0,
0,0,0,0,0,0,0,0,0,0,0,0,0,0,0,0,0,0,0,0,0,0,0,0,0,0,0,0,0,0,0,0,0,0,0,0,0,0,0,0,0,0,0,0,0,0,0,0,0,0,0,0,0,0,0,0,0,0,0,0,0,0,0,0,0,0,0,0,0,0,0,0,0,0,0,0,0,0,0,0,
0,0,0,0,0,0,0,0,0,0,0,0,0,0,0,0,0,0,0,0,0,0,0,0,0,0,0,0,0,0,0,0,0,0,0,0,0,0,0,0,0,0,0,0,0,0,0,0,0,0,0,0,0,0,0,0,0,0,0,0,0,0,0,0,0,0,0,0,0,0,0,0,0,0,0,0,0,0,0,0,
0,0,0,0,0,0,0,0,0,0,0,0,0,0,0,0,0,0,0,0,0,0,0,0,0,0,0,0,0,0,0,0,0,0,0,0,0,0,0,0,0,0,0,0,0,0,0,0,0,0,0,0,0,0,0,0,0,0,0,0,0,0,0,0,0,0,0,0,0,0,0,0,0,0,0,0,0,0,0,0,
0,0,0,0,0,0,0,0,0,0,0,0,0,0,0,0,0,0,0,0,0,0,0,0,0,0,0,0,0,0,0,0,0,0,0,0,0,0,0,0,0,0,0,0,0,0,0,0,0,0,0,0,0,0,0,0,0,0,0,0,0,0,0,0,0,0,0,0,0,0,0,0,0,0,0,0,0,0,0,0,
0,0,0,0,0,0,0,0,0,0,0,0,0,0,0,0,0,0,0,0,0,0,0,0,0,0,0,0,0,0,0,0,0,0,0,0,0,0,0,0,0,0,0,0,0,0,0,0,0,0,0,0,0,0,0,0,0,0,0,0,0,0,0,0,0,0,0,0,0,0,0,0,0,0,0,0,0,0,0,0,
0,0,0,0,0,0,0,0,0,0,0,0,0,0,0,0,0,0,0,0,0,0,0,0,0,0,0,0,0,0,0,0,0,0,0,0,0,0,0,0,0,0,0,0,0,0,0,0,0,0,0,0,0,0,0,0,0,0,0,0,0,0,0,0,0,0,0,0,0,0,0,0,0,0,0,0,0,0,0,0,
0,0,0,0,0,0,0,0,0,0,0,0,0,0,0,0,0,0,0,0,0,0,0,0,0,0,0,0,0,0,0,0,0,0,0,0,0,0,0,0,0,0,0,0,0,0,0,0,0,0,0,0,0,0,0,0,0,0,0,0,0,0,0,0,0,0,0,0,0,0,0,0,0,0,0,0,0,0,0,0,
0,0,0,0,0,0,0,0,0,0,0,0,0,0,0,0,0,0,0,0,0,0,0,0,0,0,0,0,0,0,0,0,0,0,0,0,0,0,0,0,0,0,0,0,0,0,0,0,0,0,0,0,0,0,0,0,0,0,0,0,0,0,0,0,0,0,0,0,0,0,0,0,0,0,0,0,0,0,0,0,
0,0,0,0,0,0,0,0,0,0,0,0,0,0,0,0,0,0,0,0,0,0,0,0,0,0,0,0,0,0,0,0,0,0,0,0,0,0,0,0,0,0,0,0,0,0,0,0,0,0,0,0,0,0,0,0,0,0,0,0,0,0,0,0,0,0,0,0,0,0,0,0,0,0,0,0,0,0,0,0,
0,0,0,0,0,0,0,0,0,0,0,0,0,0,0,0,0,0,0,0,0,0,0,0,0,0,0,0,0,0,0,0,0,0,0,0,0,0,0,0,0,0,0,0,0,0,0,0,0,0,0,0,0,0,0,0,0,0,0,0,0,0,0,0,0,0,0,0,0,0,0,0,0,0,0,0,0,0,0,0
</data>
 </layer>
 <layer name="Collision5" width="80" height="70" visible="0">
  <data encoding="csv">
0,0,0,0,0,0,0,0,0,0,0,0,0,0,0,0,0,0,0,0,0,0,0,0,0,0,0,0,0,0,0,0,0,0,0,0,0,0,0,0,0,0,0,0,0,0,0,0,0,0,0,0,0,0,0,0,0,0,0,0,0,0,0,0,0,0,0,0,0,0,0,0,0,0,0,0,0,0,0,0,
0,0,0,0,0,0,0,0,0,0,0,0,0,0,0,0,0,0,0,0,0,0,0,0,0,0,0,0,0,0,0,0,0,0,0,0,0,0,0,0,0,0,0,0,0,0,0,0,0,0,0,0,0,0,0,0,0,0,0,0,0,0,0,0,0,0,0,0,0,0,0,0,0,0,0,0,0,0,0,0,
0,0,0,0,0,0,0,0,0,0,0,0,0,0,0,0,0,0,0,0,0,0,0,0,0,0,0,0,0,0,0,0,0,0,0,0,0,0,0,0,0,0,0,0,0,0,0,0,0,0,0,0,0,0,0,0,0,0,0,0,0,0,0,0,0,0,0,0,0,0,0,0,0,0,0,0,0,0,0,0,
0,0,0,0,0,0,0,0,0,0,0,0,0,0,0,0,0,0,0,0,0,0,0,0,0,0,0,0,0,0,0,0,0,0,0,0,0,0,0,0,0,0,0,0,0,0,0,0,0,0,0,0,0,0,0,0,0,0,0,0,0,0,0,0,0,0,0,0,0,0,0,0,0,0,0,0,0,0,0,0,
0,0,0,0,0,0,0,0,0,0,0,0,0,0,0,0,0,0,0,0,0,0,0,0,0,0,0,0,0,0,0,0,0,0,0,0,0,0,0,0,0,0,0,0,0,0,0,0,0,0,0,0,0,0,0,0,0,0,0,0,0,0,0,0,0,0,0,0,0,0,0,0,0,0,0,0,0,0,0,0,
0,0,0,0,0,0,0,0,0,0,0,0,0,0,0,0,0,0,0,0,0,0,0,0,0,0,0,0,0,0,0,0,0,0,0,0,0,0,0,0,0,0,0,0,0,0,0,0,0,0,0,0,0,0,0,0,0,0,0,0,0,0,0,0,0,0,0,0,0,0,0,0,0,0,0,0,0,0,0,0,
0,0,0,0,0,0,0,0,0,0,0,0,0,0,0,0,0,0,0,0,0,0,0,0,0,0,0,0,0,0,0,0,0,0,0,0,0,0,0,0,0,0,0,0,0,0,0,0,0,0,0,0,0,0,0,0,0,0,0,0,0,0,0,0,0,0,0,0,0,0,0,0,0,0,0,0,0,0,0,0,
0,0,0,0,0,0,0,0,0,0,0,0,0,0,0,0,0,0,0,0,0,0,0,0,0,0,0,0,0,0,0,0,0,0,0,0,0,0,0,0,0,0,0,0,0,0,0,0,0,0,0,0,0,0,0,0,0,0,0,0,0,0,0,0,0,0,0,0,0,0,0,0,0,0,0,0,0,0,0,0,
0,0,0,0,0,0,0,0,0,0,0,0,0,0,0,0,0,0,0,0,0,0,0,0,0,0,0,0,0,0,0,0,0,0,0,0,0,0,0,0,0,0,0,0,0,0,0,0,0,0,0,0,0,0,0,0,0,0,0,0,0,0,0,0,0,0,0,0,0,0,0,0,0,0,0,0,0,0,0,0,
0,0,0,0,0,0,0,0,0,0,0,0,0,0,0,0,0,0,0,0,0,0,0,0,0,0,0,0,0,0,0,0,0,0,0,0,0,0,0,0,0,0,0,0,0,0,0,0,0,0,0,0,0,0,0,0,0,0,0,0,0,0,0,0,0,0,0,0,0,0,0,0,0,0,0,0,0,0,0,0,
0,0,0,0,0,0,0,0,0,0,0,0,0,0,0,0,0,0,0,0,0,0,0,0,0,0,0,0,0,0,0,0,0,0,0,0,0,0,0,0,0,0,0,0,0,0,0,0,0,0,0,0,0,0,0,0,0,0,0,0,0,0,0,0,0,0,0,0,0,0,0,0,0,0,0,0,0,0,0,0,
0,0,0,0,0,0,0,0,0,0,0,0,0,0,0,0,0,0,0,0,0,0,0,0,0,0,0,0,0,0,0,0,0,0,0,0,0,0,0,0,0,0,0,0,0,0,0,0,0,0,0,0,0,0,0,0,0,0,0,0,0,0,0,0,0,0,0,0,0,0,0,0,0,0,0,0,0,0,0,0,
0,0,0,0,0,0,0,0,0,0,0,0,0,0,0,0,0,0,0,0,0,0,0,0,0,0,0,0,0,0,0,0,0,0,0,0,0,0,0,0,0,0,0,0,0,0,0,0,0,0,0,0,0,0,0,0,0,0,0,0,0,0,0,0,0,0,0,0,0,0,0,0,0,0,0,0,0,0,0,0,
0,0,0,0,0,0,0,0,0,0,0,0,0,0,0,0,0,0,0,0,0,0,0,0,0,0,0,0,0,0,0,0,0,0,0,0,0,0,0,0,0,0,0,0,0,0,0,0,0,0,0,0,0,0,0,0,0,0,0,0,0,0,0,0,0,0,0,0,0,0,0,0,0,0,0,0,0,0,0,0,
0,0,0,0,0,0,0,0,0,0,0,0,0,0,0,0,0,0,0,0,0,0,0,0,0,0,0,0,0,0,0,0,0,0,0,0,0,0,0,0,0,0,0,0,0,0,0,0,0,0,0,0,0,0,0,0,0,0,0,0,0,0,0,0,0,0,0,0,0,0,0,0,0,0,0,0,0,0,0,0,
0,0,0,0,0,0,0,0,0,0,0,0,0,0,0,0,0,0,0,0,0,0,0,0,0,0,0,0,0,0,0,0,0,0,0,0,0,0,0,0,0,0,0,0,0,0,0,0,0,0,0,0,0,0,0,0,0,0,0,0,0,0,0,0,0,0,0,0,0,0,0,0,0,0,0,0,0,0,0,0,
0,0,0,0,0,0,0,0,0,0,0,0,0,0,0,0,0,0,0,0,0,0,0,0,0,0,0,0,0,0,0,0,0,0,0,0,0,0,0,0,0,0,0,0,0,0,0,0,0,0,0,0,0,0,0,0,0,0,0,0,0,0,0,0,0,0,0,0,0,0,0,0,0,0,0,0,0,0,0,0,
0,0,0,0,0,0,0,0,0,0,0,0,0,0,0,0,0,0,0,0,0,0,0,0,0,0,0,0,0,0,0,0,0,0,0,0,0,0,0,0,0,0,0,0,0,0,0,0,0,0,0,0,0,0,0,0,0,0,0,0,0,0,0,0,0,0,0,0,0,0,0,0,0,0,0,0,0,0,0,0,
0,0,0,0,0,0,0,0,0,0,0,0,0,0,0,0,0,0,0,0,0,0,0,0,0,0,0,0,0,0,0,0,0,0,0,0,0,0,0,0,0,0,0,0,0,0,0,0,0,0,0,0,0,0,0,0,0,0,0,0,0,0,0,0,0,0,0,0,0,0,0,0,0,0,0,0,0,0,0,0,
0,0,0,0,0,0,0,0,0,0,0,0,0,0,0,0,0,0,0,0,0,0,0,0,0,0,0,0,0,0,0,0,0,0,0,0,0,0,0,0,0,0,0,0,0,0,0,0,0,0,0,0,0,0,0,0,0,0,0,0,0,0,0,0,0,0,0,0,0,0,0,0,0,0,0,0,0,0,0,0,
0,0,0,0,0,0,0,0,0,0,0,0,0,0,0,0,0,0,0,0,0,0,0,0,0,0,0,0,0,0,0,0,0,0,0,0,0,0,0,0,0,0,0,0,0,0,0,0,0,0,0,0,0,0,0,0,0,0,0,0,0,0,0,0,0,0,0,0,0,0,0,0,0,0,0,0,0,0,0,0,
0,0,0,0,0,0,0,0,0,0,0,0,0,0,0,0,0,0,0,0,0,0,0,0,0,0,0,0,0,0,0,0,0,0,0,0,0,0,0,0,0,0,0,0,0,0,0,0,0,0,0,0,0,0,0,0,0,0,0,0,0,0,0,0,0,0,0,0,0,0,0,0,0,0,0,0,0,0,0,0,
0,0,0,0,0,0,0,0,0,0,0,0,0,0,0,0,0,0,0,0,0,0,0,0,0,0,0,0,0,0,0,0,0,0,0,0,0,0,0,0,0,0,0,0,0,0,0,0,0,0,0,0,0,0,0,0,0,0,0,0,0,0,0,0,0,0,0,0,0,0,0,0,0,0,0,0,0,0,0,0,
0,0,0,0,0,0,0,0,0,0,0,0,0,0,0,0,0,0,0,0,0,0,0,0,0,0,0,0,0,0,0,0,0,0,0,0,0,0,0,0,0,0,0,0,0,0,0,0,0,0,0,0,0,0,0,0,0,0,0,0,0,0,0,0,0,0,0,0,0,0,0,0,0,0,0,0,0,0,0,0,
0,0,0,0,0,0,0,0,0,0,0,0,0,0,0,0,0,0,0,0,0,0,0,0,0,0,0,0,0,0,0,0,0,0,0,0,0,0,0,0,0,0,0,0,0,0,0,0,0,0,0,0,0,0,0,0,0,0,0,0,0,0,0,0,0,0,0,0,0,0,0,0,0,0,0,0,0,0,0,0,
0,0,0,0,0,0,0,0,0,0,0,0,0,0,0,0,0,0,0,0,0,0,0,0,0,0,0,0,0,0,0,0,0,0,0,0,0,0,0,0,0,0,0,0,0,0,0,0,0,0,0,0,0,0,0,0,0,0,0,0,0,0,0,0,0,0,0,0,0,0,0,0,0,0,0,0,0,0,0,0,
0,0,0,0,0,0,0,0,0,0,0,0,0,0,0,0,0,0,0,0,0,0,0,0,0,0,0,0,0,0,0,0,0,0,0,0,0,0,0,0,0,0,0,0,0,0,0,0,0,0,0,0,0,0,0,0,0,0,0,0,0,0,0,0,0,0,0,0,0,0,0,0,0,0,0,0,0,0,0,0,
0,0,0,0,0,0,0,0,0,0,0,0,0,0,0,0,0,0,0,0,0,0,0,0,0,0,0,0,0,0,0,0,0,0,0,0,0,0,0,0,0,0,0,0,0,0,0,0,0,0,0,0,0,0,0,0,0,0,0,0,0,0,0,0,0,0,0,0,0,0,0,0,0,0,0,0,0,0,0,0,
0,0,0,0,0,0,0,0,0,0,0,0,0,0,0,0,0,0,0,0,0,0,0,0,0,0,0,0,0,0,0,0,0,0,0,0,0,0,0,0,0,0,0,0,0,0,0,0,0,0,0,0,0,0,0,0,0,0,0,0,0,0,0,0,0,0,0,0,0,0,0,0,0,0,0,0,0,0,0,0,
0,0,0,0,0,0,0,0,0,0,0,0,0,0,0,0,0,0,0,0,0,0,0,0,0,0,0,0,0,0,0,0,0,0,0,0,0,0,0,0,0,0,0,0,0,0,0,0,0,0,0,0,0,0,0,0,0,0,0,0,0,0,0,0,0,0,0,0,0,0,0,0,0,0,0,0,0,0,0,0,
0,0,0,0,0,0,0,0,0,0,0,0,0,9482,9482,9482,9482,9482,9482,9482,9482,9482,9482,9482,9482,9482,9482,9482,9482,9482,9482,9482,9482,9482,9482,9482,9482,9482,9482,9482,9482,9482,9482,9482,9482,9482,9482,9482,9482,9482,9482,9482,9482,9482,9482,9482,9482,9482,9482,9482,9482,9482,9482,9482,9482,9482,9482,9482,9482,9482,9482,9482,9482,9482,9482,9482,9482,9482,9482,9482,
0,0,0,0,0,0,0,0,0,0,0,0,0,9482,9482,9482,9482,9482,9482,9482,9482,9482,9482,9482,9482,9482,9482,9482,9482,9482,9482,9482,9482,9482,9482,9482,9482,9482,9482,9482,9482,9482,9482,9482,9482,9482,9482,9482,9482,9482,9482,9482,9482,9482,9482,9482,9482,9482,9482,9482,9482,9482,9482,9482,9482,9482,9482,9482,9482,9482,9482,9482,9482,9482,9482,9482,9482,9482,9482,9482,
0,0,0,0,0,0,0,0,0,0,0,0,0,9482,9482,9482,9482,9482,9482,9482,9482,9482,9482,9482,9482,9482,9482,9482,9482,9482,9482,9482,9482,9482,9482,9482,9482,9482,9482,9482,9482,9482,9482,9482,9482,9482,9482,9482,9482,9482,9482,9482,9482,9482,9482,9482,9482,9482,9482,9482,9482,9482,9482,9482,9482,9482,9482,9482,9482,9482,9482,9482,9482,9482,9482,9482,9482,9482,9482,9482,
0,0,0,0,0,0,0,0,0,0,0,0,0,9482,9482,9482,9482,9482,9482,9482,9482,9482,9482,9482,9482,9482,9482,9482,9482,9482,9482,9482,9482,9482,9482,9482,9482,9482,9482,9482,9482,9482,9482,9482,9482,9482,9482,9482,9482,9482,9482,9482,9482,9482,9482,9482,9482,9482,9482,9482,9482,9482,9482,9482,9482,9482,9482,9482,9482,9482,9482,9482,9482,9482,9482,9482,9482,9482,9482,9482,
0,0,0,0,0,0,0,0,0,0,0,0,0,9482,9482,9482,9482,9482,9482,9482,9482,9482,9482,9482,9482,9482,9482,9482,9482,9482,9482,9482,9482,9482,9482,9482,9482,9482,9482,9482,9482,9482,9482,9482,9482,9482,9482,9482,9482,9482,9482,9482,9482,9482,9482,9482,9482,9482,9482,9482,9482,9482,9482,9482,9482,9482,9482,9482,9482,9482,9482,9482,9482,9482,9482,9482,9482,9482,9482,9482,
0,0,0,0,0,0,0,0,0,0,0,0,0,9482,9482,9482,9482,9482,9482,9482,9482,9482,9482,9482,9482,9482,9482,9482,9482,9482,9482,9482,9482,9482,9482,9482,9482,9482,9482,9482,9482,9482,9482,9482,9482,9482,9482,9482,9482,9482,9482,9482,9482,9482,9482,9482,9482,9482,9482,9482,9482,9482,9482,9482,9482,9482,9482,9482,9482,9482,9482,9482,9482,9482,9482,9482,9482,9482,9482,9482,
0,0,0,0,0,0,0,0,0,0,0,0,0,9482,9482,9482,9482,9482,9482,9482,9482,9482,9482,9482,9482,9482,9482,9482,9482,9482,9482,9482,9482,9482,9482,9482,9482,9482,9482,9482,9482,9482,9482,9482,9482,9482,9482,9482,9482,9482,9482,9482,9482,9482,9482,9482,9482,9482,9482,9482,9482,9482,9482,9482,9482,9482,9482,9482,9482,9482,9482,9482,9482,9482,9482,9482,9482,9482,9482,9482,
0,0,0,0,0,0,0,0,0,0,0,0,0,9482,9482,9482,9482,9482,9482,9482,9482,9482,9482,9482,9482,9482,9482,9482,9482,9482,9482,9482,9482,9482,9482,9482,9482,9482,9482,9482,9482,9482,9482,9482,9482,9482,9482,9482,9482,9482,9482,9482,9482,9482,9482,9482,9482,9482,9482,9482,9482,9482,9482,9482,9482,9482,9482,9482,9482,9482,9482,9482,9482,9482,9482,9482,9482,9482,9482,9482,
0,0,0,0,0,0,0,0,0,0,0,0,0,9482,9482,9482,9482,9482,9482,9482,9482,9482,9482,9482,9482,9482,9482,9482,9482,9482,9482,9482,9482,9482,9482,9482,9482,9482,9482,9482,9482,9482,9482,9482,9482,9482,9482,9482,9482,9482,9482,9482,9482,9482,9482,9482,9482,9482,9482,9482,9482,9482,9482,9482,9482,9482,9482,9482,9482,9482,9482,9482,9482,9482,9482,9482,9482,9482,9482,9482,
0,0,0,0,0,0,0,0,0,0,0,0,0,9482,9482,9482,9482,9482,9482,9482,9482,9482,9482,9482,9482,9482,9482,9482,9482,9482,9482,9482,9482,9482,9482,9482,9482,9482,9482,9482,9482,9482,9482,9482,9482,9482,9482,9482,9482,9482,9482,9482,9482,9482,9482,9482,9482,9482,9482,9482,9482,9482,9482,9482,9482,9482,9482,9482,9482,9482,9482,9482,9482,9482,9482,9482,9482,9482,9482,9482,
0,0,0,0,0,0,0,0,0,0,0,0,0,9482,9482,9482,9482,9482,9482,9482,9482,9482,9482,9482,9482,9482,9482,9482,9482,9482,9482,9482,9482,9482,9482,9482,9482,9482,9482,9482,9482,9482,9482,9482,9482,9482,9482,9482,9482,9482,9482,9482,9482,9482,9482,9482,9482,9482,9482,9482,9482,9482,9482,9482,9482,9482,9482,9482,9482,9482,9482,9482,9482,9482,9482,9482,9482,9482,9482,9482,
0,0,0,0,0,0,0,0,0,0,0,0,0,9482,9482,9482,9482,9482,9482,9482,9482,9482,9482,9482,9482,9482,9482,9482,9482,9482,9482,9482,9482,9482,9482,9482,9482,9482,9482,9482,9482,9482,9482,9482,9482,9482,9482,9482,9482,9482,9482,9482,9482,9482,9482,9482,9482,9482,9482,9482,9482,9482,9482,9482,9482,9482,9482,9482,9482,9482,9482,9482,9482,9482,9482,9482,9482,9482,9482,9482,
0,0,0,0,0,0,0,0,0,0,0,0,0,9482,9482,9482,9482,9482,9482,9482,9482,9482,9482,9482,9482,9482,9482,9482,9482,9482,9482,9482,9482,9482,9482,9482,9482,9482,9482,9482,9482,9482,9482,9482,9482,9482,9482,9482,9482,9482,9482,9482,9482,9482,9482,9482,9482,9482,9482,9482,9482,9482,9482,9482,9482,9482,9482,9482,9482,9482,9482,9482,9482,9482,9482,9482,9482,9482,9482,9482,
0,0,0,0,0,0,0,0,0,0,0,0,0,9482,9482,9482,9482,9482,9482,9482,9482,9482,9482,9482,9482,9482,9482,9482,9482,9482,9482,9482,9482,9482,9482,9482,9482,9482,9482,9482,9482,9482,9482,9482,9482,9482,9482,9482,9482,9482,9482,9482,9482,9482,9482,9482,9482,9482,9482,9482,9482,9482,9482,9482,9482,9482,9482,9482,9482,9482,9482,9482,9482,9482,9482,9482,9482,9482,9482,9482,
0,0,0,0,0,0,0,0,0,0,0,0,0,9482,9482,9482,9482,9482,9482,9482,9482,9482,9482,9482,9482,9482,9482,9482,9482,9482,9482,9482,9482,9482,9482,9482,9482,9482,9482,9482,9482,9482,9482,9482,9482,9482,9482,9482,9482,9482,9482,9482,9482,9482,9482,9482,9482,9482,9482,9482,9482,9482,9482,9482,9482,9482,9482,9482,9482,9482,9482,9482,9482,9482,9482,9482,9482,9482,9482,9482,
0,0,0,0,0,0,0,0,0,0,0,0,0,9482,9482,9482,9482,9482,9482,9482,9482,9482,9482,9482,9482,9482,9482,9482,9482,9482,9482,9482,9482,9482,9482,9482,9482,9482,9482,9482,9482,9482,9482,9482,9482,9482,9482,9482,9482,9482,9482,9482,9482,9482,9482,9482,9482,9482,9482,9482,9482,9482,9482,9482,9482,9482,9482,9482,9482,9482,9482,9482,9482,9482,9482,9482,9482,9482,9482,9482,
0,0,0,0,0,0,0,0,0,0,0,0,0,9482,9482,9482,9482,9482,9482,9482,9482,9482,9482,9482,9482,9482,9482,9482,9482,9482,9482,9482,9482,9482,9482,9482,9482,9482,9482,9482,9482,9482,9482,9482,9482,9482,9482,9482,9482,9482,9482,9482,9482,9482,9482,9482,9482,9482,9482,9482,9482,9482,9482,9482,9482,9482,9482,9482,9482,9482,9482,9482,9482,9482,9482,9482,9482,9482,9482,9482,
0,0,0,0,0,0,0,0,0,0,0,0,0,9482,9482,9482,9482,9482,9482,9482,9482,9482,9482,9482,9482,9482,9482,9482,9482,9482,9482,9482,9482,9482,9482,9482,9482,9482,9482,9482,9482,9482,9482,9482,9482,9482,9482,9482,9482,9482,9482,9482,9482,9482,9482,9482,9482,9482,9482,9482,9482,9482,9482,9482,9482,9482,9482,9482,9482,9482,9482,9482,9482,9482,9482,9482,9482,9482,9482,9482,
0,0,0,0,0,0,0,0,0,0,0,0,0,9482,9482,9482,9482,9482,9482,9482,9482,9482,9482,9482,9482,9482,9482,9482,9482,9482,9482,9482,9482,9482,9482,9482,9482,9482,9482,9482,9482,9482,9482,9482,9482,9482,9482,9482,9482,9482,9482,9482,9482,9482,9482,9482,9482,9482,9482,9482,9482,9482,9482,9482,9482,9482,9482,9482,9482,9482,9482,9482,9482,9482,9482,9482,9482,9482,9482,9482,
0,0,0,0,0,0,0,0,0,0,0,0,0,9482,9482,9482,9482,9482,9482,9482,9482,9482,9482,9482,9482,9482,9482,9482,9482,9482,9482,9482,9482,9482,9482,9482,9482,9482,9482,9482,9482,9482,9482,9482,9482,9482,9482,9482,9482,9482,9482,9482,9482,9482,9482,9482,9482,9482,9482,9482,9482,9482,9482,9482,9482,9482,9482,9482,9482,9482,9482,9482,9482,9482,9482,9482,9482,9482,9482,9482,
0,0,0,0,0,0,0,0,0,0,0,0,0,9482,9482,9482,9482,9482,9482,9482,9482,9482,9482,9482,9482,9482,9482,9482,9482,9482,9482,9482,9482,9482,9482,9482,9482,9482,9482,9482,9482,9482,9482,9482,9482,9482,9482,9482,9482,9482,9482,9482,9482,9482,9482,9482,9482,9482,9482,9482,9482,9482,9482,9482,9482,9482,9482,9482,9482,9482,9482,9482,9482,9482,9482,9482,9482,9482,9482,9482,
0,0,0,0,0,0,0,0,0,0,0,0,0,9482,9482,9482,9482,9482,9482,9482,9482,9482,9482,9482,9482,9482,9482,9482,9482,9482,9482,9482,9482,9482,9482,9482,9482,9482,9482,9482,9482,9482,9482,9482,9482,9482,9482,9482,9482,9482,9482,9482,9482,9482,9482,9482,9482,9482,9482,9482,9482,9482,9482,9482,9482,9482,9482,9482,9482,9482,9482,9482,9482,9482,9482,9482,9482,9482,9482,9482,
0,0,0,0,0,0,0,0,0,0,0,0,0,9482,9482,9482,9482,9482,9482,9482,9482,9482,9482,9482,9482,9482,9482,9482,9482,9482,9482,9482,9482,9482,9482,9482,9482,9482,9482,9482,9482,9482,9482,9482,9482,9482,9482,9482,9482,9482,9482,9482,9482,9482,9482,9482,9482,9482,9482,9482,9482,9482,9482,9482,9482,9482,9482,9482,9482,9482,9482,9482,9482,9482,9482,9482,9482,9482,9482,9482,
0,0,0,0,0,0,0,0,0,0,0,0,0,9482,9482,9482,9482,9482,9482,9482,9482,9482,9482,9482,9482,9482,9482,9482,9482,9482,9482,9482,9482,9482,9482,9482,9482,9482,9482,9482,9482,9482,9482,9482,9482,9482,9482,9482,9482,9482,9482,9482,9482,9482,9482,9482,9482,9482,9482,9482,9482,9482,9482,9482,9482,9482,9482,9482,9482,9482,9482,9482,9482,9482,9482,9482,9482,9482,9482,9482,
0,0,0,0,0,0,0,0,0,0,0,0,0,9482,9482,9482,9482,9482,9482,9482,9482,9482,9482,9482,9482,9482,9482,9482,9482,9482,9482,9482,9482,9482,9482,9482,9482,9482,9482,9482,9482,9482,9482,9482,9482,9482,9482,9482,9482,9482,9482,9482,9482,9482,9482,9482,9482,9482,9482,9482,9482,9482,9482,9482,9482,9482,9482,9482,9482,9482,9482,9482,9482,9482,9482,9482,9482,9482,9482,9482,
0,0,0,0,0,0,0,0,0,0,0,0,0,9482,9482,9482,9482,9482,9482,9482,9482,9482,9482,9482,9482,9482,9482,9482,9482,9482,9482,9482,9482,9482,9482,9482,9482,9482,9482,9482,9482,9482,9482,9482,9482,9482,9482,9482,9482,9482,9482,9482,9482,9482,9482,9482,9482,9482,9482,9482,9482,9482,9482,9482,9482,9482,9482,9482,9482,9482,9482,9482,9482,9482,9482,9482,9482,9482,9482,9482,
0,0,0,0,0,0,0,0,0,0,0,0,0,9482,9482,9482,9482,9482,9482,9482,9482,9482,9482,9482,9482,9482,9482,9482,9482,9482,9482,9482,9482,9482,9482,9482,9482,9482,9482,9482,9482,9482,9482,9482,9482,9482,9482,9482,9482,9482,9482,9482,9482,9482,9482,9482,9482,9482,9482,9482,9482,9482,9482,9482,9482,9482,9482,9482,9482,9482,9482,9482,9482,9482,9482,9482,9482,9482,9482,9482,
0,0,0,0,0,0,0,0,0,0,0,0,0,9482,9482,9482,9482,9482,9482,9482,9482,9482,9482,9482,9482,9482,9482,9482,9482,9482,9482,9482,9482,9482,9482,9482,9482,9482,9482,9482,9482,9482,9482,9482,9482,9482,9482,9482,9482,9482,9482,9482,9482,9482,9482,9482,9482,9482,9482,9482,9482,9482,9482,9482,9482,9482,9482,9482,9482,9482,9482,9482,9482,9482,9482,9482,9482,9482,9482,9482,
0,0,0,0,0,0,0,0,0,0,0,0,0,9482,9482,9482,9482,9482,9482,9482,9482,9482,9482,9482,9482,9482,9482,9482,9482,9482,9482,9482,9482,9482,9482,9482,9482,9482,9482,9482,9482,9482,9482,9482,9482,9482,9482,9482,9482,9482,9482,9482,9482,9482,9482,9482,9482,9482,9482,9482,9482,9482,9482,9482,9482,9482,9482,9482,9482,9482,9482,9482,9482,9482,9482,9482,9482,9482,9482,9482,
0,0,0,0,0,0,0,0,0,0,0,0,0,9482,9482,9482,9482,9482,9482,9482,9482,9482,9482,9482,9482,9482,9482,9482,9482,9482,9482,9482,9482,9482,9482,9482,9482,9482,9482,9482,9482,9482,9482,9482,9482,9482,9482,9482,9482,9482,9482,9482,9482,9482,9482,9482,9482,9482,9482,9482,9482,9482,9482,9482,9482,9482,9482,9482,9482,9482,9482,9482,9482,9482,9482,9482,9482,9482,9482,9482,
0,0,0,0,0,0,0,0,0,0,0,0,0,9482,9482,9482,9482,9482,9482,9482,9482,9482,9482,9482,9482,9482,9482,9482,9482,9482,9482,9482,9482,9482,9482,9482,9482,9482,9482,9482,9482,9482,9482,9482,9482,9482,9482,9482,9482,9482,9482,9482,9482,9482,9482,9482,9482,9482,9482,9482,9482,9482,9482,9482,9482,9482,9482,9482,9482,9482,9482,9482,9482,9482,9482,9482,9482,9482,9482,9482,
0,0,0,0,0,0,0,0,0,0,0,0,0,9482,9482,9482,9482,9482,9482,9482,9482,9482,9482,9482,9482,9482,9482,9482,9482,9482,9482,9482,9482,9482,9482,9482,9482,9482,9482,9482,9482,9482,9482,9482,9482,9482,9482,9482,9482,9482,9482,9482,9482,9482,9482,9482,9482,9482,9482,9482,9482,9482,9482,9482,9482,9482,9482,9482,9482,9482,9482,9482,9482,9482,9482,9482,9482,9482,9482,9482,
0,0,0,0,0,0,0,0,0,0,0,0,0,9482,9482,9482,9482,9482,9482,9482,9482,9482,9482,9482,9482,9482,9482,9482,9482,9482,9482,9482,9482,9482,9482,9482,9482,9482,9482,9482,9482,9482,9482,9482,9482,9482,9482,9482,9482,9482,9482,9482,9482,9482,9482,9482,9482,9482,9482,9482,9482,9482,9482,9482,9482,9482,9482,9482,9482,9482,9482,9482,9482,9482,9482,9482,9482,9482,9482,9482,
0,0,0,0,0,0,0,0,0,0,0,0,0,9482,9482,9482,9482,9482,9482,9482,9482,9482,9482,9482,9482,9482,9482,9482,9482,9482,9482,9482,9482,9482,9482,9482,9482,9482,9482,9482,9482,9482,9482,9482,9482,9482,9482,9482,9482,9482,9482,9482,9482,9482,9482,9482,9482,9482,9482,9482,9482,9482,9482,9482,9482,9482,9482,9482,9482,9482,9482,9482,9482,9482,9482,9482,9482,9482,9482,9482,
0,0,0,0,0,0,0,0,0,0,0,0,0,9482,9482,9482,9482,9482,9482,9482,9482,9482,9482,9482,9482,9482,9482,9482,9482,9482,9482,9482,9482,9482,9482,9482,9482,9482,9482,9482,9482,9482,9482,9482,9482,9482,9482,9482,9482,9482,9482,9482,9482,9482,9482,9482,9482,9482,9482,9482,9482,9482,9482,9482,9482,9482,9482,9482,9482,9482,9482,9482,9482,9482,9482,9482,9482,9482,9482,9482,
0,0,0,0,0,0,0,0,0,0,0,0,0,9482,9482,9482,9482,9482,9482,9482,9482,9482,9482,9482,9482,9482,9482,9482,9482,9482,9482,9482,9482,9482,9482,9482,9482,9482,9482,9482,9482,9482,9482,9482,9482,9482,9482,9482,9482,9482,9482,9482,9482,9482,9482,9482,9482,9482,9482,9482,9482,9482,9482,9482,9482,9482,9482,9482,9482,9482,9482,9482,9482,9482,9482,9482,9482,9482,9482,9482,
0,0,0,0,0,0,0,0,0,0,0,0,0,9482,9482,9482,9482,9482,9482,9482,9482,9482,9482,9482,9482,9482,9482,9482,9482,9482,9482,9482,9482,9482,9482,9482,9482,9482,9482,9482,9482,9482,9482,9482,9482,9482,9482,9482,9482,9482,9482,9482,9482,9482,9482,9482,9482,9482,9482,9482,9482,9482,9482,9482,9482,9482,9482,9482,9482,9482,9482,9482,9482,9482,9482,9482,9482,9482,9482,9482,
0,0,0,0,0,0,0,0,0,0,0,0,0,9482,9482,9482,9482,9482,9482,9482,9482,9482,9482,9482,9482,9482,9482,9482,9482,9482,9482,9482,9482,9482,9482,9482,9482,9482,9482,9482,9482,9482,9482,9482,9482,9482,9482,9482,9482,9482,9482,9482,9482,9482,9482,9482,9482,9482,9482,9482,9482,9482,9482,9482,9482,9482,9482,9482,9482,9482,9482,9482,9482,9482,9482,9482,9482,9482,9482,9482,
0,0,0,0,0,0,0,0,0,0,0,0,0,9482,9482,9482,9482,9482,9482,9482,9482,9482,9482,9482,9482,9482,9482,9482,9482,9482,9482,9482,9482,9482,9482,9482,9482,9482,9482,9482,9482,9482,9482,9482,9482,9482,9482,9482,9482,9482,9482,9482,9482,9482,9482,9482,9482,9482,9482,9482,9482,9482,9482,9482,9482,9482,9482,9482,9482,9482,9482,9482,9482,9482,9482,9482,9482,9482,9482,9482,
0,0,0,0,0,0,0,0,0,0,0,0,0,9482,9482,9482,9482,9482,9482,9482,9482,9482,9482,9482,9482,9482,9482,9482,9482,9482,9482,9482,9482,9482,9482,9482,9482,9482,9482,9482,9482,9482,9482,9482,9482,9482,9482,9482,9482,9482,9482,9482,9482,9482,9482,9482,9482,9482,9482,9482,9482,9482,9482,9482,9482,9482,9482,9482,9482,9482,9482,9482,9482,9482,9482,9482,9482,9482,9482,9482
</data>
 </layer>
 <layer name="Collision4" width="80" height="70" visible="0">
  <data encoding="csv">
0,0,0,0,0,0,0,0,0,0,0,0,0,0,0,0,0,0,0,0,0,0,0,0,0,0,0,0,0,0,0,0,0,0,0,0,0,0,0,0,0,0,0,0,0,0,0,0,0,0,0,0,0,0,0,0,0,0,0,0,0,0,0,0,0,0,0,0,0,0,0,0,0,0,0,0,0,0,0,0,
0,0,0,0,0,0,0,0,0,0,0,0,0,0,0,0,0,0,0,0,0,0,0,0,0,0,0,0,0,0,0,0,0,0,0,0,0,0,0,0,0,0,0,0,0,0,0,0,0,0,0,0,0,0,0,0,0,0,0,0,0,0,0,0,0,0,0,0,0,0,0,0,0,0,0,0,0,0,0,0,
0,0,0,0,0,0,0,0,0,0,0,0,0,0,0,0,0,0,0,0,0,0,0,0,0,0,0,0,0,0,0,0,0,0,0,0,0,0,0,0,0,0,0,0,0,0,0,0,0,0,0,0,0,0,0,0,0,0,0,0,0,0,0,0,0,0,0,0,0,0,0,0,0,0,0,0,0,0,0,0,
0,0,0,0,0,0,0,0,0,0,0,0,0,0,0,0,0,0,0,0,0,0,0,0,0,0,0,0,0,0,0,0,0,0,0,0,0,0,0,0,0,0,0,0,0,0,0,0,0,0,0,0,0,0,0,0,0,0,0,0,0,0,0,0,0,0,0,0,0,0,0,0,0,0,0,0,0,0,0,0,
0,0,0,0,0,0,0,0,0,0,0,0,0,0,0,0,0,0,0,0,0,0,0,0,0,0,0,0,0,0,0,0,0,0,0,0,0,0,0,0,0,0,0,0,0,0,0,0,0,0,0,0,0,0,0,0,0,0,0,0,0,0,0,0,0,0,0,0,0,0,0,0,0,0,0,0,0,0,0,0,
0,0,0,0,0,0,0,0,0,0,0,0,0,0,0,0,0,0,0,0,0,0,0,0,0,0,0,0,0,0,0,0,0,0,0,0,0,0,0,0,0,0,0,0,0,0,0,0,0,0,0,0,0,0,0,0,0,0,0,0,0,0,0,0,0,0,0,0,0,0,0,0,0,0,0,0,0,0,0,0,
0,0,0,0,0,0,0,0,0,0,0,0,0,0,0,0,0,0,0,0,0,0,0,0,0,0,0,0,0,0,0,0,0,0,0,0,0,0,0,0,0,0,0,0,0,0,0,0,0,0,0,0,0,0,0,0,0,0,0,0,0,0,0,0,0,0,0,0,0,0,0,0,0,0,0,0,0,0,0,0,
0,0,0,0,0,0,0,0,0,0,0,0,0,0,0,0,0,0,0,0,0,0,0,0,0,0,0,0,0,0,0,0,0,0,0,0,0,0,0,0,0,0,0,0,0,0,0,0,0,0,0,0,0,0,0,0,0,0,0,0,0,0,0,0,0,0,0,0,0,0,0,0,0,0,0,0,0,0,0,0,
0,0,0,0,0,0,0,0,0,0,0,0,0,0,0,0,0,0,0,0,0,0,0,0,0,0,0,0,0,0,0,0,0,0,0,0,0,0,0,0,0,0,0,0,0,0,0,0,0,0,0,0,0,0,0,0,0,0,0,0,0,0,0,0,0,0,0,0,0,0,0,0,0,0,0,0,0,0,0,0,
0,0,0,0,0,0,0,0,0,0,0,0,0,0,0,0,0,0,0,0,0,0,0,0,0,0,0,0,0,0,0,0,0,0,0,0,0,0,0,0,0,0,0,0,0,0,0,0,0,0,0,0,0,0,0,0,0,0,0,0,0,0,0,0,0,0,0,0,0,0,0,0,0,0,0,0,0,0,0,0,
0,0,0,0,0,0,0,0,0,0,0,0,0,0,0,0,0,0,0,0,0,0,0,0,0,0,0,0,0,0,0,0,0,0,0,0,0,0,0,0,0,0,0,0,0,0,0,0,0,0,0,0,0,0,0,0,0,0,0,0,0,0,0,0,0,0,0,0,0,0,0,0,0,0,0,0,0,0,0,0,
0,0,0,0,0,0,0,0,0,0,0,0,0,0,0,0,0,0,0,0,0,0,0,0,0,0,0,0,0,0,0,0,0,0,0,0,0,0,0,0,0,0,0,0,0,0,0,0,0,0,0,0,0,0,0,0,0,0,0,0,0,0,0,0,0,0,0,0,0,0,0,0,0,0,0,0,0,0,0,0,
0,0,0,0,0,0,0,0,0,0,0,0,0,0,0,0,0,0,0,0,0,0,0,0,0,0,0,0,0,0,0,0,0,0,0,0,0,0,0,0,0,0,0,0,0,0,0,0,0,0,0,0,0,0,0,0,0,0,0,0,0,0,0,0,0,0,0,0,0,0,0,0,0,0,0,0,0,0,0,0,
0,0,0,0,0,0,0,0,0,0,0,0,0,0,0,0,0,0,0,0,0,0,0,0,0,0,0,0,0,0,0,0,0,0,0,0,0,0,0,0,0,0,0,0,0,0,0,0,0,0,0,0,0,0,0,0,0,0,0,0,0,0,0,0,0,0,0,0,0,0,0,0,0,0,0,0,0,0,0,0,
0,0,0,0,0,0,0,0,0,0,0,0,0,0,0,0,0,0,0,0,0,0,0,0,0,0,0,0,0,0,0,0,0,0,0,0,0,0,0,0,0,0,0,0,0,0,0,0,0,0,0,0,0,0,0,0,0,0,0,0,0,0,0,0,0,0,0,0,0,0,0,0,0,0,0,0,0,0,0,0,
0,0,0,0,0,0,0,0,0,0,0,0,0,0,0,0,0,0,0,0,0,0,0,0,0,0,0,0,0,0,0,0,0,0,0,0,0,0,0,0,0,0,0,0,0,0,0,0,0,0,0,0,0,0,0,0,0,0,0,0,0,0,0,0,0,0,0,0,0,0,0,0,0,0,0,0,0,0,0,0,
0,0,0,0,0,0,0,0,0,0,0,0,0,0,0,0,0,0,0,0,0,0,0,0,0,0,0,0,0,0,0,0,0,0,0,0,0,0,0,0,0,0,0,0,0,0,0,0,0,0,0,0,0,0,0,0,0,0,0,0,0,0,0,0,0,0,0,0,0,0,0,0,0,0,0,0,0,0,0,0,
0,0,0,0,0,0,0,0,0,0,0,0,0,0,0,0,0,0,0,0,0,0,0,0,0,0,0,0,0,0,0,0,0,0,0,0,0,0,0,0,0,0,0,0,0,0,0,0,0,0,0,0,0,0,0,0,0,0,0,0,0,0,0,0,0,0,0,0,0,0,0,0,0,0,0,0,0,0,0,0,
0,0,0,0,0,0,0,0,0,0,0,0,0,0,0,0,0,0,0,0,0,0,0,0,0,0,0,0,0,0,0,0,0,0,0,0,0,0,0,0,0,0,0,0,0,0,0,0,0,0,0,0,0,0,0,0,0,0,0,0,0,0,0,0,0,0,0,0,0,0,0,0,0,0,0,0,0,0,0,0,
0,0,0,0,0,0,0,0,0,0,0,0,0,0,0,0,0,0,0,0,0,0,0,0,0,0,0,0,0,0,0,0,0,0,0,0,0,0,0,0,0,0,0,0,0,0,0,0,0,0,0,0,0,0,0,0,0,0,0,0,0,0,0,0,0,0,0,0,0,0,0,0,0,0,0,0,0,0,0,0,
0,0,0,0,0,0,0,0,0,0,0,0,0,0,0,0,0,0,0,0,0,0,0,0,0,0,0,0,0,0,0,0,0,0,0,0,0,0,0,0,0,0,0,0,0,0,0,0,0,0,0,0,0,0,0,0,0,0,0,0,0,0,0,0,0,0,0,0,0,0,0,0,0,0,0,0,0,0,0,0,
0,0,0,0,0,0,0,0,0,0,0,0,0,0,0,0,0,0,0,0,0,0,0,0,0,0,0,0,0,0,0,0,0,0,0,0,0,0,0,0,0,0,0,0,0,0,0,0,0,0,0,0,0,0,0,0,0,0,0,0,0,0,0,0,0,0,0,0,0,0,0,0,0,0,0,0,0,0,0,0,
0,0,0,0,0,0,0,0,0,0,0,0,0,0,0,0,0,0,0,0,0,0,0,0,0,0,0,0,0,0,0,0,0,0,0,0,0,0,0,0,0,0,0,0,0,0,0,0,0,0,0,0,0,0,0,0,0,0,0,0,0,0,0,0,0,0,0,0,0,0,0,0,0,0,0,0,0,0,0,0,
0,0,0,0,0,0,0,0,0,0,0,0,0,0,0,0,0,0,0,0,0,0,0,0,0,0,0,0,0,0,0,0,0,0,0,0,0,0,0,0,0,0,0,0,0,0,0,0,0,0,0,0,0,0,0,0,0,0,0,0,0,0,0,0,0,0,0,0,0,0,0,0,0,0,0,0,0,0,0,0,
0,0,0,0,0,0,0,0,0,0,0,0,0,0,0,0,0,0,0,0,0,0,0,0,0,0,0,0,0,0,0,0,0,0,0,0,0,0,0,0,0,0,0,0,0,0,0,0,0,0,0,0,0,0,0,0,0,0,0,0,0,0,0,0,0,0,0,0,0,0,0,0,0,0,0,0,0,0,0,0,
0,0,0,0,0,0,0,0,0,0,0,0,0,0,0,0,0,0,0,0,0,0,0,0,0,0,0,0,0,0,0,0,0,0,0,0,0,0,0,0,0,0,0,0,0,0,0,0,0,0,0,0,0,0,0,0,0,0,0,0,0,0,0,0,0,0,0,0,0,0,0,0,0,0,0,0,0,0,0,0,
0,0,0,0,0,0,0,0,0,0,0,0,0,0,0,0,0,0,0,0,0,0,0,0,0,0,0,0,0,0,0,0,0,0,0,0,0,0,0,0,0,0,0,0,0,0,0,0,0,0,0,0,0,0,0,0,0,0,0,0,0,0,0,0,0,0,0,0,0,0,0,0,0,0,0,0,0,0,0,0,
0,0,0,0,0,0,0,0,0,0,0,0,0,0,0,0,0,0,0,0,0,0,0,0,0,0,0,0,0,0,0,0,0,0,0,0,0,0,0,0,0,0,0,0,0,0,0,0,0,0,0,0,0,0,0,0,0,0,0,0,0,0,0,0,0,0,0,0,0,0,0,0,0,0,0,0,0,0,0,0,
0,0,0,0,0,0,0,0,0,0,0,0,0,0,0,0,0,0,0,0,0,0,0,0,0,0,0,0,0,0,0,0,0,0,0,0,0,0,0,0,0,0,0,0,0,0,0,0,0,0,0,0,0,0,0,0,0,0,0,0,0,0,0,0,0,0,0,0,0,0,0,0,0,0,0,0,0,0,0,0,
0,0,0,0,0,0,0,0,0,0,0,0,0,0,0,0,0,0,0,0,0,0,0,0,0,0,0,0,0,0,0,0,0,0,0,0,0,0,0,0,0,0,0,0,0,0,0,0,0,0,0,0,0,0,0,0,0,0,0,0,0,0,0,0,0,0,0,0,0,0,0,0,0,0,0,0,0,0,0,0,
0,0,0,0,0,0,0,0,0,0,0,0,0,9482,9482,9482,9482,9482,9482,9482,9482,9482,9482,9482,9482,9482,9482,9482,9482,9482,9482,9482,9482,9482,9482,9482,9482,9482,9482,9482,9482,9482,9482,9482,9482,9482,9482,9482,9482,9482,9482,9482,9482,9482,9482,9482,9482,9482,9482,9482,9482,9482,9482,9482,9482,9482,9482,9482,9482,9482,9482,9482,9482,9482,9482,9482,9482,9482,9482,9482,
0,0,0,0,0,0,0,0,0,0,0,0,0,9482,9482,9482,9482,9482,9482,9482,9482,9482,9482,9482,9482,9482,9482,9482,9482,9482,9482,9482,9482,9482,9482,9482,9482,9482,9482,9482,9482,9482,9482,9482,9482,9482,9482,9482,9482,9482,9482,9482,9482,9482,9482,9482,9482,9482,9482,9482,9482,9482,9482,9482,9482,9482,9482,9482,9482,9482,9482,9482,9482,9482,9482,9482,9482,9482,9482,9482,
0,0,0,0,0,0,0,0,0,0,0,0,0,9482,9482,9482,9482,9482,9482,9482,9482,9482,9482,9482,9482,9482,9482,9482,9482,9482,9482,9482,9482,9482,9482,9482,9482,9482,9482,9482,9482,9482,9482,9482,9482,9482,9482,9482,9482,9482,9482,9482,9482,9482,9482,9482,9482,9482,9482,9482,9482,9482,9482,9482,9482,9482,9482,9482,9482,9482,9482,9482,9482,9482,9482,9482,9482,9482,9482,9482,
0,0,0,0,0,0,0,0,0,0,0,0,0,9482,9482,9482,9482,9482,9482,9482,9482,9482,9482,9482,9482,9482,9482,9482,9482,9482,9482,9482,9482,9482,9482,9482,9482,9482,9482,9482,9482,9482,9482,9482,9482,9482,9482,9482,9482,9482,9482,9482,9482,9482,9482,9482,9482,9482,9482,9482,9482,9482,9482,9482,9482,9482,9482,9482,9482,9482,9482,9482,9482,9482,9482,9482,9482,9482,9482,9482,
0,0,0,0,0,0,0,0,0,0,0,0,0,9482,9482,9482,9482,9482,9482,9482,9482,9482,9482,9482,9482,9482,9482,9482,9482,9482,9482,9482,9482,9482,9482,9482,9482,9482,9482,9482,9482,9482,9482,9482,9482,9482,9482,9482,9482,9482,9482,9482,9482,9482,9482,9482,9482,9482,9482,9482,9482,9482,9482,9482,9482,9482,9482,9482,9482,9482,9482,9482,9482,9482,9482,9482,9482,9482,9482,9482,
0,0,0,0,0,0,0,0,0,0,0,0,0,9482,9482,9482,9482,9482,9482,9482,9482,9482,9482,9482,9482,9482,9482,9482,9482,9482,9482,9482,9482,9482,9482,9482,9482,9482,9482,9482,9482,9482,9482,9482,9482,9482,9482,9482,9482,9482,9482,9482,9482,9482,9482,9482,9482,9482,9482,9482,9482,9482,9482,9482,9482,9482,9482,9482,9482,9482,9482,9482,9482,9482,9482,9482,9482,9482,9482,9482,
0,0,0,0,0,0,0,0,0,0,0,0,0,9482,9482,9482,9482,9482,9482,9482,9482,9482,9482,9482,9482,9482,9482,9482,9482,9482,9482,9482,9482,9482,9482,9482,9482,9482,9482,9482,9482,9482,9482,9482,9482,9482,9482,9482,9482,9482,9482,9482,9482,9482,9482,9482,9482,9482,9482,9482,9482,9482,9482,9482,9482,9482,9482,9482,9482,9482,9482,9482,9482,9482,9482,9482,9482,9482,9482,9482,
0,0,0,0,0,0,0,0,0,0,0,0,0,9482,9482,9482,9482,9482,9482,9482,9482,9482,9482,9482,9482,9482,9482,9482,9482,9482,9482,9482,9482,9482,9482,9482,9482,9482,9482,9482,9482,9482,9482,9482,9482,9482,9482,9482,9482,9482,9482,9482,9482,9482,9482,9482,9482,9482,9482,9482,9482,9482,9482,9482,9482,9482,9482,9482,9482,9482,9482,9482,9482,9482,9482,9482,9482,9482,9482,9482,
0,0,0,0,0,0,0,0,0,0,0,0,0,9482,9482,9482,9482,9482,9482,9482,9482,9482,9482,9482,9482,9482,9482,9482,9482,9482,9482,9482,9482,9482,9482,9482,9482,9482,9482,9482,9482,9482,9482,9482,9482,9482,9482,9482,9482,9482,9482,9482,9482,9482,9482,9482,9482,9482,9482,9482,9482,9482,9482,9482,9482,9482,9482,9482,9482,9482,9482,9482,9482,9482,9482,9482,9482,9482,9482,9482,
0,0,0,0,0,0,0,0,0,0,0,0,0,9482,9482,9482,9482,9482,9482,9482,9482,9482,9482,9482,9482,9482,9482,9482,9482,9482,9482,9482,9482,9482,9482,9482,9482,9482,9482,9482,9482,9482,9482,9482,9482,9482,9482,9482,9482,9482,9482,9482,9482,9482,9482,9482,9482,9482,9482,9482,9482,9482,9482,9482,9482,9482,9482,9482,9482,9482,9482,9482,9482,9482,9482,9482,9482,9482,9482,9482,
0,0,0,0,0,0,0,0,0,0,0,0,0,9482,9482,9482,9482,9482,9482,9482,9482,9482,9482,9482,9482,9482,9482,9482,9482,9482,9482,9482,9482,9482,9482,9482,9482,9482,9482,9482,9482,9482,9482,9482,9482,9482,9482,9482,9482,9482,9482,9482,9482,9482,9482,9482,9482,9482,9482,9482,9482,9482,9482,9482,9482,9482,9482,9482,9482,9482,9482,9482,9482,9482,9482,9482,9482,9482,9482,9482,
0,0,0,0,0,0,0,0,0,0,0,0,0,9482,9482,9482,9482,9482,9482,9482,9482,9482,9482,9482,9482,9482,9482,9482,9482,9482,9482,9482,9482,9482,9482,9482,9482,9482,9482,9482,9482,9482,9482,9482,9482,9482,9482,9482,9482,9482,9482,9482,9482,9482,9482,9482,9482,9482,9482,9482,9482,9482,9482,9482,9482,9482,9482,9482,9482,9482,9482,9482,9482,9482,9482,9482,9482,9482,9482,9482,
0,0,0,0,0,0,0,0,0,0,0,0,0,9482,9482,9482,9482,9482,9482,9482,9482,9482,9482,9482,9482,9482,9482,9482,9482,9482,9482,9482,9482,9482,9482,9482,9482,9482,9482,9482,9482,9482,9482,9482,9482,9482,9482,9482,9482,9482,9482,9482,9482,9482,9482,9482,9482,9482,9482,9482,9482,9482,9482,9482,9482,9482,9482,9482,9482,9482,9482,9482,9482,9482,9482,9482,9482,9482,9482,9482,
0,0,0,0,0,0,0,0,0,0,0,0,0,9482,9482,9482,9482,9482,9482,9482,9482,9482,9482,9482,9482,9482,9482,9482,9482,9482,9482,9482,9482,9482,9482,9482,9482,9482,9482,9482,9482,9482,9482,9482,9482,9482,9482,9482,9482,9482,9482,9482,9482,9482,9482,9482,9482,9482,9482,9482,9482,9482,9482,9482,9482,9482,9482,9482,9482,9482,9482,9482,9482,9482,9482,9482,9482,9482,9482,9482,
0,0,0,0,0,0,0,0,0,0,0,0,0,9482,9482,9482,9482,9482,9482,9482,9482,9482,9482,9482,9482,9482,9482,9482,9482,9482,9482,9482,9482,9482,9482,9482,9482,9482,9482,9482,9482,9482,9482,9482,9482,9482,9482,9482,9482,9482,9482,9482,9482,9482,9482,9482,9482,9482,9482,9482,9482,9482,9482,9482,9482,9482,9482,9482,9482,9482,9482,9482,9482,9482,9482,9482,9482,9482,9482,9482,
0,0,0,0,0,0,0,0,0,0,0,0,0,9482,9482,9482,9482,9482,9482,9482,9482,9482,9482,9482,9482,9482,9482,9482,9482,9482,9482,9482,9482,9482,9482,9482,9482,9482,9482,9482,9482,9482,9482,9482,9482,9482,9482,9482,9482,9482,9482,9482,9482,9482,9482,9482,9482,9482,9482,9482,9482,9482,9482,9482,9482,9482,9482,9482,9482,9482,9482,9482,9482,9482,9482,9482,9482,9482,9482,9482,
0,0,0,0,0,0,0,0,0,0,0,0,0,9482,9482,9482,9482,9482,9482,9482,9482,9482,9482,9482,9482,9482,9482,9482,9482,9482,9482,9482,9482,9482,9482,9482,9482,9482,9482,9482,9482,9482,9482,9482,9482,9482,9482,9482,9482,9482,9482,9482,9482,9482,9482,9482,9482,9482,9482,9482,9482,9482,9482,9482,9482,9482,9482,9482,9482,9482,9482,9482,9482,9482,9482,9482,9482,9482,9482,9482,
0,0,0,0,0,0,0,0,0,0,0,0,0,9482,9482,9482,9482,9482,9482,9482,9482,9482,9482,9482,9482,9482,9482,9482,9482,9482,9482,9482,9482,9482,9482,9482,9482,9482,9482,9482,9482,9482,9482,9482,9482,9482,9482,9482,9482,9482,9482,9482,9482,9482,9482,9482,9482,9482,9482,9482,9482,9482,9482,9482,9482,9482,9482,9482,9482,9482,9482,9482,9482,9482,9482,9482,9482,9482,9482,9482,
0,0,0,0,0,0,0,0,0,0,0,0,0,9482,9482,9482,9482,9482,9482,9482,9482,9482,9482,9482,9482,9482,9482,9482,9482,9482,9482,9482,9482,9482,9482,9482,9482,9482,9482,9482,9482,9482,9482,9482,9482,9482,9482,9482,9482,9482,9482,9482,9482,9482,9482,9482,9482,9482,9482,9482,9482,9482,9482,9482,9482,9482,9482,9482,9482,9482,9482,9482,9482,9482,9482,9482,9482,9482,9482,9482,
0,0,0,0,0,0,0,0,0,0,0,0,0,9482,9482,9482,9482,9482,9482,9482,9482,9482,9482,9482,9482,9482,9482,9482,9482,9482,9482,9482,9482,9482,9482,9482,9482,9482,9482,9482,9482,9482,9482,9482,9482,9482,9482,9482,9482,9482,9482,9482,9482,9482,9482,9482,9482,9482,9482,9482,9482,9482,9482,9482,9482,9482,9482,9482,9482,9482,9482,9482,9482,9482,9482,9482,9482,9482,9482,9482,
0,0,0,0,0,0,0,0,0,0,0,0,0,9482,9482,9482,9482,9482,9482,9482,9482,9482,9482,9482,9482,9482,9482,9482,9482,9482,9482,9482,9482,9482,9482,9482,9482,9482,9482,9482,9482,9482,9482,9482,9482,9482,9482,9482,9482,9482,9482,9482,9482,9482,9482,9482,9482,9482,9482,9482,9482,9482,9482,9482,9482,9482,9482,9482,9482,9482,9482,9482,9482,9482,9482,9482,9482,9482,9482,9482,
0,0,0,0,0,0,0,0,0,0,0,0,0,9482,9482,9482,9482,9482,9482,9482,9482,9482,9482,9482,9482,9482,9482,9482,9482,9482,9482,9482,9482,9482,9482,9482,9482,9482,9482,9482,9482,9482,9482,9482,9482,9482,9482,9482,9482,9482,9482,9482,9482,9482,9482,9482,9482,9482,9482,9482,9482,9482,9482,9482,9482,9482,9482,9482,9482,9482,9482,9482,9482,9482,9482,9482,9482,9482,9482,9482,
0,0,0,0,0,0,0,0,0,0,0,0,0,9482,9482,9482,9482,9482,9482,9482,9482,9482,9482,9482,9482,9482,9482,9482,9482,9482,9482,9482,9482,9482,9482,9482,9482,9482,9482,9482,9482,9482,9482,9482,9482,9482,9482,9482,9482,9482,9482,9482,9482,9482,9482,9482,9482,9482,9482,9482,9482,9482,9482,9482,9482,9482,9482,9482,9482,9482,9482,9482,9482,9482,9482,9482,9482,9482,9482,9482,
0,0,0,0,0,0,0,0,0,0,0,0,0,9482,9482,9482,9482,9482,9482,9482,9482,9482,9482,9482,9482,9482,9482,9482,9482,9482,9482,9482,9482,9482,9482,9482,9482,9482,9482,9482,9482,9482,9482,9482,9482,9482,9482,9482,9482,9482,9482,9482,9482,9482,9482,9482,9482,9482,9482,9482,9482,9482,9482,9482,9482,9482,9482,9482,9482,9482,9482,9482,9482,9482,9482,9482,9482,9482,9482,9482,
0,0,0,0,0,0,0,0,0,0,0,0,0,9482,9482,9482,9482,9482,9482,9482,9482,9482,9482,9482,9482,9482,9482,9482,9482,9482,9482,9482,9482,9482,9482,9482,9482,9482,9482,9482,9482,9482,9482,9482,9482,9482,9482,9482,9482,9482,9482,9482,9482,9482,9482,9482,9482,9482,9482,9482,9482,9482,9482,9482,9482,9482,9482,9482,9482,9482,9482,9482,9482,9482,9482,9482,9482,9482,9482,9482,
0,0,0,0,0,0,0,0,0,0,0,0,0,9482,9482,9482,9482,9482,9482,9482,9482,9482,9482,9482,9482,9482,9482,9482,9482,9482,9482,9482,9482,9482,9482,9482,9482,9482,9482,9482,9482,9482,9482,9482,9482,9482,9482,9482,9482,9482,9482,9482,9482,9482,9482,9482,9482,9482,9482,9482,9482,9482,9482,9482,9482,9482,9482,9482,9482,9482,9482,9482,9482,9482,9482,9482,9482,9482,9482,9482,
0,0,0,0,0,0,0,0,0,0,0,0,0,9482,9482,9482,9482,9482,9482,9482,9482,9482,9482,9482,9482,9482,9482,9482,9482,9482,9482,9482,9482,9482,9482,9482,9482,9482,9482,9482,9482,9482,9482,9482,9482,9482,9482,9482,9482,9482,9482,9482,9482,9482,9482,9482,9482,9482,9482,9482,9482,9482,9482,9482,9482,9482,9482,9482,9482,9482,9482,9482,9482,9482,9482,9482,9482,9482,9482,9482,
0,0,0,0,0,0,0,0,0,0,0,0,0,9482,9482,9482,9482,9482,9482,9482,9482,9482,9482,9482,9482,9482,9482,9482,9482,9482,9482,9482,9482,9482,9482,9482,9482,9482,9482,9482,9482,9482,9482,9482,9482,9482,9482,9482,9482,9482,9482,9482,9482,9482,9482,9482,9482,9482,9482,9482,9482,9482,9482,9482,9482,9482,9482,9482,9482,9482,9482,9482,9482,9482,9482,9482,9482,9482,9482,9482,
0,0,0,0,0,0,0,0,0,0,0,0,0,9482,9482,9482,9482,9482,9482,9482,9482,9482,9482,9482,9482,9482,9482,9482,9482,9482,9482,9482,9482,9482,9482,9482,9482,9482,9482,9482,9482,9482,9482,9482,9482,9482,9482,9482,9482,9482,9482,9482,9482,9482,9482,9482,9482,9482,9482,9482,9482,9482,9482,9482,9482,9482,9482,9482,9482,9482,9482,9482,9482,9482,9482,9482,9482,9482,9482,9482,
0,0,0,0,0,0,0,0,0,0,0,0,0,9482,9482,9482,9482,9482,9482,9482,9482,9482,9482,9482,9482,9482,9482,9482,9482,9482,9482,9482,9482,9482,9482,9482,9482,9482,9482,9482,9482,9482,9482,9482,9482,9482,9482,9482,9482,9482,9482,9482,9482,9482,9482,9482,9482,9482,9482,9482,9482,9482,9482,9482,9482,9482,9482,9482,9482,9482,9482,9482,9482,9482,9482,9482,9482,9482,9482,9482,
0,0,0,0,0,0,0,0,0,0,0,0,0,9482,9482,9482,9482,9482,9482,9482,9482,9482,9482,9482,9482,9482,9482,9482,9482,9482,9482,9482,9482,9482,9482,9482,9482,9482,9482,9482,9482,9482,9482,9482,9482,9482,9482,9482,9482,9482,9482,9482,9482,9482,9482,9482,9482,9482,9482,9482,9482,9482,9482,9482,9482,9482,9482,9482,9482,9482,9482,9482,9482,9482,9482,9482,9482,9482,9482,9482,
0,0,0,0,0,0,0,0,0,0,0,0,0,9482,9482,9482,9482,9482,9482,9482,9482,9482,9482,9482,9482,9482,9482,9482,9482,9482,9482,9482,9482,9482,9482,9482,9482,9482,9482,9482,9482,9482,9482,9482,9482,9482,9482,9482,9482,9482,9482,9482,9482,9482,9482,9482,9482,9482,9482,9482,9482,9482,9482,9482,9482,9482,9482,9482,9482,9482,9482,9482,9482,9482,9482,9482,9482,9482,9482,9482,
0,0,0,0,0,0,0,0,0,0,0,0,0,9482,9482,9482,9482,9482,9482,9482,9482,9482,9482,9482,9482,9482,9482,9482,9482,9482,9482,9482,9482,9482,9482,9482,9482,9482,9482,9482,9482,9482,9482,9482,9482,9482,9482,9482,9482,9482,9482,9482,9482,9482,9482,9482,9482,9482,9482,9482,9482,9482,9482,9482,9482,9482,9482,9482,9482,9482,9482,9482,9482,9482,9482,9482,9482,9482,9482,9482,
0,0,0,0,0,0,0,0,0,0,0,0,0,9482,9482,9482,9482,9482,9482,9482,9482,9482,9482,9482,9482,9482,9482,9482,9482,9482,9482,9482,9482,9482,9482,9482,9482,9482,9482,9482,9482,9482,9482,9482,9482,9482,9482,9482,9482,9482,9482,9482,9482,9482,9482,9482,9482,9482,9482,9482,9482,9482,9482,9482,9482,9482,9482,9482,9482,9482,9482,9482,9482,9482,9482,9482,9482,9482,9482,9482,
0,0,0,0,0,0,0,0,0,0,0,0,0,9482,9482,9482,9482,9482,9482,9482,9482,9482,9482,9482,9482,9482,9482,9482,9482,9482,9482,9482,9482,9482,9482,9482,9482,9482,9482,9482,9482,9482,9482,9482,9482,9482,9482,9482,9482,9482,9482,9482,9482,9482,9482,9482,9482,9482,9482,9482,9482,9482,9482,9482,9482,9482,9482,9482,9482,9482,9482,9482,9482,9482,9482,9482,9482,9482,9482,9482,
0,0,0,0,0,0,0,0,0,0,0,0,0,9482,9482,9482,9482,9482,9482,9482,9482,9482,9482,9482,9482,9482,9482,9482,9482,9482,9482,9482,9482,9482,9482,9482,9482,9482,9482,9482,9482,9482,9482,9482,9482,9482,9482,9482,9482,9482,9482,9482,9482,9482,9482,9482,9482,9482,9482,9482,9482,9482,9482,9482,9482,9482,9482,9482,9482,9482,9482,9482,9482,9482,9482,9482,9482,9482,9482,9482,
0,0,0,0,0,0,0,0,0,0,0,0,0,9482,9482,9482,9482,9482,9482,9482,9482,9482,9482,9482,9482,9482,9482,9482,9482,9482,9482,9482,9482,9482,9482,9482,9482,9482,9482,9482,9482,9482,9482,9482,9482,9482,9482,9482,9482,9482,9482,9482,9482,9482,9482,9482,9482,9482,9482,9482,9482,9482,9482,9482,9482,9482,9482,9482,9482,9482,9482,9482,9482,9482,9482,9482,9482,9482,9482,9482,
0,0,0,0,0,0,0,0,0,0,0,0,0,9482,9482,9482,9482,9482,9482,9482,9482,9482,9482,9482,9482,9482,9482,9482,9482,9482,9482,9482,9482,9482,9482,9482,9482,9482,9482,9482,9482,9482,9482,9482,9482,9482,9482,9482,9482,9482,9482,9482,9482,9482,9482,9482,9482,9482,9482,9482,9482,9482,9482,9482,9482,9482,9482,9482,9482,9482,9482,9482,9482,9482,9482,9482,9482,9482,9482,9482,
0,0,0,0,0,0,0,0,0,0,0,0,0,9482,9482,9482,9482,9482,9482,9482,9482,9482,9482,9482,9482,9482,9482,9482,9482,9482,9482,9482,9482,9482,9482,9482,9482,9482,9482,9482,9482,9482,9482,9482,9482,9482,9482,9482,9482,9482,9482,9482,9482,9482,9482,9482,9482,9482,9482,9482,9482,9482,9482,9482,9482,9482,9482,9482,9482,9482,9482,9482,9482,9482,9482,9482,9482,9482,9482,9482,
0,0,0,0,0,0,0,0,0,0,0,0,0,9482,9482,9482,9482,9482,9482,9482,9482,9482,9482,9482,9482,9482,9482,9482,9482,9482,9482,9482,9482,9482,9482,9482,9482,9482,9482,9482,9482,9482,9482,9482,9482,9482,9482,9482,9482,9482,9482,9482,9482,9482,9482,9482,9482,9482,9482,9482,9482,9482,9482,9482,9482,9482,9482,9482,9482,9482,9482,9482,9482,9482,9482,9482,9482,9482,9482,9482
</data>
 </layer>
 <layer name="Collision3" width="80" height="70" visible="0">
  <data encoding="csv">
0,0,0,0,0,0,0,0,0,0,0,0,0,0,0,0,0,0,0,0,0,0,0,0,0,0,0,0,0,0,0,0,0,0,0,0,0,0,0,0,0,0,0,0,0,0,0,0,0,0,0,0,0,0,0,0,0,0,0,0,0,0,0,0,0,0,0,0,0,0,0,0,0,0,0,0,0,0,0,0,
0,0,0,0,0,0,0,0,0,0,0,0,0,0,0,0,0,0,0,0,0,0,0,0,0,0,0,0,0,0,0,0,0,0,0,0,0,0,0,0,0,0,0,0,0,0,0,0,0,0,0,0,0,0,0,0,0,0,0,0,0,0,0,0,0,0,0,0,0,0,0,0,0,0,0,0,0,0,0,0,
0,0,0,0,0,0,0,0,0,0,0,0,0,0,0,0,0,0,0,0,0,0,0,0,0,0,0,0,0,0,0,0,0,0,0,0,0,0,0,0,0,0,0,0,0,0,0,0,0,0,0,0,0,0,0,0,0,0,0,0,0,0,0,0,0,0,0,0,0,0,0,0,0,0,0,0,0,0,0,0,
0,0,0,0,0,0,0,0,0,0,0,0,0,0,0,0,0,0,0,0,0,0,0,0,0,0,0,0,0,0,0,0,0,0,0,0,0,0,0,0,0,0,0,0,0,0,0,0,0,0,0,0,0,0,0,0,0,0,0,0,0,0,0,0,0,0,0,0,0,0,0,0,0,0,0,0,0,0,0,0,
0,0,0,0,0,0,0,0,0,0,0,0,0,0,0,0,0,0,0,0,0,0,0,0,0,0,0,0,0,0,0,0,0,0,0,0,0,0,0,0,0,0,0,0,0,0,0,0,0,0,0,0,0,0,0,0,0,0,0,0,0,0,0,0,0,0,0,0,0,0,0,0,0,0,0,0,0,0,0,0,
0,0,0,0,0,0,0,0,0,0,0,0,0,0,0,0,0,0,0,0,0,0,0,0,0,0,0,0,0,0,0,0,0,0,0,0,0,0,0,0,0,0,0,0,0,0,0,0,0,0,0,0,0,0,0,0,0,0,0,0,0,0,0,0,0,0,0,0,0,0,0,0,0,0,0,0,0,0,0,0,
0,0,0,0,0,0,0,0,0,0,0,0,0,0,0,0,0,0,0,0,0,0,0,0,0,0,0,0,0,0,0,0,0,0,0,0,0,0,0,0,0,0,0,0,0,0,0,0,0,0,0,0,0,0,0,0,0,0,0,0,0,0,0,0,0,0,0,0,0,0,0,0,0,0,0,0,0,0,0,0,
0,0,0,0,0,0,0,0,0,0,0,0,0,0,0,0,0,0,0,0,0,0,0,0,0,0,0,0,0,0,0,0,0,0,0,0,0,0,0,0,0,0,0,0,0,0,0,0,0,0,0,0,0,0,0,0,0,0,0,0,0,0,0,0,0,0,0,0,0,0,0,0,0,0,0,0,0,0,0,0,
0,0,0,0,0,0,0,0,0,0,0,0,0,0,0,0,0,0,0,0,0,0,0,0,0,0,0,0,0,0,0,0,0,0,0,0,0,0,0,0,0,0,0,0,0,0,0,0,0,0,0,0,0,0,0,0,0,0,0,0,0,0,0,0,0,0,0,0,0,0,0,0,0,0,0,0,0,0,0,0,
0,0,0,0,0,0,0,0,0,0,0,0,0,0,0,0,0,0,0,0,0,0,0,0,0,0,0,0,0,0,0,0,0,0,0,0,0,0,0,0,0,0,0,0,0,0,0,0,0,0,0,0,0,0,0,0,0,0,0,0,0,0,0,0,0,0,0,0,0,0,0,0,0,0,0,0,0,0,0,0,
0,0,0,0,0,0,0,0,0,0,0,0,0,0,0,0,0,0,0,0,0,0,0,0,0,0,0,0,0,0,0,0,0,0,0,0,0,0,0,0,0,0,0,0,0,0,0,0,0,0,0,0,0,0,0,0,0,0,0,0,0,0,0,0,0,0,0,0,0,0,0,0,0,0,0,0,0,0,0,0,
0,0,0,0,0,0,0,0,0,0,0,0,0,0,0,0,0,0,0,0,0,0,0,0,0,0,0,0,0,0,0,0,0,0,0,0,0,0,0,0,0,0,0,0,0,0,0,0,0,0,0,0,0,0,0,0,0,0,0,0,0,0,0,0,0,0,0,0,0,0,0,0,0,0,0,0,0,0,0,0,
0,0,0,0,0,0,0,0,0,0,0,0,0,0,0,0,0,0,0,0,0,0,0,0,0,0,0,0,0,0,0,0,0,0,0,0,0,0,0,0,0,0,0,0,0,0,0,0,0,0,0,0,0,0,0,0,0,0,0,0,0,0,0,0,0,0,0,0,0,0,0,0,0,0,0,0,0,0,0,0,
0,0,0,0,0,0,0,0,0,0,0,0,0,0,0,0,0,0,0,0,0,0,0,0,0,0,0,0,0,0,0,0,0,0,0,0,0,0,0,0,0,0,0,0,0,0,0,0,0,0,0,0,0,0,0,0,0,0,0,0,0,0,0,0,0,0,0,0,0,0,0,0,0,0,0,0,0,0,0,0,
0,0,0,0,0,0,0,0,0,0,0,0,0,0,0,0,0,0,0,0,0,0,0,0,0,0,0,0,0,0,0,0,0,0,0,0,0,0,0,0,0,0,0,0,0,0,0,0,0,0,0,0,0,0,0,0,0,0,0,0,0,0,0,0,0,0,0,0,0,0,0,0,0,0,0,0,0,0,0,0,
0,0,0,0,0,0,0,0,0,0,0,0,0,0,0,0,0,0,0,0,0,0,0,0,0,0,0,0,0,0,0,0,0,0,0,0,0,0,0,0,0,0,0,0,0,0,0,0,0,0,0,0,0,0,0,0,0,0,0,0,0,0,0,0,0,0,0,0,0,0,0,0,0,0,0,0,0,0,0,0,
0,0,0,0,0,0,0,0,0,0,0,0,0,0,0,0,0,0,0,0,0,0,0,0,0,0,0,0,0,0,0,0,0,0,0,0,0,0,0,0,0,0,0,0,0,0,0,0,0,0,0,0,0,0,0,0,0,0,0,0,0,0,0,0,0,0,0,0,0,0,0,0,0,0,0,0,0,0,0,0,
0,0,0,0,0,0,0,0,0,0,0,0,0,0,0,0,0,0,0,0,0,0,0,0,0,0,0,0,0,0,0,0,0,0,0,0,0,0,0,0,0,0,0,0,0,0,0,0,0,0,0,0,0,0,0,0,0,0,0,0,0,0,0,0,0,0,0,0,0,0,0,0,0,0,0,0,0,0,0,0,
0,0,0,0,0,0,0,0,0,0,0,0,0,0,0,0,0,0,0,0,0,0,0,0,0,0,0,0,0,0,0,0,0,0,0,0,0,0,0,0,0,0,0,0,0,0,0,0,0,0,0,0,0,0,0,0,0,0,0,0,0,0,0,0,0,0,0,0,0,0,0,0,0,0,0,0,0,0,0,0,
0,0,0,0,0,0,0,0,0,0,0,0,0,0,0,0,0,0,0,0,0,0,0,0,0,0,0,0,0,0,0,0,0,0,0,0,0,0,0,0,0,0,0,0,0,0,0,0,0,0,0,0,0,0,0,0,0,0,0,0,0,0,0,0,0,0,0,0,0,0,0,0,0,0,0,0,0,0,0,0,
0,0,0,0,0,0,0,0,0,0,0,0,0,0,0,0,0,0,0,0,0,0,0,0,0,0,0,0,0,0,0,0,0,0,0,0,0,0,0,0,0,0,0,0,0,0,0,0,0,0,0,0,0,0,0,0,0,0,0,0,0,0,0,0,0,0,0,0,0,0,0,0,0,0,0,0,0,0,0,0,
0,0,0,0,0,0,0,0,0,0,0,0,0,0,0,0,0,0,0,0,0,0,0,0,0,0,0,0,0,0,0,0,0,0,0,0,0,0,0,0,0,0,0,0,0,0,0,0,0,0,0,0,0,0,0,0,0,0,0,0,0,0,0,0,0,0,0,0,0,0,0,0,0,0,0,0,0,0,0,0,
0,0,0,0,0,0,0,0,0,0,0,0,0,0,0,0,0,0,0,0,0,0,0,0,0,0,0,0,0,0,0,0,0,0,0,0,0,0,0,0,0,0,0,0,0,0,0,0,0,0,0,0,0,0,0,0,0,0,0,0,0,0,0,0,0,0,0,0,0,0,0,0,0,0,0,0,0,0,0,0,
0,0,0,0,0,0,0,0,0,0,0,0,0,0,0,0,0,0,0,0,0,0,0,0,0,0,0,0,0,0,0,0,0,0,0,0,0,0,0,0,0,0,0,0,0,0,0,0,0,0,0,0,0,0,0,0,0,0,0,0,0,0,0,0,0,0,0,0,0,0,0,0,0,0,0,0,0,0,0,0,
0,0,0,0,0,0,0,0,0,0,0,0,0,0,0,0,0,0,0,0,0,0,0,0,0,0,0,0,0,0,0,0,0,0,0,0,0,0,0,0,0,0,0,0,0,0,0,0,0,0,0,0,0,0,0,0,0,0,0,0,0,0,0,0,0,0,0,0,0,0,0,0,0,0,0,0,0,0,0,0,
0,0,0,0,0,0,0,0,0,0,0,0,0,0,0,0,0,0,0,0,0,0,0,0,0,0,0,0,0,0,0,0,0,0,0,0,0,0,0,0,0,0,0,0,0,0,0,0,0,0,0,0,0,0,0,0,0,0,0,0,0,0,0,0,0,0,0,0,0,0,0,0,0,0,0,0,0,0,0,0,
0,0,0,0,0,0,0,0,0,0,0,0,0,0,0,0,0,0,0,0,0,0,0,0,0,0,0,0,0,0,0,0,0,0,0,0,0,0,0,0,0,0,0,0,0,0,0,0,0,0,0,0,0,0,0,0,0,0,0,0,0,0,0,0,0,0,0,0,0,0,0,0,0,0,0,0,0,0,0,0,
0,0,0,0,0,0,0,0,0,0,0,0,0,0,0,0,0,0,0,0,0,0,0,0,0,0,0,0,0,0,0,0,0,0,0,0,0,0,0,0,0,0,0,0,0,0,0,0,0,0,0,0,0,0,0,0,0,0,0,0,0,0,0,0,0,0,0,0,0,0,0,0,0,0,0,0,0,0,0,0,
0,0,0,0,0,0,0,0,0,0,0,0,0,0,0,0,0,0,0,0,0,0,0,0,0,0,0,0,0,0,0,0,0,0,0,0,0,0,0,0,0,0,0,0,0,0,0,0,0,0,0,0,0,0,0,0,0,0,0,0,0,0,0,0,0,0,0,0,0,0,0,0,0,0,0,0,0,0,0,0,
0,0,0,0,0,0,0,0,0,0,0,0,0,0,0,0,0,0,0,0,0,0,0,0,0,0,0,0,0,0,0,0,0,0,0,0,0,0,0,0,0,0,0,0,0,0,0,0,0,0,0,0,0,0,0,0,0,0,0,0,0,0,0,0,0,0,0,0,0,0,0,0,0,0,0,0,0,0,0,0,
0,0,0,0,0,0,0,0,0,0,0,0,0,9482,9482,9482,9482,9482,9482,9482,9482,9482,9482,9482,9482,9482,9482,9482,9482,9482,9482,9482,9482,9482,9482,9482,9482,9482,9482,9482,9482,9482,9482,9482,9482,9482,9482,9482,9482,9482,9482,9482,9482,9482,9482,9482,9482,9482,9482,9482,9482,9482,9482,9482,9482,9482,9482,9482,9482,9482,9482,9482,9482,9482,9482,9482,9482,9482,9482,9482,
0,0,0,0,0,0,0,0,0,0,0,0,0,9482,9482,9482,9482,9482,9482,9482,9482,9482,9482,9482,9482,9482,9482,9482,9482,9482,9482,9482,9482,9482,9482,9482,9482,9482,9482,9482,9482,9482,9482,9482,9482,9482,9482,9482,9482,9482,9482,9482,9482,9482,9482,9482,9482,9482,9482,9482,9482,9482,9482,9482,9482,9482,9482,9482,9482,9482,9482,9482,9482,9482,9482,9482,9482,9482,9482,9482,
0,0,0,0,0,0,0,0,0,0,0,0,0,9482,9482,9482,9482,9482,9482,9482,9482,9482,9482,9482,9482,9482,9482,9482,9482,9482,9482,9482,9482,9482,9482,9482,9482,9482,9482,9482,9482,9482,9482,9482,9482,9482,9482,9482,9482,9482,9482,9482,9482,9482,9482,9482,9482,9482,9482,9482,9482,9482,9482,9482,9482,9482,9482,9482,9482,9482,9482,9482,9482,9482,9482,9482,9482,9482,9482,9482,
0,0,0,0,0,0,0,0,0,0,0,0,0,9482,9482,9482,9482,9482,9482,9482,9482,9482,9482,9482,9482,9482,9482,9482,9482,9482,9482,9482,9482,9482,9482,9482,9482,9482,9482,9482,9482,9482,9482,9482,9482,9482,9482,9482,9482,9482,9482,9482,9482,9482,9482,9482,9482,9482,9482,9482,9482,9482,9482,9482,9482,9482,9482,9482,9482,9482,9482,9482,9482,9482,9482,9482,9482,9482,9482,9482,
0,0,0,0,0,0,0,0,0,0,0,0,0,9482,9482,9482,9482,9482,9482,9482,9482,9482,9482,9482,9482,9482,9482,9482,9482,9482,9482,9482,9482,9482,9482,9482,9482,9482,9482,9482,9482,9482,9482,9482,9482,9482,9482,9482,9482,9482,9482,9482,9482,9482,9482,9482,9482,9482,9482,9482,9482,9482,9482,9482,9482,9482,9482,9482,9482,9482,9482,9482,9482,9482,9482,9482,9482,9482,9482,9482,
0,0,0,0,0,0,0,0,0,0,0,0,0,9482,9482,9482,9482,9482,9482,9482,9482,9482,9482,9482,9482,9482,9482,9482,9482,9482,9482,9482,9482,9482,9482,9482,9482,9482,9482,9482,9482,9482,9482,9482,9482,9482,9482,9482,9482,9482,9482,9482,9482,9482,9482,9482,9482,9482,9482,9482,9482,9482,9482,9482,9482,9482,9482,9482,9482,9482,9482,9482,9482,9482,9482,9482,9482,9482,9482,9482,
0,0,0,0,0,0,0,0,0,0,0,0,0,9482,9482,9482,9482,9482,9482,9482,9482,9482,9482,9482,9482,9482,9482,9482,9482,9482,9482,9482,9482,9482,9482,9482,9482,9482,9482,9482,9482,9482,9482,9482,9482,9482,9482,9482,9482,9482,9482,9482,9482,9482,9482,9482,9482,9482,9482,9482,9482,9482,9482,9482,9482,9482,9482,9482,9482,9482,9482,9482,9482,9482,9482,9482,9482,9482,9482,9482,
0,0,0,0,0,0,0,0,0,0,0,0,0,9482,9482,9482,9482,9482,9482,9482,9482,9482,9482,9482,9482,9482,9482,9482,9482,9482,9482,9482,9482,9482,9482,9482,9482,9482,9482,9482,9482,9482,9482,9482,9482,9482,9482,9482,9482,9482,9482,9482,9482,9482,9482,9482,9482,9482,9482,9482,9482,9482,9482,9482,9482,9482,9482,9482,9482,9482,9482,9482,9482,9482,9482,9482,9482,9482,9482,9482,
0,0,0,0,0,0,0,0,0,0,0,0,0,9482,9482,9482,9482,9482,9482,9482,9482,9482,9482,9482,9482,9482,9482,9482,9482,9482,9482,9482,9482,9482,9482,9482,9482,9482,9482,9482,9482,9482,9482,9482,9482,9482,9482,9482,9482,9482,9482,9482,9482,9482,9482,9482,9482,9482,9482,9482,9482,9482,9482,9482,9482,9482,9482,9482,9482,9482,9482,9482,9482,9482,9482,9482,9482,9482,9482,9482,
0,0,0,0,0,0,0,0,0,0,0,0,0,9482,9482,9482,9482,9482,9482,9482,9482,9482,9482,9482,9482,9482,9482,9482,9482,9482,9482,9482,9482,9482,9482,9482,9482,9482,9482,9482,9482,9482,9482,9482,9482,9482,9482,9482,9482,9482,9482,9482,9482,9482,9482,9482,9482,9482,9482,9482,9482,9482,9482,9482,9482,9482,9482,9482,9482,9482,9482,9482,9482,9482,9482,9482,9482,9482,9482,9482,
0,0,0,0,0,0,0,0,0,0,0,0,0,9482,9482,9482,9482,9482,9482,9482,9482,9482,9482,9482,9482,9482,9482,9482,9482,9482,9482,9482,9482,9482,9482,9482,9482,9482,9482,9482,9482,9482,9482,9482,9482,9482,9482,9482,9482,9482,9482,9482,9482,9482,9482,9482,9482,9482,9482,9482,9482,9482,9482,9482,9482,9482,9482,9482,9482,9482,9482,9482,9482,9482,9482,9482,9482,9482,9482,9482,
0,0,0,0,0,0,0,0,0,0,0,0,0,9482,9482,9482,9482,9482,9482,9482,9482,9482,9482,9482,9482,9482,9482,9482,9482,9482,9482,9482,9482,9482,9482,9482,9482,9482,9482,9482,9482,9482,9482,9482,9482,9482,9482,9482,9482,9482,9482,9482,9482,9482,9482,9482,9482,9482,9482,9482,9482,9482,9482,9482,9482,9482,9482,9482,9482,9482,9482,9482,9482,9482,9482,9482,9482,9482,9482,9482,
0,0,0,0,0,0,0,0,0,0,0,0,0,9482,9482,9482,9482,9482,9482,9482,9482,9482,9482,9482,9482,9482,9482,9482,9482,9482,9482,9482,9482,9482,9482,9482,9482,9482,9482,9482,9482,9482,9482,9482,9482,9482,9482,9482,9482,9482,9482,9482,9482,9482,9482,9482,9482,9482,9482,9482,9482,9482,9482,9482,9482,9482,9482,9482,9482,9482,9482,9482,9482,9482,9482,9482,9482,9482,9482,9482,
0,0,0,0,0,0,0,0,0,0,0,0,0,9482,9482,9482,9482,9482,9482,9482,9482,9482,9482,9482,9482,9482,9482,9482,9482,9482,9482,9482,9482,9482,9482,9482,9482,9482,9482,9482,9482,9482,9482,9482,9482,9482,9482,9482,9482,9482,9482,9482,9482,9482,9482,9482,9482,9482,9482,9482,9482,9482,9482,9482,9482,9482,9482,9482,9482,9482,9482,9482,9482,9482,9482,9482,9482,9482,9482,9482,
0,0,0,0,0,0,0,0,0,0,0,0,0,9482,9482,9482,9482,9482,9482,9482,9482,9482,9482,9482,9482,9482,9482,9482,9482,9482,9482,9482,9482,9482,9482,9482,9482,9482,9482,9482,9482,9482,9482,9482,9482,9482,9482,9482,9482,9482,9482,9482,9482,9482,9482,9482,9482,9482,9482,9482,9482,9482,9482,9482,9482,9482,9482,9482,9482,9482,9482,9482,9482,9482,9482,9482,9482,9482,9482,9482,
0,0,0,0,0,0,0,0,0,0,0,0,0,9482,9482,9482,9482,9482,9482,9482,9482,9482,9482,9482,9482,9482,9482,9482,9482,9482,9482,9482,9482,9482,9482,9482,9482,9482,9482,9482,9482,9482,9482,9482,9482,9482,9482,9482,9482,9482,9482,9482,9482,9482,9482,9482,9482,9482,9482,9482,9482,9482,9482,9482,9482,9482,9482,9482,9482,9482,9482,9482,9482,9482,9482,9482,9482,9482,9482,9482,
0,0,0,0,0,0,0,0,0,0,0,0,0,9482,9482,9482,9482,9482,9482,9482,9482,9482,9482,9482,9482,9482,9482,9482,9482,9482,9482,9482,9482,9482,9482,9482,9482,9482,9482,9482,9482,9482,9482,9482,9482,9482,9482,9482,9482,9482,9482,9482,9482,9482,9482,9482,9482,9482,9482,9482,9482,9482,9482,9482,9482,9482,9482,9482,9482,9482,9482,9482,9482,9482,9482,9482,9482,9482,9482,9482,
0,0,0,0,0,0,0,0,0,0,0,0,0,9482,9482,9482,9482,9482,9482,9482,9482,9482,9482,9482,9482,9482,9482,9482,9482,9482,9482,9482,9482,9482,9482,9482,9482,9482,9482,9482,9482,9482,9482,9482,9482,9482,9482,9482,9482,9482,9482,9482,9482,9482,9482,9482,9482,9482,9482,9482,9482,9482,9482,9482,9482,9482,9482,9482,9482,9482,9482,9482,9482,9482,9482,9482,9482,9482,9482,9482,
0,0,0,0,0,0,0,0,0,0,0,0,0,9482,9482,9482,9482,9482,9482,9482,9482,9482,9482,9482,9482,9482,9482,9482,9482,9482,9482,9482,9482,9482,9482,9482,9482,9482,9482,9482,9482,9482,9482,9482,9482,9482,9482,9482,9482,9482,9482,9482,9482,9482,9482,9482,9482,9482,9482,9482,9482,9482,9482,9482,9482,9482,9482,9482,9482,9482,9482,9482,9482,9482,9482,9482,9482,9482,9482,9482,
0,0,0,0,0,0,0,0,0,0,0,0,0,9482,9482,9482,9482,9482,9482,9482,9482,9482,9482,9482,9482,9482,9482,9482,9482,9482,9482,9482,9482,9482,9482,9482,9482,9482,9482,9482,9482,9482,9482,9482,9482,9482,9482,9482,9482,9482,9482,9482,9482,9482,9482,9482,9482,9482,9482,9482,9482,9482,9482,9482,9482,9482,9482,9482,9482,9482,9482,9482,9482,9482,9482,9482,9482,9482,9482,9482,
0,0,0,0,0,0,0,0,0,0,0,0,0,9482,9482,9482,9482,9482,9482,9482,9482,9482,9482,9482,9482,9482,9482,9482,9482,9482,9482,9482,9482,9482,9482,9482,9482,9482,9482,9482,9482,9482,9482,9482,9482,9482,9482,9482,9482,9482,9482,9482,9482,9482,9482,9482,9482,9482,9482,9482,9482,9482,9482,9482,9482,9482,9482,9482,9482,9482,9482,9482,9482,9482,9482,9482,9482,9482,9482,9482,
0,0,0,0,0,0,0,0,0,0,0,0,0,9482,9482,9482,9482,9482,9482,9482,9482,9482,9482,9482,9482,9482,9482,9482,9482,9482,9482,9482,9482,9482,9482,9482,9482,9482,9482,9482,9482,9482,9482,9482,9482,9482,9482,9482,9482,9482,9482,9482,9482,9482,9482,9482,9482,9482,9482,9482,9482,9482,9482,9482,9482,9482,9482,9482,9482,9482,9482,9482,9482,9482,9482,9482,9482,9482,9482,9482,
0,0,0,0,0,0,0,0,0,0,0,0,0,9482,9482,9482,9482,9482,9482,9482,9482,9482,9482,9482,9482,9482,9482,9482,9482,9482,9482,9482,9482,9482,9482,9482,9482,9482,9482,9482,9482,9482,9482,9482,9482,9482,9482,9482,9482,9482,9482,9482,9482,9482,9482,9482,9482,9482,9482,9482,9482,9482,9482,9482,9482,9482,9482,9482,9482,9482,9482,9482,9482,9482,9482,9482,9482,9482,9482,9482,
0,0,0,0,0,0,0,0,0,0,0,0,0,9482,9482,9482,9482,9482,9482,9482,9482,9482,9482,9482,9482,9482,9482,9482,9482,9482,9482,9482,9482,9482,9482,9482,9482,9482,9482,9482,9482,9482,9482,9482,9482,9482,9482,9482,9482,9482,9482,9482,9482,9482,9482,9482,9482,9482,9482,9482,9482,9482,9482,9482,9482,9482,9482,9482,9482,9482,9482,9482,9482,9482,9482,9482,9482,9482,9482,9482,
0,0,0,0,0,0,0,0,0,0,0,0,0,9482,9482,9482,9482,9482,9482,9482,9482,9482,9482,9482,9482,9482,9482,9482,9482,9482,9482,9482,9482,9482,9482,9482,9482,9482,9482,9482,9482,9482,9482,9482,9482,9482,9482,9482,9482,9482,9482,9482,9482,9482,9482,9482,9482,9482,9482,9482,9482,9482,9482,9482,9482,9482,9482,9482,9482,9482,9482,9482,9482,9482,9482,9482,9482,9482,9482,9482,
0,0,0,0,0,0,0,0,0,0,0,0,0,9482,9482,9482,9482,9482,9482,9482,9482,9482,9482,9482,9482,9482,9482,9482,9482,9482,9482,9482,9482,9482,9482,9482,9482,9482,9482,9482,9482,9482,9482,9482,9482,9482,9482,9482,9482,9482,9482,9482,9482,9482,9482,9482,9482,9482,9482,9482,9482,9482,9482,9482,9482,9482,9482,9482,9482,9482,9482,9482,9482,9482,9482,9482,9482,9482,9482,9482,
0,0,0,0,0,0,0,0,0,0,0,0,0,9482,9482,9482,9482,9482,9482,9482,9482,9482,9482,9482,9482,9482,9482,9482,9482,9482,9482,9482,9482,9482,9482,9482,9482,9482,9482,9482,9482,9482,9482,9482,9482,9482,9482,9482,9482,9482,9482,9482,9482,9482,9482,9482,9482,9482,9482,9482,9482,9482,9482,9482,9482,9482,9482,9482,9482,9482,9482,9482,9482,9482,9482,9482,9482,9482,9482,9482,
0,0,0,0,0,0,0,0,0,0,0,0,0,9482,9482,9482,9482,9482,9482,9482,9482,9482,9482,9482,9482,9482,9482,9482,9482,9482,9482,9482,9482,9482,9482,9482,9482,9482,9482,9482,9482,9482,9482,9482,9482,9482,9482,9482,9482,9482,9482,9482,9482,9482,9482,9482,9482,9482,9482,9482,9482,9482,9482,9482,9482,9482,9482,9482,9482,9482,9482,9482,9482,9482,9482,9482,9482,9482,9482,9482,
0,0,0,0,0,0,0,0,0,0,0,0,0,9482,9482,9482,9482,9482,9482,9482,9482,9482,9482,9482,9482,9482,9482,9482,9482,9482,9482,9482,9482,9482,9482,9482,9482,9482,9482,9482,9482,9482,9482,9482,9482,9482,9482,9482,9482,9482,9482,9482,9482,9482,9482,9482,9482,9482,9482,9482,9482,9482,9482,9482,9482,9482,9482,9482,9482,9482,9482,9482,9482,9482,9482,9482,9482,9482,9482,9482,
0,0,0,0,0,0,0,0,0,0,0,0,0,9482,9482,9482,9482,9482,9482,9482,9482,9482,9482,9482,9482,9482,9482,9482,9482,9482,9482,9482,9482,9482,9482,9482,9482,9482,9482,9482,9482,9482,9482,9482,9482,9482,9482,9482,9482,9482,9482,9482,9482,9482,9482,9482,9482,9482,9482,9482,9482,9482,9482,9482,9482,9482,9482,9482,9482,9482,9482,9482,9482,9482,9482,9482,9482,9482,9482,9482,
0,0,0,0,0,0,0,0,0,0,0,0,0,9482,9482,9482,9482,9482,9482,9482,9482,9482,9482,9482,9482,9482,9482,9482,9482,9482,9482,9482,9482,9482,9482,9482,9482,9482,9482,9482,9482,9482,9482,9482,9482,9482,9482,9482,9482,9482,9482,9482,9482,9482,9482,9482,9482,9482,9482,9482,9482,9482,9482,9482,9482,9482,9482,9482,9482,9482,9482,9482,9482,9482,9482,9482,9482,9482,9482,9482,
0,0,0,0,0,0,0,0,0,0,0,0,0,9482,9482,9482,9482,9482,9482,9482,9482,9482,9482,9482,9482,9482,9482,9482,9482,9482,9482,9482,9482,9482,9482,9482,9482,9482,9482,9482,9482,9482,9482,9482,9482,9482,9482,9482,9482,9482,9482,9482,9482,9482,9482,9482,9482,9482,9482,9482,9482,9482,9482,9482,9482,9482,9482,9482,9482,9482,9482,9482,9482,9482,9482,9482,9482,9482,9482,9482,
0,0,0,0,0,0,0,0,0,0,0,0,0,9482,9482,9482,9482,9482,9482,9482,9482,9482,9482,9482,9482,9482,9482,9482,9482,9482,9482,9482,9482,9482,9482,9482,9482,9482,9482,9482,9482,9482,9482,9482,9482,9482,9482,9482,9482,9482,9482,9482,9482,9482,9482,9482,9482,9482,9482,9482,9482,9482,9482,9482,9482,9482,9482,9482,9482,9482,9482,9482,9482,9482,9482,9482,9482,9482,9482,9482,
0,0,0,0,0,0,0,0,0,0,0,0,0,9482,9482,9482,9482,9482,9482,9482,9482,9482,9482,9482,9482,9482,9482,9482,9482,9482,9482,9482,9482,9482,9482,9482,9482,9482,9482,9482,9482,9482,9482,9482,9482,9482,9482,9482,9482,9482,9482,9482,9482,9482,9482,9482,9482,9482,9482,9482,9482,9482,9482,9482,9482,9482,9482,9482,9482,9482,9482,9482,9482,9482,9482,9482,9482,9482,9482,9482,
0,0,0,0,0,0,0,0,0,0,0,0,0,9482,9482,9482,9482,9482,9482,9482,9482,9482,9482,9482,9482,9482,9482,9482,9482,9482,9482,9482,9482,9482,9482,9482,9482,9482,9482,9482,9482,9482,9482,9482,9482,9482,9482,9482,9482,9482,9482,9482,9482,9482,9482,9482,9482,9482,9482,9482,9482,9482,9482,9482,9482,9482,9482,9482,9482,9482,9482,9482,9482,9482,9482,9482,9482,9482,9482,9482,
0,0,0,0,0,0,0,0,0,0,0,0,0,9482,9482,9482,9482,9482,9482,9482,9482,9482,9482,9482,9482,9482,9482,9482,9482,9482,9482,9482,9482,9482,9482,9482,9482,9482,9482,9482,9482,9482,9482,9482,9482,9482,9482,9482,9482,9482,9482,9482,9482,9482,9482,9482,9482,9482,9482,9482,9482,9482,9482,9482,9482,9482,9482,9482,9482,9482,9482,9482,9482,9482,9482,9482,9482,9482,9482,9482,
0,0,0,0,0,0,0,0,0,0,0,0,0,9482,9482,9482,9482,9482,9482,9482,9482,9482,9482,9482,9482,9482,9482,9482,9482,9482,9482,9482,9482,9482,9482,9482,9482,9482,9482,9482,9482,9482,9482,9482,9482,9482,9482,9482,9482,9482,9482,9482,9482,9482,9482,9482,9482,9482,9482,9482,9482,9482,9482,9482,9482,9482,9482,9482,9482,9482,9482,9482,9482,9482,9482,9482,9482,9482,9482,9482,
0,0,0,0,0,0,0,0,0,0,0,0,0,9482,9482,9482,9482,9482,9482,9482,9482,9482,9482,9482,9482,9482,9482,9482,9482,9482,9482,9482,9482,9482,9482,9482,9482,9482,9482,9482,9482,9482,9482,9482,9482,9482,9482,9482,9482,9482,9482,9482,9482,9482,9482,9482,9482,9482,9482,9482,9482,9482,9482,9482,9482,9482,9482,9482,9482,9482,9482,9482,9482,9482,9482,9482,9482,9482,9482,9482,
0,0,0,0,0,0,0,0,0,0,0,0,0,9482,9482,9482,9482,9482,9482,9482,9482,9482,9482,9482,9482,9482,9482,9482,9482,9482,9482,9482,9482,9482,9482,9482,9482,9482,9482,9482,9482,9482,9482,9482,9482,9482,9482,9482,9482,9482,9482,9482,9482,9482,9482,9482,9482,9482,9482,9482,9482,9482,9482,9482,9482,9482,9482,9482,9482,9482,9482,9482,9482,9482,9482,9482,9482,9482,9482,9482,
0,0,0,0,0,0,0,0,0,0,0,0,0,9482,9482,9482,9482,9482,9482,9482,9482,9482,9482,9482,9482,9482,9482,9482,9482,9482,9482,9482,9482,9482,9482,9482,9482,9482,9482,9482,9482,9482,9482,9482,9482,9482,9482,9482,9482,9482,9482,9482,9482,9482,9482,9482,9482,9482,9482,9482,9482,9482,9482,9482,9482,9482,9482,9482,9482,9482,9482,9482,9482,9482,9482,9482,9482,9482,9482,9482
</data>
 </layer>
 <layer name="Collision2" width="80" height="70" visible="0">
  <data encoding="csv">
0,0,0,0,0,0,0,0,0,0,0,0,0,0,0,0,0,0,0,0,0,0,0,0,0,0,0,0,0,0,0,0,0,0,0,0,0,0,0,0,0,0,0,0,0,0,0,0,0,0,0,0,0,0,0,0,0,0,0,0,0,0,0,0,0,0,0,0,0,0,0,0,0,0,0,0,0,0,0,0,
0,0,0,0,0,0,0,0,0,0,0,0,0,0,0,0,0,0,0,0,0,0,0,0,0,0,0,0,0,0,0,0,0,0,0,0,0,0,0,0,0,0,0,0,0,0,0,0,0,0,0,0,0,0,0,0,0,0,0,0,0,0,0,0,0,0,0,0,0,0,0,0,0,0,0,0,0,0,0,0,
0,0,0,0,0,0,0,0,0,0,0,0,0,0,0,0,0,0,0,0,0,0,0,0,0,0,0,0,0,0,0,0,0,0,0,0,0,0,0,0,0,0,0,0,0,0,0,0,0,0,0,0,0,0,0,0,0,0,0,0,0,0,0,0,0,0,0,0,0,0,0,0,0,0,0,0,0,0,0,0,
0,0,0,0,0,0,0,0,0,0,0,0,0,0,0,0,0,0,0,0,0,0,0,0,0,0,0,0,0,0,0,0,0,0,0,0,0,0,0,0,0,0,0,0,0,0,0,0,0,0,0,0,0,0,0,0,0,0,0,0,0,0,0,0,0,0,0,0,0,0,0,0,0,0,0,0,0,0,0,0,
0,0,0,0,0,0,0,0,0,0,0,0,0,0,0,0,0,0,0,0,0,0,0,0,0,0,0,0,0,0,0,0,0,0,0,0,0,0,0,0,0,0,0,0,0,0,0,0,0,0,0,0,0,0,0,0,0,0,0,0,0,0,0,0,0,0,0,0,0,0,0,0,0,0,0,0,0,0,0,0,
0,0,0,0,0,0,0,0,0,0,0,0,0,0,0,0,0,0,0,0,0,0,0,0,0,0,0,0,0,0,0,0,0,0,0,0,0,0,0,0,0,0,0,0,0,0,0,0,0,0,0,0,0,0,0,0,0,0,0,0,0,0,0,0,0,0,0,0,0,0,0,0,0,0,0,0,0,0,0,0,
0,0,0,0,0,0,0,0,0,0,0,0,0,0,0,0,0,0,0,0,0,0,0,0,0,0,0,0,0,0,0,0,0,0,0,0,0,0,0,0,0,0,0,0,0,0,0,0,0,0,0,0,0,0,0,0,0,0,0,0,0,0,0,0,0,0,0,0,0,0,0,0,0,0,0,0,0,0,0,0,
0,0,0,0,0,0,0,0,0,0,0,0,0,0,0,0,0,0,0,0,0,0,0,0,0,0,0,0,0,0,0,0,0,0,0,0,0,0,0,0,0,0,0,0,0,0,0,0,0,0,0,0,0,0,0,0,0,0,0,0,0,0,0,0,0,0,0,0,0,0,0,0,0,0,0,0,0,0,0,0,
0,0,0,0,0,0,0,0,0,0,0,0,0,0,0,0,0,0,0,0,0,0,0,0,0,0,0,0,0,0,0,0,0,0,0,0,0,0,0,0,0,0,0,0,0,0,0,0,0,0,0,0,0,0,0,0,0,0,0,0,0,0,0,0,0,0,0,0,0,0,0,0,0,0,0,0,0,0,0,0,
0,0,0,0,0,0,0,0,0,0,0,0,0,0,0,0,0,0,0,0,0,0,0,0,0,0,0,0,0,0,0,0,0,0,0,0,0,0,0,0,0,0,0,0,0,0,0,0,0,0,0,0,0,0,0,0,0,0,0,0,0,0,0,0,0,0,0,0,0,0,0,0,0,0,0,0,0,0,0,0,
0,0,0,0,0,0,0,0,0,0,0,0,0,0,0,0,0,0,0,0,0,0,0,0,0,0,0,0,0,0,0,0,0,0,0,0,0,0,0,0,0,0,0,0,0,0,0,0,0,0,0,0,0,0,0,0,0,0,0,0,0,0,0,0,0,0,0,0,0,0,0,0,0,0,0,0,0,0,0,0,
0,0,0,0,0,0,0,0,0,0,0,0,0,0,0,0,0,0,0,0,0,0,0,0,0,0,0,0,0,0,0,0,0,0,0,0,0,0,0,0,0,0,0,0,0,0,0,0,0,0,0,0,0,0,0,0,0,0,0,0,0,0,0,0,0,0,0,0,0,0,0,0,0,0,0,0,0,0,0,0,
0,0,0,0,0,0,0,0,0,0,0,0,0,0,0,0,0,0,0,0,0,0,0,0,0,0,0,0,0,0,0,0,0,0,0,0,0,0,0,0,0,0,0,0,0,0,0,0,0,0,0,0,0,0,0,0,0,0,0,0,0,0,0,0,0,0,0,0,0,0,0,0,0,0,0,0,0,0,0,0,
0,0,0,0,0,0,0,0,0,0,0,0,0,0,0,0,0,0,0,0,0,0,0,0,0,0,0,0,0,0,0,0,0,0,0,0,0,0,0,0,0,0,0,0,0,0,0,0,0,0,0,0,0,0,0,0,0,0,0,0,0,0,0,0,0,0,0,0,0,0,0,0,0,0,0,0,0,0,0,0,
0,0,0,0,0,0,0,0,0,0,0,0,0,0,0,0,0,0,0,0,0,0,0,0,0,0,0,0,0,0,0,0,0,0,0,0,0,0,0,0,0,0,0,0,0,0,0,0,0,0,0,0,0,0,0,0,0,0,0,0,0,0,0,0,0,0,0,0,0,0,0,0,0,0,0,0,0,0,0,0,
0,0,0,0,0,0,0,0,0,0,0,0,0,0,0,0,0,0,0,0,0,0,0,0,0,0,0,0,0,0,0,0,0,0,0,0,0,0,0,0,0,0,0,0,0,0,0,0,0,0,0,0,0,0,0,0,0,0,0,0,0,0,0,0,0,0,0,0,0,0,0,0,0,0,0,0,0,0,0,0,
0,0,0,0,0,0,0,0,0,0,0,0,0,0,0,0,0,0,0,0,0,0,0,0,0,0,0,0,0,0,0,0,0,0,0,0,0,0,0,0,0,0,0,0,0,0,0,0,0,0,0,0,0,0,0,0,0,0,0,0,0,0,0,0,0,0,0,0,0,0,0,0,0,0,0,0,0,0,0,0,
0,0,0,0,0,0,0,0,0,0,0,0,0,0,0,0,0,0,0,0,0,0,0,0,0,0,0,0,0,0,0,0,0,0,0,0,0,0,0,0,0,0,0,0,0,0,0,0,0,0,0,0,0,0,0,0,0,0,0,0,0,0,0,0,0,0,0,0,0,0,0,0,0,0,0,0,0,0,0,0,
0,0,0,0,0,0,0,0,0,0,0,0,0,0,0,0,0,0,0,0,0,0,0,0,0,0,0,0,0,0,0,0,0,0,0,0,0,0,0,0,0,0,0,0,0,0,0,0,0,0,0,0,0,0,0,0,0,0,0,0,0,0,0,0,0,0,0,0,0,0,0,0,0,0,0,0,0,0,0,0,
0,0,0,0,0,0,0,0,0,0,0,0,0,0,0,0,0,0,0,0,0,0,0,0,0,0,0,0,0,0,0,0,0,0,0,0,0,0,0,0,0,0,0,0,0,0,0,0,0,0,0,0,0,0,0,0,0,0,0,0,0,0,0,0,0,0,0,0,0,0,0,0,0,0,0,0,0,0,0,0,
0,0,0,0,0,0,0,0,0,0,0,0,0,0,0,0,0,0,0,0,0,0,0,0,0,0,0,0,0,0,0,0,0,0,0,0,0,0,0,0,0,0,0,0,0,0,0,0,0,0,0,0,0,0,0,0,0,0,0,0,0,0,0,0,0,0,0,0,0,0,0,0,0,0,0,0,0,0,0,0,
0,0,0,0,0,0,0,0,0,0,0,0,0,0,0,0,0,0,0,0,0,0,0,0,0,0,0,0,0,0,0,0,0,0,0,0,0,0,0,0,0,0,0,0,0,0,0,0,0,0,0,0,0,0,0,0,0,0,0,0,0,0,0,0,0,0,0,0,0,0,0,0,0,0,0,0,0,0,0,0,
0,0,0,0,0,0,0,0,0,0,0,0,0,0,0,0,0,0,0,0,0,0,0,0,0,0,0,0,0,0,0,0,0,0,0,0,0,0,0,0,0,0,0,0,0,0,0,0,0,0,0,0,0,0,0,0,0,0,0,0,0,0,0,0,0,0,0,0,0,0,0,0,0,0,0,0,0,0,0,0,
0,0,0,0,0,0,0,0,0,0,0,0,0,0,0,0,0,0,0,0,0,0,0,0,0,0,0,0,0,0,0,0,0,0,0,0,0,0,0,0,0,0,0,0,0,0,0,0,0,0,0,0,0,0,0,0,0,0,0,0,0,0,0,0,0,0,0,0,0,0,0,0,0,0,0,0,0,0,0,0,
0,0,0,0,0,0,0,0,0,0,0,0,0,0,0,0,0,0,0,0,0,0,0,0,0,0,0,0,0,0,0,0,0,0,0,0,0,0,0,0,0,0,0,0,0,0,0,0,0,0,0,0,0,0,0,0,0,0,0,0,0,0,0,0,0,0,0,0,0,0,0,0,0,0,0,0,0,0,0,0,
0,0,0,0,0,0,0,0,0,0,0,0,0,0,0,0,0,0,0,0,0,0,0,0,0,0,0,0,0,0,0,0,0,0,0,0,0,0,0,0,0,0,0,0,0,0,0,0,0,0,0,0,0,0,0,0,0,0,0,0,0,0,0,0,0,0,0,0,0,0,0,0,0,0,0,0,0,0,0,0,
0,0,0,0,0,0,0,0,0,0,0,0,0,0,0,0,0,0,0,0,0,0,0,0,0,0,0,0,0,0,0,0,0,0,0,0,0,0,0,0,0,0,0,0,0,0,0,0,0,0,0,0,0,0,0,0,0,0,0,0,0,0,0,0,0,0,0,0,0,0,0,0,0,0,0,0,0,0,0,0,
0,0,0,0,0,0,0,0,0,0,0,0,0,0,0,0,0,0,0,0,0,0,0,0,0,0,0,0,0,0,0,0,0,0,0,0,0,0,0,0,0,0,0,0,0,0,0,0,0,0,0,0,0,0,0,0,0,0,0,0,0,0,0,0,0,0,0,0,0,0,0,0,0,0,0,0,0,0,0,0,
0,0,0,0,0,0,0,0,0,0,0,0,0,0,0,0,0,0,0,0,0,0,0,0,0,0,0,0,0,0,0,0,0,0,0,0,0,0,0,0,0,0,0,0,0,0,0,0,0,0,0,0,0,0,0,0,0,0,0,0,0,0,0,0,0,0,0,0,0,0,0,0,0,0,0,0,0,0,0,0,
0,0,0,0,0,0,0,0,0,0,0,0,0,0,0,0,0,0,0,0,0,0,0,0,0,0,0,0,0,0,0,0,0,0,0,0,0,0,0,0,0,0,0,0,0,0,0,0,0,0,0,0,0,0,0,0,0,0,0,0,0,0,0,0,0,0,0,0,0,0,0,0,0,0,0,0,0,0,0,0,
0,0,0,0,0,0,0,0,0,0,0,0,0,9482,9482,9482,9482,9482,9482,9482,9482,9482,9482,9482,9482,9482,9482,9482,9482,9482,9482,9482,9482,9482,9482,9482,9482,9482,9482,9482,9482,9482,9482,9482,9482,9482,9482,9482,9482,9482,9482,9482,9482,9482,9482,9482,9482,9482,9482,9482,9482,9482,9482,9482,9482,9482,9482,9482,9482,9482,9482,9482,9482,9482,9482,9482,9482,9482,9482,9482,
0,0,0,0,0,0,0,0,0,0,0,0,0,9482,9482,9482,9482,9482,9482,9482,9482,9482,9482,9482,9482,9482,9482,9482,9482,9482,9482,9482,9482,9482,9482,9482,9482,9482,9482,9482,9482,9482,9482,9482,9482,9482,9482,9482,9482,9482,9482,9482,9482,9482,9482,9482,9482,9482,9482,9482,9482,9482,9482,9482,9482,9482,9482,9482,9482,9482,9482,9482,9482,9482,9482,9482,9482,9482,9482,9482,
0,0,0,0,0,0,0,0,0,0,0,0,0,9482,9482,9482,9482,9482,9482,9482,9482,9482,9482,9482,9482,9482,9482,9482,9482,9482,9482,9482,9482,9482,9482,9482,9482,9482,9482,9482,9482,9482,9482,9482,9482,9482,9482,9482,9482,9482,9482,9482,9482,9482,9482,9482,9482,9482,9482,9482,9482,9482,9482,9482,9482,9482,9482,9482,9482,9482,9482,9482,9482,9482,9482,9482,9482,9482,9482,9482,
0,0,0,0,0,0,0,0,0,0,0,0,0,9482,9482,9482,9482,9482,9482,9482,9482,9482,9482,9482,9482,9482,9482,9482,9482,9482,9482,9482,9482,9482,9482,9482,9482,9482,9482,9482,9482,9482,9482,9482,9482,9482,9482,9482,9482,9482,9482,9482,9482,9482,9482,9482,9482,9482,9482,9482,9482,9482,9482,9482,9482,9482,9482,9482,9482,9482,9482,9482,9482,9482,9482,9482,9482,9482,9482,9482,
0,0,0,0,0,0,0,0,0,0,0,0,0,9482,9482,9482,9482,9482,9482,9482,9482,9482,9482,9482,9482,9482,9482,9482,9482,9482,9482,9482,9482,9482,9482,9482,9482,9482,9482,9482,9482,9482,9482,9482,9482,9482,9482,9482,9482,9482,9482,9482,9482,9482,9482,9482,9482,9482,9482,9482,9482,9482,9482,9482,9482,9482,9482,9482,9482,9482,9482,9482,9482,9482,9482,9482,9482,9482,9482,9482,
0,0,0,0,0,0,0,0,0,0,0,0,0,9482,9482,9482,9482,9482,9482,9482,9482,9482,9482,9482,9482,9482,9482,9482,9482,9482,9482,9482,9482,9482,9482,9482,9482,9482,9482,9482,9482,9482,9482,9482,9482,9482,9482,9482,9482,9482,9482,9482,9482,9482,9482,9482,9482,9482,9482,9482,9482,9482,9482,9482,9482,9482,9482,9482,9482,9482,9482,9482,9482,9482,9482,9482,9482,9482,9482,9482,
0,0,0,0,0,0,0,0,0,0,0,0,0,9482,9482,9482,9482,9482,9482,9482,9482,9482,9482,9482,9482,9482,9482,9482,9482,9482,9482,9482,9482,9482,9482,9482,9482,9482,9482,9482,9482,9482,9482,9482,9482,9482,9482,9482,9482,9482,9482,9482,9482,9482,9482,9482,9482,9482,9482,9482,9482,9482,9482,9482,9482,9482,9482,9482,9482,9482,9482,9482,9482,9482,9482,9482,9482,9482,9482,9482,
0,0,0,0,0,0,0,0,0,0,0,0,0,9482,9482,9482,9482,9482,9482,9482,9482,9482,9482,9482,9482,9482,9482,9482,9482,9482,9482,9482,9482,9482,9482,9482,9482,9482,9482,9482,9482,9482,9482,9482,9482,9482,9482,9482,9482,9482,9482,9482,9482,9482,9482,9482,9482,9482,9482,9482,9482,9482,9482,9482,9482,9482,9482,9482,9482,9482,9482,9482,9482,9482,9482,9482,9482,9482,9482,9482,
0,0,0,0,0,0,0,0,0,0,0,0,0,9482,9482,9482,9482,9482,9482,9482,9482,9482,9482,9482,9482,9482,9482,9482,9482,9482,9482,9482,9482,9482,9482,9482,9482,9482,9482,9482,9482,9482,9482,9482,9482,9482,9482,9482,9482,9482,9482,9482,9482,9482,9482,9482,9482,9482,9482,9482,9482,9482,9482,9482,9482,9482,9482,9482,9482,9482,9482,9482,9482,9482,9482,9482,9482,9482,9482,9482,
0,0,0,0,0,0,0,0,0,0,0,0,0,9482,9482,9482,9482,9482,9482,9482,9482,9482,9482,9482,9482,9482,9482,9482,9482,9482,9482,9482,9482,9482,9482,9482,9482,9482,9482,9482,9482,9482,9482,9482,9482,9482,9482,9482,9482,9482,9482,9482,9482,9482,9482,9482,9482,9482,9482,9482,9482,9482,9482,9482,9482,9482,9482,9482,9482,9482,9482,9482,9482,9482,9482,9482,9482,9482,9482,9482,
0,0,0,0,0,0,0,0,0,0,0,0,0,9482,9482,9482,9482,9482,9482,9482,9482,9482,9482,9482,9482,9482,9482,9482,9482,9482,9482,9482,9482,9482,9482,9482,9482,9482,9482,9482,9482,9482,9482,9482,9482,9482,9482,9482,9482,9482,9482,9482,9482,9482,9482,9482,9482,9482,9482,9482,9482,9482,9482,9482,9482,9482,9482,9482,9482,9482,9482,9482,9482,9482,9482,9482,9482,9482,9482,9482,
0,0,0,0,0,0,0,0,0,0,0,0,0,9482,9482,9482,9482,9482,9482,9482,9482,9482,9482,9482,9482,9482,9482,9482,9482,9482,9482,9482,9482,9482,9482,9482,9482,9482,9482,9482,9482,9482,9482,9482,9482,9482,9482,9482,9482,9482,9482,9482,9482,9482,9482,9482,9482,9482,9482,9482,9482,9482,9482,9482,9482,9482,9482,9482,9482,9482,9482,9482,9482,9482,9482,9482,9482,9482,9482,9482,
0,0,0,0,0,0,0,0,0,0,0,0,0,9482,9482,9482,9482,9482,9482,9482,9482,9482,9482,9482,9482,9482,9482,9482,9482,9482,9482,9482,9482,9482,9482,9482,9482,9482,9482,9482,9482,9482,9482,9482,9482,9482,9482,9482,9482,9482,9482,9482,9482,9482,9482,9482,9482,9482,9482,9482,9482,9482,9482,9482,9482,9482,9482,9482,9482,9482,9482,9482,9482,9482,9482,9482,9482,9482,9482,9482,
0,0,0,0,0,0,0,0,0,0,0,0,0,9482,9482,9482,9482,9482,9482,9482,9482,9482,9482,9482,9482,9482,9482,9482,9482,9482,9482,9482,9482,9482,9482,9482,9482,9482,9482,9482,9482,9482,9482,9482,9482,9482,9482,9482,9482,9482,9482,9482,9482,9482,9482,9482,9482,9482,9482,9482,9482,9482,9482,9482,9482,9482,9482,9482,9482,9482,9482,9482,9482,9482,9482,9482,9482,9482,9482,9482,
0,0,0,0,0,0,0,0,0,0,0,0,0,9482,9482,9482,9482,9482,9482,9482,9482,9482,9482,9482,9482,9482,9482,9482,9482,9482,9482,9482,9482,9482,9482,9482,9482,9482,9482,9482,9482,9482,9482,9482,9482,9482,9482,9482,9482,9482,9482,9482,9482,9482,9482,9482,9482,9482,9482,9482,9482,9482,9482,9482,9482,9482,9482,9482,9482,9482,9482,9482,9482,9482,9482,9482,9482,9482,9482,9482,
0,0,0,0,0,0,0,0,0,0,0,0,0,9482,9482,9482,9482,9482,9482,9482,9482,9482,9482,9482,9482,9482,9482,9482,9482,9482,9482,9482,9482,9482,9482,9482,9482,9482,9482,9482,9482,9482,9482,9482,9482,9482,9482,9482,9482,9482,9482,9482,9482,9482,9482,9482,9482,9482,9482,9482,9482,9482,9482,9482,9482,9482,9482,9482,9482,9482,9482,9482,9482,9482,9482,9482,9482,9482,9482,9482,
0,0,0,0,0,0,0,0,0,0,0,0,0,9482,9482,9482,9482,9482,9482,9482,9482,9482,9482,9482,9482,9482,9482,9482,9482,9482,9482,9482,9482,9482,9482,9482,9482,9482,9482,9482,9482,9482,9482,9482,9482,9482,9482,9482,9482,9482,9482,9482,9482,9482,9482,9482,9482,9482,9482,9482,9482,9482,9482,9482,9482,9482,9482,9482,9482,9482,9482,9482,9482,9482,9482,9482,9482,9482,9482,9482,
0,0,0,0,0,0,0,0,0,0,0,0,0,9482,9482,9482,9482,9482,9482,9482,9482,9482,9482,9482,9482,9482,9482,9482,9482,9482,9482,9482,9482,9482,9482,9482,9482,9482,9482,9482,9482,9482,9482,9482,9482,9482,9482,9482,9482,9482,9482,9482,9482,9482,9482,9482,9482,9482,9482,9482,9482,9482,9482,9482,9482,9482,9482,9482,9482,9482,9482,9482,9482,9482,9482,9482,9482,9482,9482,9482,
0,0,0,0,0,0,0,0,0,0,0,0,0,9482,9482,9482,9482,9482,9482,9482,9482,9482,9482,9482,9482,9482,9482,9482,9482,9482,9482,9482,9482,9482,9482,9482,9482,9482,9482,9482,9482,9482,9482,9482,9482,9482,9482,9482,9482,9482,9482,9482,9482,9482,9482,9482,9482,9482,9482,9482,9482,9482,9482,9482,9482,9482,9482,9482,9482,9482,9482,9482,9482,9482,9482,9482,9482,9482,9482,9482,
0,0,0,0,0,0,0,0,0,0,0,0,0,9482,9482,9482,9482,9482,9482,9482,9482,9482,9482,9482,9482,9482,9482,9482,9482,9482,9482,9482,9482,9482,9482,9482,9482,9482,9482,9482,9482,9482,9482,9482,9482,9482,9482,9482,9482,9482,9482,9482,9482,9482,9482,9482,9482,9482,9482,9482,9482,9482,9482,9482,9482,9482,9482,9482,9482,9482,9482,9482,9482,9482,9482,9482,9482,9482,9482,9482,
0,0,0,0,0,0,0,0,0,0,0,0,0,9482,9482,9482,9482,9482,9482,9482,9482,9482,9482,9482,9482,9482,9482,9482,9482,9482,9482,9482,9482,9482,9482,9482,9482,9482,9482,9482,9482,9482,9482,9482,9482,9482,9482,9482,9482,9482,9482,9482,9482,9482,9482,9482,9482,9482,9482,9482,9482,9482,9482,9482,9482,9482,9482,9482,9482,9482,9482,9482,9482,9482,9482,9482,9482,9482,9482,9482,
0,0,0,0,0,0,0,0,0,0,0,0,0,9482,9482,9482,9482,9482,9482,9482,9482,9482,9482,9482,9482,9482,9482,9482,9482,9482,9482,9482,9482,9482,9482,9482,9482,9482,9482,9482,9482,9482,9482,9482,9482,9482,9482,9482,9482,9482,9482,9482,9482,9482,9482,9482,9482,9482,9482,9482,9482,9482,9482,9482,9482,9482,9482,9482,9482,9482,9482,9482,9482,9482,9482,9482,9482,9482,9482,9482,
0,0,0,0,0,0,0,0,0,0,0,0,0,9482,9482,9482,9482,9482,9482,9482,9482,9482,9482,9482,9482,9482,9482,9482,9482,9482,9482,9482,9482,9482,9482,9482,9482,9482,9482,9482,9482,9482,9482,9482,9482,9482,9482,9482,9482,9482,9482,9482,9482,9482,9482,9482,9482,9482,9482,9482,9482,9482,9482,9482,9482,9482,9482,9482,9482,9482,9482,9482,9482,9482,9482,9482,9482,9482,9482,9482,
0,0,0,0,0,0,0,0,0,0,0,0,0,9482,9482,9482,9482,9482,9482,9482,9482,9482,9482,9482,9482,9482,9482,9482,9482,9482,9482,9482,9482,9482,9482,9482,9482,9482,9482,9482,9482,9482,9482,9482,9482,9482,9482,9482,9482,9482,9482,9482,9482,9482,9482,9482,9482,9482,9482,9482,9482,9482,9482,9482,9482,9482,9482,9482,9482,9482,9482,9482,9482,9482,9482,9482,9482,9482,9482,9482,
0,0,0,0,0,0,0,0,0,0,0,0,0,9482,9482,9482,9482,9482,9482,9482,9482,9482,9482,9482,9482,9482,9482,9482,9482,9482,9482,9482,9482,9482,9482,9482,9482,9482,9482,9482,9482,9482,9482,9482,9482,9482,9482,9482,9482,9482,9482,9482,9482,9482,9482,9482,9482,9482,9482,9482,9482,9482,9482,9482,9482,9482,9482,9482,9482,9482,9482,9482,9482,9482,9482,9482,9482,9482,9482,9482,
0,0,0,0,0,0,0,0,0,0,0,0,0,9482,9482,9482,9482,9482,9482,9482,9482,9482,9482,9482,9482,9482,9482,9482,9482,9482,9482,9482,9482,9482,9482,9482,9482,9482,9482,9482,9482,9482,9482,9482,9482,9482,9482,9482,9482,9482,9482,9482,9482,9482,9482,9482,9482,9482,9482,9482,9482,9482,9482,9482,9482,9482,9482,9482,9482,9482,9482,9482,9482,9482,9482,9482,9482,9482,9482,9482,
0,0,0,0,0,0,0,0,0,0,0,0,0,9482,9482,9482,9482,9482,9482,9482,9482,9482,9482,9482,9482,9482,9482,9482,9482,9482,9482,9482,9482,9482,9482,9482,9482,9482,9482,9482,9482,9482,9482,9482,9482,9482,9482,9482,9482,9482,9482,9482,9482,9482,9482,9482,9482,9482,9482,9482,9482,9482,9482,9482,9482,9482,9482,9482,9482,9482,9482,9482,9482,9482,9482,9482,9482,9482,9482,9482,
0,0,0,0,0,0,0,0,0,0,0,0,0,9482,9482,9482,9482,9482,9482,9482,9482,9482,9482,9482,9482,9482,9482,9482,9482,9482,9482,9482,9482,9482,9482,9482,9482,9482,9482,9482,9482,9482,9482,9482,9482,9482,9482,9482,9482,9482,9482,9482,9482,9482,9482,9482,9482,9482,9482,9482,9482,9482,9482,9482,9482,9482,9482,9482,9482,9482,9482,9482,9482,9482,9482,9482,9482,9482,9482,9482,
0,0,0,0,0,0,0,0,0,0,0,0,0,9482,9482,9482,9482,9482,9482,9482,9482,9482,9482,9482,9482,9482,9482,9482,9482,9482,9482,9482,9482,9482,9482,9482,9482,9482,9482,9482,9482,9482,9482,9482,9482,9482,9482,9482,9482,9482,9482,9482,9482,9482,9482,9482,9482,9482,9482,9482,9482,9482,9482,9482,9482,9482,9482,9482,9482,9482,9482,9482,9482,9482,9482,9482,9482,9482,9482,9482,
0,0,0,0,0,0,0,0,0,0,0,0,0,9482,9482,9482,9482,9482,9482,9482,9482,9482,9482,9482,9482,9482,9482,9482,9482,9482,9482,9482,9482,9482,9482,9482,9482,9482,9482,9482,9482,9482,9482,9482,9482,9482,9482,9482,9482,9482,9482,9482,9482,9482,9482,9482,9482,9482,9482,9482,9482,9482,9482,9482,9482,9482,9482,9482,9482,9482,9482,9482,9482,9482,9482,9482,9482,9482,9482,9482,
0,0,0,0,0,0,0,0,0,0,0,0,0,9482,9482,9482,9482,9482,9482,9482,9482,9482,9482,9482,9482,9482,9482,9482,9482,9482,9482,9482,9482,9482,9482,9482,9482,9482,9482,9482,9482,9482,9482,9482,9482,9482,9482,9482,9482,9482,9482,9482,9482,9482,9482,9482,9482,9482,9482,9482,9482,9482,9482,9482,9482,9482,9482,9482,9482,9482,9482,9482,9482,9482,9482,9482,9482,9482,9482,9482,
0,0,0,0,0,0,0,0,0,0,0,0,0,9482,9482,9482,9482,9482,9482,9482,9482,9482,9482,9482,9482,9482,9482,9482,9482,9482,9482,9482,9482,9482,9482,9482,9482,9482,9482,9482,9482,9482,9482,9482,9482,9482,9482,9482,9482,9482,9482,9482,9482,9482,9482,9482,9482,9482,9482,9482,9482,9482,9482,9482,9482,9482,9482,9482,9482,9482,9482,9482,9482,9482,9482,9482,9482,9482,9482,9482,
0,0,0,0,0,0,0,0,0,0,0,0,0,9482,9482,9482,9482,9482,9482,9482,9482,9482,9482,9482,9482,9482,9482,9482,9482,9482,9482,9482,9482,9482,9482,9482,9482,9482,9482,9482,9482,9482,9482,9482,9482,9482,9482,9482,9482,9482,9482,9482,9482,9482,9482,9482,9482,9482,9482,9482,9482,9482,9482,9482,9482,9482,9482,9482,9482,9482,9482,9482,9482,9482,9482,9482,9482,9482,9482,9482,
0,0,0,0,0,0,0,0,0,0,0,0,0,9482,9482,9482,9482,9482,9482,9482,9482,9482,9482,9482,9482,9482,9482,9482,9482,9482,9482,9482,9482,9482,9482,9482,9482,9482,9482,9482,9482,9482,9482,9482,9482,9482,9482,9482,9482,9482,9482,9482,9482,9482,9482,9482,9482,9482,9482,9482,9482,9482,9482,9482,9482,9482,9482,9482,9482,9482,9482,9482,9482,9482,9482,9482,9482,9482,9482,9482,
0,0,0,0,0,0,0,0,0,0,0,0,0,9482,9482,9482,9482,9482,9482,9482,9482,9482,9482,9482,9482,9482,9482,9482,9482,9482,9482,9482,9482,9482,9482,9482,9482,9482,9482,9482,9482,9482,9482,9482,9482,9482,9482,9482,9482,9482,9482,9482,9482,9482,9482,9482,9482,9482,9482,9482,9482,9482,9482,9482,9482,9482,9482,9482,9482,9482,9482,9482,9482,9482,9482,9482,9482,9482,9482,9482,
0,0,0,0,0,0,0,0,0,0,0,0,0,9482,9482,9482,9482,9482,9482,9482,9482,9482,9482,9482,9482,9482,9482,9482,9482,9482,9482,9482,9482,9482,9482,9482,9482,9482,9482,9482,9482,9482,9482,9482,9482,9482,9482,9482,9482,9482,9482,9482,9482,9482,9482,9482,9482,9482,9482,9482,9482,9482,9482,9482,9482,9482,9482,9482,9482,9482,9482,9482,9482,9482,9482,9482,9482,9482,9482,9482,
0,0,0,0,0,0,0,0,0,0,0,0,0,9482,9482,9482,9482,9482,9482,9482,9482,9482,9482,9482,9482,9482,9482,9482,9482,9482,9482,9482,9482,9482,9482,9482,9482,9482,9482,9482,9482,9482,9482,9482,9482,9482,9482,9482,9482,9482,9482,9482,9482,9482,9482,9482,9482,9482,9482,9482,9482,9482,9482,9482,9482,9482,9482,9482,9482,9482,9482,9482,9482,9482,9482,9482,9482,9482,9482,9482,
0,0,0,0,0,0,0,0,0,0,0,0,0,9482,9482,9482,9482,9482,9482,9482,9482,9482,9482,9482,9482,9482,9482,9482,9482,9482,9482,9482,9482,9482,9482,9482,9482,9482,9482,9482,9482,9482,9482,9482,9482,9482,9482,9482,9482,9482,9482,9482,9482,9482,9482,9482,9482,9482,9482,9482,9482,9482,9482,9482,9482,9482,9482,9482,9482,9482,9482,9482,9482,9482,9482,9482,9482,9482,9482,9482,
0,0,0,0,0,0,0,0,0,0,0,0,0,9482,9482,9482,9482,9482,9482,9482,9482,9482,9482,9482,9482,9482,9482,9482,9482,9482,9482,9482,9482,9482,9482,9482,9482,9482,9482,9482,9482,9482,9482,9482,9482,9482,9482,9482,9482,9482,9482,9482,9482,9482,9482,9482,9482,9482,9482,9482,9482,9482,9482,9482,9482,9482,9482,9482,9482,9482,9482,9482,9482,9482,9482,9482,9482,9482,9482,9482,
0,0,0,0,0,0,0,0,0,0,0,0,0,9482,9482,9482,9482,9482,9482,9482,9482,9482,9482,9482,9482,9482,9482,9482,9482,9482,9482,9482,9482,9482,9482,9482,9482,9482,9482,9482,9482,9482,9482,9482,9482,9482,9482,9482,9482,9482,9482,9482,9482,9482,9482,9482,9482,9482,9482,9482,9482,9482,9482,9482,9482,9482,9482,9482,9482,9482,9482,9482,9482,9482,9482,9482,9482,9482,9482,9482
</data>
 </layer>
 <layer name="Collision" width="80" height="70" visible="0">
  <data encoding="csv">
0,0,0,0,0,0,0,0,0,0,0,0,0,0,0,0,0,0,0,0,0,0,0,0,0,0,0,0,0,0,0,0,0,0,0,0,0,0,0,0,0,0,0,0,0,0,0,0,0,0,0,0,0,0,0,0,0,0,0,0,0,0,0,0,0,0,0,0,0,0,0,0,0,0,0,0,0,0,0,0,
0,0,0,0,0,0,0,0,0,0,0,0,0,0,0,0,0,0,0,0,0,0,0,0,0,0,0,0,0,0,0,0,0,0,0,0,0,0,0,0,0,0,0,0,0,0,0,0,0,0,0,0,0,0,0,0,0,0,0,0,0,0,0,0,0,0,0,0,0,0,0,0,0,0,0,0,0,0,0,0,
0,0,0,0,0,0,0,0,0,0,0,0,0,0,0,0,0,0,0,0,0,0,0,0,0,0,0,0,0,0,0,0,0,0,0,0,0,0,0,0,0,0,0,0,0,0,0,0,0,0,0,0,0,0,0,0,0,0,0,0,0,0,0,0,0,0,0,0,0,0,0,0,0,0,0,0,0,0,0,0,
0,0,0,0,0,0,0,0,0,0,0,0,0,0,0,0,0,0,0,0,0,0,0,0,0,0,0,0,0,0,0,0,0,0,0,0,0,0,0,0,0,0,0,0,0,0,0,0,0,0,0,0,0,0,0,0,0,0,0,0,0,0,0,0,0,0,0,0,0,0,0,0,0,0,0,0,0,0,0,0,
0,0,0,0,0,0,0,0,0,0,0,0,0,0,0,0,0,0,0,0,0,0,0,0,0,0,0,0,0,0,0,0,0,0,0,0,0,0,0,0,0,0,0,0,0,0,0,0,0,0,0,0,0,0,0,0,0,0,0,0,0,0,0,0,0,0,0,0,0,0,0,0,0,0,0,0,0,0,0,0,
0,0,0,0,0,0,0,0,0,0,0,0,0,0,0,0,0,0,0,0,0,0,0,0,0,0,0,0,0,0,0,0,0,0,0,0,0,0,0,0,0,0,0,0,0,0,0,0,0,0,0,0,0,0,0,0,0,0,0,0,0,0,0,0,0,0,0,0,0,0,0,0,0,0,0,0,0,0,0,0,
0,0,0,0,0,0,0,0,0,0,0,0,0,0,0,0,0,0,0,0,0,0,0,0,0,0,0,0,0,0,0,0,0,0,0,0,0,0,0,0,0,0,0,0,0,0,0,0,0,0,0,0,0,0,0,0,0,0,0,0,0,0,0,0,0,0,0,0,0,0,0,0,0,0,0,0,0,0,0,0,
0,0,0,0,0,0,0,0,0,0,0,0,0,0,0,0,0,0,0,0,0,0,0,0,0,0,0,0,0,0,0,0,0,0,0,0,0,0,0,0,0,0,0,0,0,0,0,0,0,0,0,0,0,0,0,0,0,0,0,0,0,0,0,0,0,0,0,0,0,0,0,0,0,0,0,0,0,0,0,0,
0,0,0,0,0,0,0,0,0,0,0,0,0,0,0,0,0,0,0,0,0,0,0,0,0,0,0,0,0,0,0,0,0,0,0,0,0,0,0,0,0,0,0,0,0,0,0,0,0,0,0,0,0,0,0,0,0,0,0,0,0,0,0,0,0,0,0,0,0,0,0,0,0,0,0,0,0,0,0,0,
0,0,0,0,0,0,0,0,0,0,0,0,0,0,0,0,0,0,0,0,0,0,0,0,0,0,0,0,0,0,0,0,0,0,0,0,0,0,0,0,0,0,0,0,0,0,0,0,0,0,0,0,0,0,0,0,0,0,0,0,0,0,0,0,0,0,0,0,0,0,0,0,0,0,0,0,0,0,0,0,
0,0,0,0,0,0,0,0,0,0,0,0,0,0,0,0,0,0,0,0,0,0,0,0,0,0,0,0,0,0,0,0,0,0,0,0,0,0,0,0,0,0,0,0,0,0,0,0,0,0,0,0,0,0,0,0,0,0,0,0,0,0,0,0,0,0,0,0,0,0,0,0,0,0,0,0,0,0,0,0,
0,0,0,0,0,0,0,0,0,0,0,0,0,0,0,0,0,0,0,0,0,0,0,0,0,0,0,0,0,0,0,0,0,0,0,0,0,0,0,0,0,0,0,0,0,0,0,0,0,0,0,0,0,0,0,0,0,0,0,0,0,0,0,0,0,0,0,0,0,0,0,0,0,0,0,0,0,0,0,0,
0,0,0,0,0,0,0,0,0,0,0,0,0,0,0,0,0,0,0,0,0,0,0,0,0,0,0,0,0,0,0,0,0,0,0,0,0,0,0,0,0,0,0,0,0,0,0,0,0,0,0,0,0,0,0,0,0,0,0,0,0,0,0,0,0,0,0,0,0,0,0,0,0,0,0,0,0,0,0,0,
0,0,0,0,0,0,0,0,0,0,0,0,0,0,0,0,0,0,0,0,0,0,0,0,0,0,0,0,0,0,0,0,0,0,0,0,0,0,0,0,0,0,0,0,0,0,0,0,0,0,0,0,0,0,0,0,0,0,0,0,0,0,0,0,0,0,0,0,0,0,0,0,0,0,0,0,0,0,0,0,
0,0,0,0,0,0,0,0,0,0,0,0,0,0,0,0,0,0,0,0,0,0,0,0,0,0,0,0,0,0,0,0,0,0,0,0,0,0,0,0,0,0,0,0,0,0,0,0,0,0,0,0,0,0,0,0,0,0,0,0,0,0,0,0,0,0,0,0,0,0,0,0,0,0,0,0,0,0,0,0,
0,0,0,0,0,0,0,0,0,0,0,0,0,0,0,0,0,0,0,0,0,0,0,0,0,0,0,0,0,0,0,0,0,0,0,0,0,0,0,0,0,0,0,0,0,0,0,0,0,0,0,0,0,0,0,0,0,0,0,0,0,0,0,0,0,0,0,0,0,0,0,0,0,0,0,0,0,0,0,0,
0,0,0,0,0,0,0,0,0,0,0,0,0,0,0,0,0,0,0,0,0,0,0,0,0,0,0,0,0,0,0,0,0,0,0,0,0,0,0,0,0,0,0,0,0,0,0,0,0,0,0,0,0,0,0,0,0,0,0,0,0,0,0,0,0,0,0,0,0,0,0,0,0,0,0,0,0,0,0,0,
0,0,0,0,0,0,0,0,0,0,0,0,0,0,0,0,0,0,0,0,0,0,0,0,0,0,0,0,0,0,0,0,0,0,0,0,0,0,0,0,0,0,0,0,0,0,0,0,0,0,0,0,0,0,0,0,0,0,0,0,0,0,0,0,0,0,0,0,0,0,0,0,0,0,0,0,0,0,0,0,
0,0,0,0,0,0,0,0,0,0,0,0,0,0,0,0,0,0,0,0,0,0,0,0,0,0,0,0,0,0,0,0,0,0,0,0,0,0,0,0,0,0,0,0,0,0,0,0,0,0,0,0,0,0,0,0,0,0,0,0,0,0,0,0,0,0,0,0,0,0,0,0,0,0,0,0,0,0,0,0,
0,0,0,0,0,0,0,0,0,0,0,0,0,0,0,0,0,0,0,0,0,0,0,0,0,0,0,0,0,0,0,0,0,0,0,0,0,0,0,0,0,0,0,0,0,0,0,0,0,0,0,0,0,0,0,0,0,0,0,0,0,0,0,0,0,0,0,0,0,0,0,0,0,0,0,0,0,0,0,0,
0,0,0,0,0,0,0,0,0,0,0,0,0,0,0,0,0,0,0,0,0,0,0,0,0,0,0,0,0,0,0,0,0,0,0,0,0,0,0,0,0,0,0,0,0,0,0,0,0,0,0,0,0,0,0,0,0,0,0,0,0,0,0,0,0,0,0,0,0,0,0,0,0,0,0,0,0,0,0,0,
0,0,0,0,0,0,0,0,0,0,0,0,0,0,0,0,0,0,0,0,0,0,0,0,0,0,0,0,0,0,0,0,0,0,0,0,0,0,0,0,0,0,0,0,0,0,0,0,0,0,0,0,0,0,0,0,0,0,0,0,0,0,0,0,0,0,0,0,0,0,0,0,0,0,0,0,0,0,0,0,
0,0,0,0,0,0,0,0,0,0,0,0,0,0,0,0,0,0,0,0,0,0,0,0,0,0,0,0,0,0,0,0,0,0,0,0,0,0,0,0,0,0,0,0,0,0,0,0,0,0,0,0,0,0,0,0,0,0,0,0,0,0,0,0,0,0,0,0,0,0,0,0,0,0,0,0,0,0,0,0,
0,0,0,0,0,0,0,0,0,0,0,0,0,0,0,0,0,0,0,0,0,0,0,0,0,0,0,0,0,0,0,0,0,0,0,0,0,0,0,0,0,0,0,0,0,0,0,0,0,0,0,0,0,0,0,0,0,0,0,0,0,0,0,0,0,0,0,0,0,0,0,0,0,0,0,0,0,0,0,0,
0,0,0,0,0,0,0,0,0,0,0,0,0,0,0,0,0,0,0,0,0,0,0,0,0,0,0,0,0,0,0,0,0,0,0,0,0,0,0,0,0,0,0,0,0,0,0,0,0,0,0,0,0,0,0,0,0,0,0,0,0,0,0,0,0,0,0,0,0,0,0,0,0,0,0,0,0,0,0,0,
0,0,0,0,0,0,0,0,0,0,0,0,0,0,0,0,0,0,0,0,0,0,0,0,0,0,0,0,0,0,0,0,0,0,0,0,0,0,0,0,0,0,0,0,0,0,0,0,0,0,0,0,0,0,0,0,0,0,0,0,0,0,0,0,0,0,0,0,0,0,0,0,0,0,0,0,0,0,0,0,
0,0,0,0,0,0,0,0,0,0,0,0,0,0,0,0,0,0,0,0,0,0,0,0,0,0,0,0,0,0,0,0,0,0,0,0,0,0,0,0,0,0,0,0,0,0,0,0,0,0,0,0,0,0,0,0,0,0,0,0,0,0,0,0,0,0,0,0,0,0,0,0,0,0,0,0,0,0,0,0,
0,0,0,0,0,0,0,0,0,0,0,0,0,0,0,0,0,0,0,0,0,0,0,0,0,0,0,0,0,0,0,0,0,0,0,0,0,0,0,0,0,0,0,0,0,0,0,0,0,0,0,0,0,0,0,0,0,0,0,0,0,0,0,0,0,0,0,0,0,0,0,0,0,0,0,0,0,0,0,0,
0,0,0,0,0,0,0,0,0,0,0,0,0,0,0,0,0,0,0,0,0,0,0,0,0,0,0,0,0,0,0,0,0,0,0,0,0,0,0,0,0,0,0,0,0,0,0,0,0,0,0,0,0,0,0,0,0,0,0,0,0,0,0,0,0,0,0,0,0,0,0,0,0,0,0,0,0,0,0,0,
0,0,0,0,0,0,0,0,0,0,0,0,0,0,0,0,0,0,0,0,0,0,0,0,0,0,0,0,0,0,0,0,0,0,0,0,0,0,0,0,0,0,0,0,0,0,0,0,0,0,0,0,0,0,0,0,0,0,0,0,0,0,0,0,0,0,0,0,0,0,0,0,0,0,0,0,0,0,0,0,
0,0,0,0,0,0,0,0,0,0,0,0,0,9482,9482,9482,9482,9482,9482,9482,9482,9482,9482,9482,9482,9482,9482,9482,9482,9482,9482,9482,9482,9482,9482,9482,9482,9482,9482,9482,9482,9482,9482,9482,9482,9482,9482,9482,9482,9482,9482,9482,9482,9482,9482,9482,9482,9482,9482,9482,9482,9482,9482,9482,9482,9482,9482,9482,9482,9482,9482,9482,9482,9482,9482,9482,9482,9482,9482,9482,
0,0,0,0,0,0,0,0,0,0,0,0,0,9482,9482,9482,9482,9482,9482,9482,9482,9482,9482,9482,9482,9482,9482,9482,9482,9482,9482,9482,9482,9482,9482,9482,9482,9482,9482,9482,9482,9482,9482,9482,9482,9482,9482,9482,9482,9482,9482,9482,9482,9482,9482,9482,9482,9482,9482,9482,9482,9482,9482,9482,9482,9482,9482,9482,9482,9482,9482,9482,9482,9482,9482,9482,9482,9482,9482,9482,
0,0,0,0,0,0,0,0,0,0,0,0,0,9482,9482,9482,9482,9482,9482,9482,9482,9482,9482,9482,9482,9482,9482,9482,9482,9482,9482,9482,9482,9482,9482,9482,9482,9482,9482,9482,9482,9482,9482,9482,9482,9482,9482,9482,9482,9482,9482,9482,9482,9482,9482,9482,9482,9482,9482,9482,9482,9482,9482,9482,9482,9482,9482,9482,9482,9482,9482,9482,9482,9482,9482,9482,9482,9482,9482,9482,
0,0,0,0,0,0,0,0,0,0,0,0,0,9482,9482,9482,9482,9482,9482,9482,9482,9482,9482,9482,9482,9482,9482,9482,9482,9482,9482,9482,9482,9482,9482,9482,9482,9482,9482,9482,9482,9482,9482,9482,9482,9482,9482,9482,9482,9482,9482,9482,9482,9482,9482,9482,9482,9482,9482,9482,9482,9482,9482,9482,9482,9482,9482,9482,9482,9482,9482,9482,9482,9482,9482,9482,9482,9482,9482,9482,
0,0,0,0,0,0,0,0,0,0,0,0,0,9482,9482,9482,9482,9482,9482,9482,9482,9482,9482,9482,9482,9482,9482,9482,9482,9482,9482,9482,9482,9482,9482,9482,9482,9482,9482,9482,9482,9482,9482,9482,9482,9482,9482,9482,9482,9482,9482,9482,9482,9482,9482,9482,9482,9482,9482,9482,9482,9482,9482,9482,9482,9482,9482,9482,9482,9482,9482,9482,9482,9482,9482,9482,9482,9482,9482,9482,
0,0,0,0,0,0,0,0,0,0,0,0,0,9482,9482,9482,9482,9482,9482,9482,9482,9482,9482,9482,9482,9482,9482,9482,9482,9482,9482,9482,9482,9482,9482,9482,9482,9482,9482,9482,9482,9482,9482,9482,9482,9482,9482,9482,9482,9482,9482,9482,9482,9482,9482,9482,9482,9482,9482,9482,9482,9482,9482,9482,9482,9482,9482,9482,9482,9482,9482,9482,9482,9482,9482,9482,9482,9482,9482,9482,
0,0,0,0,0,0,0,0,0,0,0,0,0,9482,9482,9482,9482,9482,9482,9482,9482,9482,9482,9482,9482,9482,9482,9482,9482,9482,9482,9482,9482,9482,9482,9482,9482,9482,9482,9482,9482,9482,9482,9482,9482,9482,9482,9482,9482,9482,9482,9482,9482,9482,9482,9482,9482,9482,9482,9482,9482,9482,9482,9482,9482,9482,9482,9482,9482,9482,9482,9482,9482,9482,9482,9482,9482,9482,9482,9482,
0,0,0,0,0,0,0,0,0,0,0,0,0,9482,9482,9482,9482,9482,9482,9482,9482,9482,9482,9482,9482,9482,9482,9482,9482,9482,9482,9482,9482,9482,9482,9482,9482,9482,9482,9482,9482,9482,9482,9482,9482,9482,9482,9482,9482,9482,9482,9482,9482,9482,9482,9482,9482,9482,9482,9482,9482,9482,9482,9482,9482,9482,9482,9482,9482,9482,9482,9482,9482,9482,9482,9482,9482,9482,9482,9482,
0,0,0,0,0,0,0,0,0,0,0,0,0,9482,9482,9482,9482,9482,9482,9482,9482,9482,9482,9482,9482,9482,9482,9482,9482,9482,9482,9482,9482,9482,9482,9482,9482,9482,9482,9482,9482,9482,9482,9482,9482,9482,9482,9482,9482,9482,9482,9482,9482,9482,9482,9482,9482,9482,9482,9482,9482,9482,9482,9482,9482,9482,9482,9482,9482,9482,9482,9482,9482,9482,9482,9482,9482,9482,9482,9482,
0,0,0,0,0,0,0,0,0,0,0,0,0,9482,9482,9482,9482,9482,9482,9482,9482,9482,9482,9482,9482,9482,9482,9482,9482,9482,9482,9482,9482,9482,9482,9482,9482,9482,9482,9482,9482,9482,9482,9482,9482,9482,9482,9482,9482,9482,9482,9482,9482,9482,9482,9482,9482,9482,9482,9482,9482,9482,9482,9482,9482,9482,9482,9482,9482,9482,9482,9482,9482,9482,9482,9482,9482,9482,9482,9482,
0,0,0,0,0,0,0,0,0,0,0,0,0,9482,9482,9482,9482,9482,9482,9482,9482,9482,9482,9482,9482,9482,9482,9482,9482,9482,9482,9482,9482,9482,9482,9482,9482,9482,9482,9482,9482,9482,9482,9482,9482,9482,9482,9482,9482,9482,9482,9482,9482,9482,9482,9482,9482,9482,9482,9482,9482,9482,9482,9482,9482,9482,9482,9482,9482,9482,9482,9482,9482,9482,9482,9482,9482,9482,9482,9482,
0,0,0,0,0,0,0,0,0,0,0,0,0,9482,9482,9482,9482,9482,9482,9482,9482,9482,9482,9482,9482,9482,9482,9482,9482,9482,9482,9482,9482,9482,9482,9482,9482,9482,9482,9482,9482,9482,9482,9482,9482,9482,9482,9482,9482,9482,9482,9482,9482,9482,9482,9482,9482,9482,9482,9482,9482,9482,9482,9482,9482,9482,9482,9482,9482,9482,9482,9482,9482,9482,9482,9482,9482,9482,9482,9482,
0,0,0,0,0,0,0,0,0,0,0,0,0,9482,9482,9482,9482,9482,9482,9482,9482,9482,9482,9482,9482,9482,9482,9482,9482,9482,9482,9482,9482,9482,9482,9482,9482,9482,9482,9482,9482,9482,9482,9482,9482,9482,9482,9482,9482,9482,9482,9482,9482,9482,9482,9482,9482,9482,9482,9482,9482,9482,9482,9482,9482,9482,9482,9482,9482,9482,9482,9482,9482,9482,9482,9482,9482,9482,9482,9482,
0,0,0,0,0,0,0,0,0,0,0,0,0,9482,9482,9482,9482,9482,9482,9482,9482,9482,9482,9482,9482,9482,9482,9482,9482,9482,9482,9482,9482,9482,9482,9482,9482,9482,9482,9482,9482,9482,9482,9482,9482,9482,9482,9482,9482,9482,9482,9482,9482,9482,9482,9482,9482,9482,9482,9482,9482,9482,9482,9482,9482,9482,9482,9482,9482,9482,9482,9482,9482,9482,9482,9482,9482,9482,9482,9482,
0,0,0,0,0,0,0,0,0,0,0,0,0,9482,9482,9482,9482,9482,9482,9482,9482,9482,9482,9482,9482,9482,9482,9482,9482,9482,9482,9482,9482,9482,9482,9482,9482,9482,9482,9482,9482,9482,9482,9482,9482,9482,9482,9482,9482,9482,9482,9482,9482,9482,9482,9482,9482,9482,9482,9482,9482,9482,9482,9482,9482,9482,9482,9482,9482,9482,9482,9482,9482,9482,9482,9482,9482,9482,9482,9482,
0,0,0,0,0,0,0,0,0,0,0,0,0,9482,9482,9482,9482,9482,9482,9482,9482,9482,9482,9482,9482,9482,9482,9482,9482,9482,9482,9482,9482,9482,9482,9482,9482,9482,9482,9482,9482,9482,9482,9482,9482,9482,9482,9482,9482,9482,9482,9482,9482,9482,9482,9482,9482,9482,9482,9482,9482,9482,9482,9482,9482,9482,9482,9482,9482,9482,9482,9482,9482,9482,9482,9482,9482,9482,9482,9482,
0,0,0,0,0,0,0,0,0,0,0,0,0,9482,9482,9482,9482,9482,9482,9482,9482,9482,9482,9482,9482,9482,9482,9482,9482,9482,9482,9482,9482,9482,9482,9482,9482,9482,9482,9482,9482,9482,9482,9482,9482,9482,9482,9482,9482,9482,9482,9482,9482,9482,9482,9482,9482,9482,9482,9482,9482,9482,9482,9482,9482,9482,9482,9482,9482,9482,9482,9482,9482,9482,9482,9482,9482,9482,9482,9482,
0,0,0,0,0,0,0,0,0,0,0,0,0,9482,9482,9482,9482,9482,9482,9482,9482,9482,9482,9482,9482,9482,9482,9482,9482,9482,9482,9482,9482,9482,9482,9482,9482,9482,9482,9482,9482,9482,9482,9482,9482,9482,9482,9482,9482,9482,9482,9482,9482,9482,9482,9482,9482,9482,9482,9482,9482,9482,9482,9482,9482,9482,9482,9482,9482,9482,9482,9482,9482,9482,9482,9482,9482,9482,9482,9482,
0,0,0,0,0,0,0,0,0,0,0,0,0,9482,9482,9482,9482,9482,9482,9482,9482,9482,9482,9482,9482,9482,9482,9482,9482,9482,9482,9482,9482,9482,9482,9482,9482,9482,9482,9482,9482,9482,9482,9482,9482,9482,9482,9482,9482,9482,9482,9482,9482,9482,9482,9482,9482,9482,9482,9482,9482,9482,9482,9482,9482,9482,9482,9482,9482,9482,9482,9482,9482,9482,9482,9482,9482,9482,9482,9482,
0,0,0,0,0,0,0,0,0,0,0,0,0,9482,9482,9482,9482,9482,9482,9482,9482,9482,9482,9482,9482,9482,9482,9482,9482,9482,9482,9482,9482,9482,9482,9482,9482,9482,9482,9482,9482,9482,9482,9482,9482,9482,9482,9482,9482,9482,9482,9482,9482,9482,9482,9482,9482,9482,9482,9482,9482,9482,9482,9482,9482,9482,9482,9482,9482,9482,9482,9482,9482,9482,9482,9482,9482,9482,9482,9482,
0,0,0,0,0,0,0,0,0,0,0,0,0,9482,9482,9482,9482,9482,9482,9482,9482,9482,9482,9482,9482,9482,9482,9482,9482,9482,9482,9482,9482,9482,9482,9482,9482,9482,9482,9482,9482,9482,9482,9482,9482,9482,9482,9482,9482,9482,9482,9482,9482,9482,9482,9482,9482,9482,9482,9482,9482,9482,9482,9482,9482,9482,9482,9482,9482,9482,9482,9482,9482,9482,9482,9482,9482,9482,9482,9482,
0,0,0,0,0,0,0,0,0,0,0,0,0,9482,9482,9482,9482,9482,9482,9482,9482,9482,9482,9482,9482,9482,9482,9482,9482,9482,9482,9482,9482,9482,9482,9482,9482,9482,9482,9482,9482,9482,9482,9482,9482,9482,9482,9482,9482,9482,9482,9482,9482,9482,9482,9482,9482,9482,9482,9482,9482,9482,9482,9482,9482,9482,9482,9482,9482,9482,9482,9482,9482,9482,9482,9482,9482,9482,9482,9482,
0,0,0,0,0,0,0,0,0,0,0,0,0,9482,9482,9482,9482,9482,9482,9482,9482,9482,9482,9482,9482,9482,9482,9482,9482,9482,9482,9482,9482,9482,9482,9482,9482,9482,9482,9482,9482,9482,9482,9482,9482,9482,9482,9482,9482,9482,9482,9482,9482,9482,9482,9482,9482,9482,9482,9482,9482,9482,9482,9482,9482,9482,9482,9482,9482,9482,9482,9482,9482,9482,9482,9482,9482,9482,9482,9482,
0,0,0,0,0,0,0,0,0,0,0,0,0,9482,9482,9482,9482,9482,9482,9482,9482,9482,9482,9482,9482,9482,9482,9482,9482,9482,9482,9482,9482,9482,9482,9482,9482,9482,9482,9482,9482,9482,9482,9482,9482,9482,9482,9482,9482,9482,9482,9482,9482,9482,9482,9482,9482,9482,9482,9482,9482,9482,9482,9482,9482,9482,9482,9482,9482,9482,9482,9482,9482,9482,9482,9482,9482,9482,9482,9482,
0,0,0,0,0,0,0,0,0,0,0,0,0,9482,9482,9482,9482,9482,9482,9482,9482,9482,9482,9482,9482,9482,9482,9482,9482,9482,9482,9482,9482,9482,9482,9482,9482,9482,9482,9482,9482,9482,9482,9482,9482,9482,9482,9482,9482,9482,9482,9482,9482,9482,9482,9482,9482,9482,9482,9482,9482,9482,9482,9482,9482,9482,9482,9482,9482,9482,9482,9482,9482,9482,9482,9482,9482,9482,9482,9482,
0,0,0,0,0,0,0,0,0,0,0,0,0,9482,9482,9482,9482,9482,9482,9482,9482,9482,9482,9482,9482,9482,9482,9482,9482,9482,9482,9482,9482,9482,9482,9482,9482,9482,9482,9482,9482,9482,9482,9482,9482,9482,9482,9482,9482,9482,9482,9482,9482,9482,9482,9482,9482,9482,9482,9482,9482,9482,9482,9482,9482,9482,9482,9482,9482,9482,9482,9482,9482,9482,9482,9482,9482,9482,9482,9482,
0,0,0,0,0,0,0,0,0,0,0,0,0,9482,9482,9482,9482,9482,9482,9482,9482,9482,9482,9482,9482,9482,9482,9482,9482,9482,9482,9482,9482,9482,9482,9482,9482,9482,9482,9482,9482,9482,9482,9482,9482,9482,9482,9482,9482,9482,9482,9482,9482,9482,9482,9482,9482,9482,9482,9482,9482,9482,9482,9482,9482,9482,9482,9482,9482,9482,9482,9482,9482,9482,9482,9482,9482,9482,9482,9482,
0,0,0,0,0,0,0,0,0,0,0,0,0,9482,9482,9482,9482,9482,9482,9482,9482,9482,9482,9482,9482,9482,9482,9482,9482,9482,9482,9482,9482,9482,9482,9482,9482,9482,9482,9482,9482,9482,9482,9482,9482,9482,9482,9482,9482,9482,9482,9482,9482,9482,9482,9482,9482,9482,9482,9482,9482,9482,9482,9482,9482,9482,9482,9482,9482,9482,9482,9482,9482,9482,9482,9482,9482,9482,9482,9482,
0,0,0,0,0,0,0,0,0,0,0,0,0,9482,9482,9482,9482,9482,9482,9482,9482,9482,9482,9482,9482,9482,9482,9482,9482,9482,9482,9482,9482,9482,9482,9482,9482,9482,9482,9482,9482,9482,9482,9482,9482,9482,9482,9482,9482,9482,9482,9482,9482,9482,9482,9482,9482,9482,9482,9482,9482,9482,9482,9482,9482,9482,9482,9482,9482,9482,9482,9482,9482,9482,9482,9482,9482,9482,9482,9482,
0,0,0,0,0,0,0,0,0,0,0,0,0,9482,9482,9482,9482,9482,9482,9482,9482,9482,9482,9482,9482,9482,9482,9482,9482,9482,9482,9482,9482,9482,9482,9482,9482,9482,9482,9482,9482,9482,9482,9482,9482,9482,9482,9482,9482,9482,9482,9482,9482,9482,9482,9482,9482,9482,9482,9482,9482,9482,9482,9482,9482,9482,9482,9482,9482,9482,9482,9482,9482,9482,9482,9482,9482,9482,9482,9482,
0,0,0,0,0,0,0,0,0,0,0,0,0,9482,9482,9482,9482,9482,9482,9482,9482,9482,9482,9482,9482,9482,9482,9482,9482,9482,9482,9482,9482,9482,9482,9482,9482,9482,9482,9482,9482,9482,9482,9482,9482,9482,9482,9482,9482,9482,9482,9482,9482,9482,9482,9482,9482,9482,9482,9482,9482,9482,9482,9482,9482,9482,9482,9482,9482,9482,9482,9482,9482,9482,9482,9482,9482,9482,9482,9482,
0,0,0,0,0,0,0,0,0,0,0,0,0,9482,9482,9482,9482,9482,9482,9482,9482,9482,9482,9482,9482,9482,9482,9482,9482,9482,9482,9482,9482,9482,9482,9482,9482,9482,9482,9482,9482,9482,9482,9482,9482,9482,9482,9482,9482,9482,9482,9482,9482,9482,9482,9482,9482,9482,9482,9482,9482,9482,9482,9482,9482,9482,9482,9482,9482,9482,9482,9482,9482,9482,9482,9482,9482,9482,9482,9482,
0,0,0,0,0,0,0,0,0,0,0,0,0,9482,9482,9482,9482,9482,9482,9482,9482,9482,9482,9482,9482,9482,9482,9482,9482,9482,9482,9482,9482,9482,9482,9482,9482,9482,9482,9482,9482,9482,9482,9482,9482,9482,9482,9482,9482,9482,9482,9482,9482,9482,9482,9482,9482,9482,9482,9482,9482,9482,9482,9482,9482,9482,9482,9482,9482,9482,9482,9482,9482,9482,9482,9482,9482,9482,9482,9482,
0,0,0,0,0,0,0,0,0,0,0,0,0,9482,9482,9482,9482,9482,9482,9482,9482,9482,9482,9482,9482,9482,9482,9482,9482,9482,9482,9482,9482,9482,9482,9482,9482,9482,9482,9482,9482,9482,9482,9482,9482,9482,9482,9482,9482,9482,9482,9482,9482,9482,9482,9482,9482,9482,9482,9482,9482,9482,9482,9482,9482,9482,9482,9482,9482,9482,9482,9482,9482,9482,9482,9482,9482,9482,9482,9482,
0,0,0,0,0,0,0,0,0,0,0,0,0,9482,9482,9482,9482,9482,9482,9482,9482,9482,9482,9482,9482,9482,9482,9482,9482,9482,9482,9482,9482,9482,9482,9482,9482,9482,9482,9482,9482,9482,9482,9482,9482,9482,9482,9482,9482,9482,9482,9482,9482,9482,9482,9482,9482,9482,9482,9482,9482,9482,9482,9482,9482,9482,9482,9482,9482,9482,9482,9482,9482,9482,9482,9482,9482,9482,9482,9482,
0,0,0,0,0,0,0,0,0,0,0,0,0,9482,9482,9482,9482,9482,9482,9482,9482,9482,9482,9482,9482,9482,9482,9482,9482,9482,9482,9482,9482,9482,9482,9482,9482,9482,9482,9482,9482,9482,9482,9482,9482,9482,9482,9482,9482,9482,9482,9482,9482,9482,9482,9482,9482,9482,9482,9482,9482,9482,9482,9482,9482,9482,9482,9482,9482,9482,9482,9482,9482,9482,9482,9482,9482,9482,9482,9482,
0,0,0,0,0,0,0,0,0,0,0,0,0,9482,9482,9482,9482,9482,9482,9482,9482,9482,9482,9482,9482,9482,9482,9482,9482,9482,9482,9482,9482,9482,9482,9482,9482,9482,9482,9482,9482,9482,9482,9482,9482,9482,9482,9482,9482,9482,9482,9482,9482,9482,9482,9482,9482,9482,9482,9482,9482,9482,9482,9482,9482,9482,9482,9482,9482,9482,9482,9482,9482,9482,9482,9482,9482,9482,9482,9482,
0,0,0,0,0,0,0,0,0,0,0,0,0,9482,9482,9482,9482,9482,9482,9482,9482,9482,9482,9482,9482,9482,9482,9482,9482,9482,9482,9482,9482,9482,9482,9482,9482,9482,9482,9482,9482,9482,9482,9482,9482,9482,9482,9482,9482,9482,9482,9482,9482,9482,9482,9482,9482,9482,9482,9482,9482,9482,9482,9482,9482,9482,9482,9482,9482,9482,9482,9482,9482,9482,9482,9482,9482,9482,9482,9482,
0,0,0,0,0,0,0,0,0,0,0,0,0,9482,9482,9482,9482,9482,9482,9482,9482,9482,9482,9482,9482,9482,9482,9482,9482,9482,9482,9482,9482,9482,9482,9482,9482,9482,9482,9482,9482,9482,9482,9482,9482,9482,9482,9482,9482,9482,9482,9482,9482,9482,9482,9482,9482,9482,9482,9482,9482,9482,9482,9482,9482,9482,9482,9482,9482,9482,9482,9482,9482,9482,9482,9482,9482,9482,9482,9482,
0,0,0,0,0,0,0,0,0,0,0,0,0,9482,9482,9482,9482,9482,9482,9482,9482,9482,9482,9482,9482,9482,9482,9482,9482,9482,9482,9482,9482,9482,9482,9482,9482,9482,9482,9482,9482,9482,9482,9482,9482,9482,9482,9482,9482,9482,9482,9482,9482,9482,9482,9482,9482,9482,9482,9482,9482,9482,9482,9482,9482,9482,9482,9482,9482,9482,9482,9482,9482,9482,9482,9482,9482,9482,9482,9482
</data>
 </layer>
 <layer name="BunnyExtCollision" width="80" height="70" visible="0">
  <data encoding="csv">
0,0,0,0,0,0,0,0,0,0,0,0,0,0,0,0,0,0,0,0,0,0,0,0,0,0,0,0,0,0,0,0,0,0,0,0,0,0,0,0,0,0,0,0,0,0,0,0,0,0,0,0,0,0,0,0,0,0,0,0,0,0,0,0,0,0,0,0,0,0,0,0,0,0,0,0,0,0,0,0,
0,0,0,0,0,0,0,0,0,0,0,0,0,0,0,0,0,0,0,0,0,0,0,0,0,0,0,0,0,0,0,0,0,0,0,0,0,0,0,0,0,0,0,0,0,0,0,0,0,0,0,0,0,0,0,0,0,0,0,0,0,0,0,0,0,0,0,0,0,0,0,0,0,0,0,0,0,0,0,0,
0,0,0,0,0,0,0,0,0,0,0,0,0,0,0,0,0,0,0,0,0,0,0,0,0,0,0,0,0,0,0,0,0,0,0,0,0,0,0,0,0,0,0,0,0,0,0,0,0,0,0,0,0,0,0,0,0,0,0,0,0,0,0,0,0,0,0,0,0,0,0,0,0,0,0,0,0,0,0,0,
0,0,0,0,0,0,0,0,0,0,0,0,0,0,0,0,0,0,0,0,0,0,0,0,0,0,0,0,0,0,0,0,0,0,0,0,0,0,0,0,0,0,0,0,0,0,0,0,0,0,0,0,0,0,0,0,0,0,0,0,0,0,0,0,0,0,0,0,0,0,0,0,0,0,0,0,0,0,0,0,
0,0,0,0,0,0,0,0,0,0,0,0,0,0,0,0,0,0,0,0,0,0,0,0,0,0,0,0,0,0,0,0,0,0,0,0,0,0,0,0,0,0,0,0,0,0,0,0,0,0,0,0,0,0,0,0,0,0,0,0,0,0,0,0,0,0,0,0,0,0,0,0,0,0,0,0,0,0,0,0,
0,0,0,0,0,0,0,0,0,0,0,0,0,0,0,0,0,0,0,0,0,0,0,0,0,0,0,0,0,0,0,0,0,0,0,0,0,0,0,0,0,0,0,0,0,0,0,0,0,0,0,0,0,0,0,0,0,0,0,0,0,0,0,0,0,0,0,0,0,0,0,0,0,0,0,0,0,0,0,0,
0,0,0,0,0,0,0,0,0,0,0,0,0,0,0,0,0,0,0,0,0,0,0,0,0,0,0,0,0,0,0,0,0,0,0,0,0,0,0,0,0,0,0,0,0,0,0,0,0,0,0,0,0,0,0,0,0,0,0,0,0,0,0,0,0,0,0,0,0,0,0,0,0,0,0,0,0,0,0,0,
0,0,0,0,0,0,0,0,0,0,0,0,0,0,0,0,0,0,0,0,0,0,0,0,0,0,0,0,0,0,0,0,0,0,0,0,0,0,0,0,0,0,0,0,0,0,0,0,0,0,0,0,0,0,0,0,0,0,0,0,0,0,0,0,0,0,0,0,0,0,0,0,0,0,0,0,0,0,0,0,
0,0,0,0,0,0,0,0,0,0,0,0,0,0,0,0,0,0,0,0,0,0,0,0,0,0,0,0,0,0,0,0,0,0,0,0,0,0,0,0,0,0,0,0,0,0,0,0,0,0,0,0,0,0,0,0,0,0,0,0,0,0,0,0,0,0,0,0,0,0,0,0,0,0,0,0,0,0,0,0,
0,0,0,0,0,0,0,0,0,0,0,0,0,0,0,0,0,0,0,0,0,0,0,0,0,0,0,0,0,0,0,0,0,0,0,0,0,0,0,0,0,0,0,0,0,0,0,0,0,0,0,0,0,0,0,0,0,0,0,0,0,0,0,0,0,0,0,0,0,0,0,0,0,0,0,0,0,0,0,0,
0,0,0,0,0,0,0,0,0,0,0,0,0,0,0,0,0,0,0,0,0,0,0,0,0,0,0,0,0,0,0,0,0,0,0,0,0,0,0,0,0,0,0,0,0,0,0,0,0,0,0,0,0,0,0,0,0,0,0,0,0,0,0,0,0,0,0,0,0,0,0,0,0,0,0,0,0,0,0,0,
0,0,0,0,0,0,0,0,0,0,0,0,0,0,0,0,0,0,0,0,0,0,0,0,0,0,0,0,0,0,0,0,0,0,0,0,0,0,0,0,0,0,0,0,0,0,0,0,0,0,0,0,0,0,0,0,0,0,0,0,0,0,0,0,0,0,0,0,0,0,0,0,0,0,0,0,0,0,0,0,
0,0,0,0,0,0,0,0,0,0,0,0,0,0,0,0,0,0,0,0,0,0,0,0,0,0,0,0,0,0,0,0,0,0,0,0,0,0,0,0,0,0,0,0,0,0,0,0,0,0,0,0,0,0,0,0,0,0,0,0,0,0,0,0,0,0,0,0,0,0,0,0,0,0,0,0,0,0,0,0,
0,0,0,0,0,0,0,0,0,0,0,0,0,0,0,0,0,0,0,0,0,0,0,0,0,0,0,0,0,0,0,0,0,0,0,0,0,0,0,0,0,0,0,0,0,0,0,0,0,0,0,0,0,0,0,0,0,0,0,0,0,0,0,0,0,0,0,0,0,0,0,0,0,0,0,0,0,0,0,0,
0,0,0,0,0,0,0,0,0,0,0,0,0,0,0,0,0,0,0,0,0,0,0,0,0,0,0,0,0,0,0,0,0,0,0,0,0,0,0,0,0,0,0,0,0,0,0,0,0,0,0,0,0,0,0,0,0,0,0,0,0,0,0,0,0,0,0,0,0,0,0,0,0,0,0,0,0,0,0,0,
0,0,0,0,0,0,0,0,0,0,0,0,0,0,0,0,0,0,0,0,0,0,0,0,0,0,0,0,0,0,0,0,0,0,0,0,0,0,0,0,0,0,0,0,0,0,0,0,0,0,0,0,0,0,0,0,0,0,0,0,0,0,0,0,0,0,0,0,0,0,0,0,0,0,0,0,0,0,0,0,
0,0,0,0,0,0,0,0,0,0,0,0,0,0,0,0,0,0,0,0,0,0,0,0,0,0,0,0,0,0,0,0,0,0,0,0,0,0,0,0,0,0,0,0,0,0,0,0,0,0,0,0,0,0,0,0,0,0,0,0,0,0,0,0,0,0,0,0,0,0,0,0,0,0,0,0,0,0,0,0,
0,0,0,0,0,0,0,0,0,0,0,0,0,0,0,0,0,0,0,0,0,0,0,0,0,0,0,0,0,0,0,0,0,0,0,0,0,0,0,0,0,0,0,0,0,0,0,0,0,0,0,0,0,0,0,0,0,0,0,0,0,0,0,0,0,0,0,0,0,0,0,0,0,0,0,0,0,0,0,0,
0,0,0,0,0,0,0,0,0,0,0,0,0,0,0,0,0,0,0,0,0,0,0,0,0,0,0,0,0,0,0,0,0,0,0,0,0,0,0,0,0,0,0,0,0,0,0,0,0,0,0,0,0,0,0,0,0,0,0,0,0,0,0,0,0,0,0,0,0,0,0,0,0,0,0,0,0,0,0,0,
0,0,0,0,0,0,0,0,0,0,0,0,0,0,0,0,0,0,0,0,0,0,0,0,0,0,0,0,0,0,0,0,0,0,0,0,0,0,0,0,0,0,0,0,0,0,0,0,0,0,0,0,0,0,0,0,0,0,0,0,0,0,0,0,0,0,0,0,0,0,0,0,0,0,0,0,0,0,0,0,
0,0,0,0,0,0,0,0,0,0,0,0,0,0,0,0,0,0,0,0,0,0,0,0,0,0,0,0,0,0,0,0,0,0,0,0,0,0,0,0,0,0,0,0,0,0,0,0,0,0,0,0,0,0,0,0,0,0,0,0,0,0,0,0,0,0,0,0,0,0,0,0,0,0,0,0,0,0,0,0,
0,0,0,0,0,0,0,0,0,0,0,0,0,0,0,0,0,0,0,0,0,0,0,0,0,0,0,0,0,0,0,0,0,0,0,0,0,0,0,0,0,0,0,0,0,0,0,0,0,0,0,0,0,0,0,0,0,0,0,0,0,0,0,0,0,0,0,0,0,0,0,0,0,0,0,0,0,0,0,0,
0,0,0,0,0,0,0,0,0,0,0,0,0,0,0,0,0,0,0,0,0,0,0,0,0,0,0,0,0,0,0,0,0,0,0,0,0,0,0,0,0,0,0,0,0,0,0,0,0,0,0,0,0,0,0,0,0,0,0,0,0,0,0,0,0,0,0,0,0,0,0,0,0,0,0,0,0,0,0,0,
0,0,0,0,0,0,0,0,0,0,0,0,0,0,0,0,0,0,0,0,0,0,0,0,0,0,0,0,0,0,0,0,0,0,0,0,0,0,0,0,0,0,0,0,0,0,0,0,0,0,0,0,0,0,0,0,0,0,0,0,0,0,0,0,0,0,0,0,0,0,0,0,0,0,0,0,0,0,0,0,
0,0,0,0,0,0,0,0,0,0,0,0,0,0,0,0,0,0,0,0,0,0,0,0,0,0,0,0,0,0,0,0,0,0,0,0,0,0,0,0,0,0,0,0,0,0,0,0,0,0,0,0,0,0,0,0,0,0,0,0,0,0,0,0,0,0,0,0,0,0,0,0,0,0,0,0,0,0,0,0,
0,0,0,0,0,0,0,0,0,0,0,0,0,0,0,0,0,0,0,0,0,0,0,0,0,0,0,0,0,0,0,0,0,0,0,0,0,0,0,0,0,0,0,0,0,0,0,0,0,0,0,0,0,0,0,0,0,0,0,0,0,0,0,0,0,0,0,0,0,0,0,0,0,0,0,0,0,0,0,0,
0,0,0,0,0,0,0,0,0,0,0,0,0,0,0,0,0,0,0,0,0,0,0,0,0,0,0,0,0,0,0,0,0,0,0,0,0,0,0,0,0,0,0,0,0,0,0,0,0,0,0,0,0,0,0,0,0,0,0,0,0,0,0,0,0,0,0,0,0,0,0,0,0,0,0,0,0,0,0,0,
0,0,0,0,0,0,0,0,0,0,0,0,0,0,0,0,0,0,0,0,0,0,0,0,0,0,0,0,0,0,0,0,0,0,0,0,0,0,0,0,0,0,0,0,0,0,0,0,0,0,0,0,0,0,0,0,0,0,0,0,0,0,0,0,0,0,0,0,0,0,0,0,0,0,0,0,0,0,0,0,
0,0,0,0,0,0,0,0,0,0,0,0,0,0,0,0,0,0,0,0,0,0,0,0,0,0,0,0,0,0,0,0,0,0,0,0,0,0,0,0,0,0,0,0,0,0,0,0,0,0,0,0,0,0,0,0,0,0,0,0,0,0,0,0,0,0,0,0,0,0,0,0,0,0,0,0,0,0,0,0,
0,0,0,0,0,0,0,0,0,0,0,0,0,0,0,0,0,0,0,0,0,0,0,0,0,0,0,0,0,0,0,0,0,0,0,0,0,0,0,0,0,0,0,0,0,0,0,0,0,0,0,0,0,0,0,0,0,0,0,0,0,0,0,0,0,0,0,0,0,0,0,0,0,0,0,0,0,0,0,0,
0,0,0,0,0,0,0,0,0,0,0,0,0,0,0,0,0,0,0,0,0,0,0,0,0,0,0,0,0,0,0,0,0,0,0,0,0,0,0,0,0,0,0,0,0,0,0,0,0,0,0,0,0,0,0,0,0,0,0,0,0,0,0,0,0,0,0,0,0,0,0,0,0,0,0,0,0,0,0,0,
0,0,0,0,0,0,0,0,0,0,0,0,0,0,0,0,0,0,0,0,0,0,0,0,0,0,0,0,0,0,0,0,0,0,0,0,0,0,0,0,0,0,0,0,0,0,0,0,0,0,0,0,0,0,0,0,0,0,0,0,0,0,0,0,0,0,0,0,0,0,0,0,0,0,0,0,0,0,0,0,
0,0,0,0,0,0,0,0,0,0,0,0,0,0,0,0,0,0,0,0,0,0,0,0,0,0,0,0,0,0,0,0,0,0,0,0,0,0,0,0,0,0,0,0,0,0,0,0,0,0,0,0,0,0,0,0,0,0,0,0,0,0,0,0,0,0,0,0,0,0,0,0,0,0,0,0,0,0,0,0,
0,0,0,0,0,0,0,0,0,0,0,0,0,0,0,0,0,0,0,0,0,0,0,0,0,0,0,0,0,0,0,0,0,0,0,0,0,0,0,0,0,0,0,0,0,0,0,0,0,0,0,0,0,0,0,0,0,0,0,0,0,0,0,0,0,0,0,0,0,0,0,0,0,0,0,0,0,0,0,0,
0,0,0,0,0,0,0,0,0,0,0,0,0,0,0,0,0,0,0,0,0,0,0,0,0,0,0,0,0,0,0,0,0,0,0,0,0,0,0,0,0,0,0,0,0,0,0,0,0,0,0,0,0,0,0,0,0,0,0,0,0,0,0,0,0,0,0,0,0,0,0,0,0,0,0,0,0,0,0,0,
0,0,0,0,0,0,0,0,0,0,0,0,0,0,0,0,0,0,0,0,0,0,0,0,0,0,0,0,0,0,0,0,0,0,0,0,0,0,0,0,0,0,0,0,0,0,0,0,0,0,0,0,0,0,0,0,0,0,0,0,0,0,0,0,0,0,0,0,0,0,0,0,0,0,0,0,0,0,0,0,
0,0,0,0,0,0,0,0,0,0,0,0,0,0,0,0,0,0,0,0,0,0,0,0,0,0,0,0,0,0,0,0,0,0,0,0,0,0,0,0,0,0,0,0,0,0,0,0,0,0,0,0,0,0,0,0,0,0,0,0,0,0,0,0,0,0,0,0,0,0,0,0,0,0,0,0,0,0,0,0,
0,0,0,0,0,0,0,0,0,0,0,0,0,0,0,0,0,0,0,0,0,0,0,0,0,0,0,0,0,0,0,0,0,0,0,0,0,0,0,0,0,0,0,0,0,0,0,0,0,0,0,0,0,0,0,0,0,0,0,0,0,0,0,0,0,0,0,0,0,0,0,0,0,0,0,0,0,0,0,0,
0,0,0,0,0,0,0,0,0,0,0,0,0,0,0,0,0,0,0,0,0,0,0,0,0,0,0,0,0,0,0,0,0,0,0,0,0,0,0,0,0,0,0,0,0,0,0,0,0,0,0,0,0,0,0,0,0,0,0,0,0,0,0,0,0,0,0,0,0,0,0,0,0,0,0,0,0,0,0,0,
0,0,0,0,0,0,0,0,0,0,0,0,0,0,0,0,0,0,0,0,0,0,0,0,0,0,0,0,0,0,0,0,0,0,0,0,0,0,0,0,0,0,0,0,0,0,0,0,0,0,0,0,0,0,0,0,0,0,0,0,0,0,0,0,0,0,0,0,0,0,0,0,0,0,0,0,0,0,0,0,
0,0,0,0,0,0,0,0,0,0,0,0,0,0,0,0,0,0,0,0,0,0,0,0,0,0,0,0,0,0,0,0,0,0,0,0,0,0,0,0,0,0,0,0,0,0,0,0,0,0,0,0,0,0,0,0,0,0,0,0,0,0,0,0,0,0,0,0,0,0,0,0,0,0,0,0,0,0,0,0,
0,0,0,0,0,0,0,0,0,0,0,0,0,0,0,0,0,0,0,0,0,0,0,0,0,0,0,0,0,0,0,0,0,0,0,0,0,0,0,0,0,0,0,0,0,0,0,0,0,0,0,0,0,0,0,0,0,0,0,0,0,0,0,0,0,0,0,0,0,0,0,0,0,0,0,0,0,0,0,0,
0,0,0,0,0,0,0,0,0,0,0,0,0,0,0,0,0,0,0,0,0,0,0,0,0,0,0,0,0,0,0,0,0,0,0,0,0,0,0,0,0,0,0,0,0,0,0,0,0,0,0,0,0,0,0,0,0,0,0,0,0,0,0,0,0,0,0,0,0,0,0,0,0,0,0,0,0,0,0,0,
0,0,0,0,0,0,0,0,0,0,0,0,0,0,0,0,0,0,0,0,0,0,0,0,0,0,0,0,0,0,0,0,0,0,0,0,0,0,0,0,0,0,0,0,0,0,0,0,0,0,0,0,0,0,0,0,0,0,0,0,0,0,0,0,0,0,0,0,0,0,0,0,0,0,0,0,0,0,0,0,
0,0,0,0,0,0,0,0,0,0,0,0,0,0,0,0,0,0,0,0,0,0,0,0,0,0,0,0,0,0,0,0,0,0,0,0,0,0,0,0,0,0,0,0,0,0,0,0,0,0,0,0,0,0,0,0,0,0,0,0,0,0,0,0,0,0,0,0,0,0,0,0,0,0,0,0,0,0,0,0,
0,0,0,0,0,0,0,0,0,0,0,0,0,0,0,0,0,0,0,0,0,0,0,0,0,0,0,0,0,0,0,0,0,0,0,0,0,0,0,0,0,0,0,0,0,0,0,0,0,0,0,0,0,0,0,0,0,0,0,0,0,0,0,0,0,0,0,0,0,0,0,0,0,0,0,0,0,0,0,0,
0,0,0,0,0,0,0,0,0,0,0,0,0,0,0,0,0,0,0,0,0,0,0,0,0,0,0,0,0,0,0,0,0,0,0,0,0,0,0,0,0,0,0,0,0,0,0,0,0,0,0,0,0,0,0,0,0,0,0,0,0,0,0,0,0,0,0,0,0,0,0,0,0,0,0,0,0,0,0,0,
0,0,0,0,0,0,0,0,0,0,0,0,0,0,0,0,0,0,0,0,0,0,0,0,0,0,0,0,0,0,0,0,0,0,0,0,0,0,0,0,0,0,0,0,0,0,0,0,0,0,0,0,0,0,0,0,0,0,0,0,0,0,0,0,0,0,0,0,0,0,0,0,0,0,0,0,0,0,0,0,
0,0,0,0,0,0,0,0,0,0,0,0,0,0,0,0,0,0,0,0,0,0,0,0,0,0,0,0,0,0,0,0,0,0,0,0,0,0,0,0,0,0,0,0,0,0,0,0,0,0,0,0,0,0,0,0,0,0,0,0,0,0,0,0,0,0,0,0,0,0,0,0,0,0,0,0,0,0,0,0,
0,0,0,0,0,0,0,0,0,0,0,0,0,0,0,0,0,0,0,0,0,0,0,0,0,0,0,0,0,0,0,0,0,0,0,0,0,0,0,0,0,0,0,0,0,0,0,0,0,0,0,0,0,0,0,0,0,0,0,0,0,0,0,0,0,0,0,0,0,0,0,0,0,0,0,0,0,0,0,0,
0,0,0,0,0,0,0,0,0,0,0,0,0,0,0,0,0,0,0,0,0,0,0,0,0,0,0,0,0,0,0,0,0,0,0,0,0,0,0,0,0,0,0,0,0,0,0,0,0,0,0,0,0,0,0,0,0,0,0,0,0,0,0,0,0,0,0,0,0,0,0,0,0,0,0,0,0,0,0,0,
0,0,0,0,0,0,0,0,0,0,0,0,0,0,0,0,0,0,0,0,0,0,0,0,0,0,0,0,0,0,0,0,0,0,0,0,0,0,0,0,0,0,0,0,0,0,0,0,0,0,0,0,0,0,0,0,0,0,0,0,0,0,0,0,0,0,0,0,0,0,0,0,0,0,0,0,0,0,0,0,
0,0,0,0,0,0,0,0,0,0,0,0,0,0,0,0,0,0,0,0,0,0,0,0,0,0,0,0,0,0,0,0,0,0,0,0,0,0,0,0,0,0,0,0,0,0,0,0,0,0,0,0,0,0,0,0,0,0,0,0,0,0,0,0,0,0,0,0,0,0,0,0,0,0,0,0,0,0,0,0,
0,0,0,0,0,0,0,0,0,0,0,0,0,0,0,0,0,0,0,0,0,0,0,0,0,0,0,0,0,0,0,0,0,0,0,0,0,0,0,0,0,0,0,0,0,0,0,0,0,0,0,0,0,0,0,0,0,0,0,0,0,0,0,0,0,0,0,0,0,0,0,0,0,0,0,0,0,0,0,0,
0,0,0,0,0,0,0,0,0,0,0,0,0,0,0,0,0,0,0,0,0,0,0,0,0,0,0,0,0,0,0,0,0,0,0,0,0,0,0,0,0,0,0,0,0,0,0,0,0,0,0,0,0,0,0,0,0,0,0,0,0,0,0,0,0,0,0,0,0,0,0,0,0,0,0,0,0,0,0,0,
0,0,0,0,0,0,0,0,0,0,0,0,0,0,0,0,0,0,0,0,0,0,0,0,0,0,0,0,0,0,0,0,0,0,0,0,0,0,0,0,0,0,0,0,0,0,0,0,0,0,0,0,0,0,0,0,0,0,0,0,0,0,0,0,0,0,0,0,0,0,0,0,0,0,0,0,0,0,0,0,
0,0,0,0,0,0,0,0,0,0,0,0,0,0,0,0,0,0,0,0,0,0,0,0,0,0,0,0,0,0,0,0,0,0,0,0,0,0,0,0,0,0,0,0,0,0,0,0,0,0,0,0,0,0,0,0,0,0,0,0,0,0,0,0,0,0,0,0,0,0,0,0,0,0,0,0,0,0,0,0,
0,0,0,0,0,0,0,0,0,0,0,0,0,0,0,0,0,0,0,0,0,0,0,0,0,0,0,0,0,0,0,0,0,0,0,0,0,0,0,0,0,0,0,0,0,0,0,0,0,0,0,0,0,0,0,0,0,0,0,0,0,0,0,0,0,0,0,0,0,0,0,0,0,0,0,0,0,0,0,0,
0,0,0,0,0,0,0,0,0,0,0,0,0,0,0,0,0,0,0,0,0,0,0,0,0,0,0,0,0,0,0,0,0,0,0,0,0,0,0,0,0,0,0,0,0,0,0,0,0,0,0,0,0,0,0,0,0,0,0,0,0,0,0,0,0,0,0,0,0,0,0,0,0,0,0,0,0,0,0,0,
0,0,0,0,0,0,0,0,0,0,0,0,0,0,0,0,0,0,0,0,0,0,0,0,0,0,0,0,0,0,0,0,0,0,0,0,0,0,0,0,0,0,0,0,0,0,0,0,0,0,0,0,0,0,0,0,0,0,0,0,0,0,0,0,0,0,0,0,0,0,0,0,0,0,0,0,0,0,0,0,
0,0,0,0,0,0,0,0,0,0,0,0,0,0,0,0,0,0,0,0,0,0,0,0,0,0,0,0,0,0,0,0,0,0,0,0,0,0,0,0,0,0,0,0,0,0,0,0,0,0,0,0,0,0,0,0,0,0,0,0,0,0,0,0,0,0,0,0,0,0,0,0,0,0,0,0,0,0,0,0,
0,0,0,0,0,0,0,0,0,0,0,0,0,0,0,0,0,0,0,0,0,0,0,0,0,0,0,0,0,0,0,0,0,0,0,0,0,0,0,0,0,0,0,0,0,0,0,0,0,0,0,0,0,0,0,0,0,0,0,0,0,0,0,0,0,0,0,0,0,0,0,0,0,0,0,0,0,0,0,0,
0,0,0,0,0,0,0,0,0,0,0,0,0,0,0,0,0,0,0,0,0,0,0,0,0,0,0,0,0,0,0,0,0,0,0,0,0,0,0,0,0,0,0,0,0,0,0,0,0,0,0,0,0,0,0,0,0,0,0,0,0,0,0,0,0,0,0,0,0,0,0,0,0,0,0,0,0,0,0,0,
0,0,0,0,0,0,0,0,0,0,0,0,0,0,0,0,0,0,0,0,0,0,0,0,0,0,0,0,0,0,0,0,0,0,0,0,0,0,0,0,0,0,0,0,0,0,0,0,0,0,0,0,0,0,0,0,0,0,0,0,0,0,0,0,0,0,0,0,0,0,0,0,0,0,0,0,0,0,0,0,
0,0,0,0,0,0,0,0,0,0,0,0,0,0,0,0,0,0,0,0,0,0,0,0,0,0,0,0,0,0,0,0,0,0,0,0,0,0,0,0,0,0,0,0,0,0,0,0,0,0,0,0,0,0,0,0,0,0,0,0,0,0,0,0,0,0,0,0,0,0,0,0,0,0,0,0,0,0,0,0,
0,0,0,0,0,0,0,0,0,0,0,0,0,0,0,0,0,0,0,0,0,0,0,0,0,0,0,0,0,0,0,0,0,0,0,0,0,0,0,0,0,0,0,0,0,0,0,0,0,0,0,0,0,0,0,0,0,0,0,0,0,0,0,0,0,0,0,0,0,0,0,0,0,0,0,0,0,0,0,0,
0,0,0,0,0,0,0,0,0,0,0,0,0,0,0,0,0,0,0,0,0,0,0,0,0,0,0,0,0,0,0,0,0,0,0,0,0,0,0,0,0,0,0,0,0,0,0,0,0,0,0,0,0,0,0,0,0,0,0,0,0,0,0,0,0,0,0,0,0,0,0,0,0,0,0,0,0,0,0,0,
0,0,0,0,0,0,0,0,0,0,0,0,0,0,0,0,0,0,0,0,0,0,0,0,0,0,0,0,0,0,0,0,0,0,0,0,0,0,0,0,0,0,0,0,0,0,0,0,0,0,0,0,0,0,0,0,0,0,0,0,0,0,0,0,0,0,0,0,0,0,0,0,0,0,0,0,0,0,0,0,
0,0,0,0,0,0,0,0,0,0,0,0,0,0,0,0,0,0,0,0,0,0,0,0,0,0,0,0,0,0,0,0,0,0,0,0,0,0,0,0,0,0,0,0,0,0,0,0,0,0,0,0,0,0,0,0,0,0,0,0,0,0,0,0,0,0,0,0,0,0,0,0,0,0,0,0,0,0,0,0,
0,0,0,0,0,0,0,0,0,0,0,0,0,0,0,0,0,0,0,0,0,0,0,0,0,0,0,0,0,0,0,0,0,0,0,0,0,0,0,0,0,0,0,0,0,0,0,0,0,0,0,0,0,0,0,0,0,0,0,0,0,0,0,0,0,0,0,0,0,0,0,0,0,0,0,0,0,0,0,0
</data>
 </layer>
</map>
