<?xml version="1.0" encoding="UTF-8"?>
<map version="1.0" tiledversion="1.1.5" orientation="orthogonal" renderorder="right-down" width="27" height="34" tilewidth="32" tileheight="32" infinite="0" nextobjectid="24">
 <properties>
  <property name="currentLayer" type="int" value="7"/>
  <property name="layered" type="bool" value="true"/>
  <property name="noPlayerPanning" type="bool" value="false"/>
  <property name="onload" type="file" value="actions/greatjungle_cave.lua"/>
 </properties>
 <tileset firstgid="1" name="knotholehut" tilewidth="32" tileheight="32" tilecount="1044" columns="29">
  <image source="../art/tiles/knotholehutinterior.png" trans="000000" width="950" height="1170"/>
 </tileset>
 <tileset firstgid="1045" source="knothole.tsx"/>
 <tileset firstgid="4529" source="robotropolis.tsx"/>
 <tileset firstgid="8029" source="cave.tsx"/>
 <tileset firstgid="10374" source="forest2.tsx"/>
 <tileset firstgid="15549" source="knotholeindoors.tsx"/>
 <layer name="floor" width="27" height="34">
  <data encoding="csv">
0,0,0,0,0,0,0,0,0,0,0,0,0,0,0,0,0,0,0,0,0,0,0,0,0,0,0,
0,0,0,0,0,0,0,0,0,0,0,0,0,0,0,0,0,0,0,0,0,0,0,0,0,0,0,
0,0,0,0,0,0,0,0,0,0,0,0,0,0,0,0,0,0,0,0,0,0,0,0,0,0,0,
0,0,0,0,0,0,0,0,0,0,0,0,0,0,0,0,0,0,0,0,0,0,0,0,0,0,0,
0,0,0,0,0,0,0,0,0,0,0,0,0,0,0,0,0,0,0,0,0,0,0,0,0,0,0,
0,0,0,0,0,0,0,0,0,0,0,0,0,0,0,0,0,0,0,0,0,0,0,0,0,0,0,
0,0,8175,8174,8175,8174,8175,8174,8175,8174,8175,8174,8175,8174,8175,8174,8175,8174,8175,8174,8175,8174,8175,8174,8175,0,0,
0,0,8210,8209,8210,8209,8210,8209,8210,8209,8210,8209,8210,8209,8210,8209,8210,8209,8210,8209,8210,8209,8210,8209,8210,0,0,
0,0,8175,8174,8175,8174,8175,8174,8175,8174,8175,8174,8175,8174,8175,8174,8175,8174,8175,8174,8175,8174,8175,8174,8175,0,0,
0,0,8210,8209,8210,8209,8210,8209,8210,8191,8192,8191,8192,8191,8192,8209,8210,8209,8210,8209,8210,8209,8210,8209,8210,0,0,
0,0,8175,8174,8175,8174,8175,8174,8175,8226,8227,8226,8227,8226,8227,8191,8192,8174,8175,8174,8175,8174,8175,8174,8175,0,0,
0,0,8210,8209,8210,8209,8210,8209,8191,8192,9138,9139,8227,9138,9139,8191,8227,8209,8210,8209,8210,8209,8210,8209,8210,0,0,
0,0,8175,8174,8175,8174,8175,8174,8226,8227,9173,9174,8227,9173,9174,8226,8227,8174,8175,8174,8175,8174,8175,8174,8175,0,0,
0,0,8210,8209,8210,8209,8191,8192,8117,8118,8191,8192,8191,8192,8191,8192,8117,8118,8210,8209,8210,8209,8210,8209,8210,0,0,
0,0,8175,8174,8175,8174,8226,8227,8152,8153,8226,8227,8226,8227,8226,8227,8152,8153,8191,8192,8175,8174,8175,8174,8175,0,0,
0,0,8210,8209,8210,8191,8192,8191,8192,8191,8192,8191,8192,8191,8192,8191,8192,8191,8192,8227,8210,8209,8210,8209,8210,0,0,
0,0,8175,8174,8175,8226,8227,8226,8227,8226,8227,8226,8227,8226,8227,8226,8227,8226,8227,8191,8192,8174,8175,8174,8175,0,0,
0,0,8210,8209,8187,8191,8192,9138,9139,8191,8191,8191,8192,8191,8192,8191,8192,9138,9139,8191,8192,8209,8210,8209,8210,0,0,
0,0,8175,8174,8222,8226,8227,9173,9174,8226,8226,8226,8191,8192,8227,8226,8227,9173,9174,8226,8227,8191,8192,8174,8175,0,0,
0,0,8210,8209,8210,8226,8227,8191,8192,8191,8192,8226,8226,8227,8191,8192,8117,8118,8227,8117,8118,8226,8227,8209,8210,0,0,
0,0,8175,8174,8175,8191,8192,8226,8227,8226,8227,8191,8192,8191,8192,8227,8152,8153,8227,8152,8153,8174,8175,8174,8175,0,0,
0,0,8210,8209,8210,8226,8227,8226,8227,8117,8118,8226,8227,8226,8227,8191,8192,8191,8192,8192,8210,8209,8210,8209,8210,0,0,
0,0,8175,8174,8175,8174,9137,9136,9137,8152,8153,9136,8226,8227,9137,8226,8227,8226,8227,8227,8175,8174,8175,8174,8175,0,0,
0,0,0,0,0,0,0,0,0,0,0,0,0,0,0,0,0,0,0,0,0,0,0,0,0,0,0,
0,0,0,0,0,0,0,0,0,0,0,0,0,0,0,0,0,0,0,0,0,0,0,0,0,0,0,
0,0,0,0,0,0,0,0,0,0,0,0,0,0,0,0,0,0,0,0,0,0,0,0,0,0,0,
0,0,0,0,0,0,0,0,0,0,0,0,0,0,0,0,0,0,0,0,0,0,0,0,0,0,0,
0,0,0,0,0,0,0,0,0,0,0,0,0,0,0,0,0,0,0,0,0,0,0,0,0,0,0,
0,0,0,0,0,0,0,0,0,0,0,0,0,0,0,0,0,0,0,0,0,0,0,0,0,0,0,
0,0,0,0,0,0,0,0,0,0,0,0,0,0,0,0,0,0,0,0,0,0,0,0,0,0,0,
0,0,0,0,0,0,0,0,0,0,0,0,0,0,0,0,0,0,0,0,0,0,0,0,0,0,0,
0,0,0,0,0,0,0,0,0,0,0,0,0,0,0,0,0,0,0,0,0,0,0,0,0,0,0,
0,0,0,0,0,0,0,0,0,0,0,0,0,0,0,0,0,0,0,0,0,0,0,0,0,0,0,
0,0,0,0,0,0,0,0,0,0,0,0,0,0,0,0,0,0,0,0,0,0,0,0,0,0,0
</data>
 </layer>
 <layer name="shadowfloor" width="27" height="34" opacity="0.5">
  <data encoding="csv">
0,0,0,0,0,0,0,0,0,0,0,0,0,0,0,0,0,0,0,0,0,0,0,0,0,0,0,
0,0,0,0,0,0,0,0,0,0,0,0,0,0,0,0,0,0,0,0,0,0,0,0,0,0,0,
0,0,0,0,0,0,0,0,0,0,0,0,0,0,0,0,0,0,0,0,0,0,0,0,0,0,0,
0,0,0,0,0,0,0,0,0,0,0,0,0,0,0,0,0,0,0,0,0,0,0,0,0,0,0,
0,0,0,0,0,0,0,0,0,0,0,0,0,0,0,0,0,0,0,0,0,0,0,0,0,0,0,
0,0,0,0,0,0,0,0,0,0,0,0,0,0,0,0,0,0,0,0,0,0,0,0,0,0,0,
0,0,0,0,0,0,0,0,0,0,0,0,0,0,0,0,0,0,0,0,0,0,0,0,0,0,0,
0,0,0,0,0,0,0,0,0,0,0,0,0,0,0,0,0,0,0,0,0,0,0,0,0,0,0,
0,0,0,0,0,0,0,0,0,0,0,0,0,0,0,0,0,0,0,0,0,0,0,0,0,0,0,
0,0,0,0,0,0,0,0,0,0,0,0,0,0,0,0,0,0,0,0,0,0,0,0,0,0,0,
0,0,0,0,0,0,0,0,0,0,0,0,0,0,0,0,0,0,0,0,0,0,0,0,0,0,0,
0,0,0,0,0,0,0,0,0,0,0,0,0,0,0,0,0,0,0,0,0,0,0,0,0,0,0,
0,0,0,0,0,0,0,0,0,0,0,0,0,0,0,0,0,0,0,0,0,0,0,0,0,0,0,
0,0,0,0,0,0,0,0,0,0,0,0,0,0,0,0,0,0,0,0,0,0,0,0,0,0,0,
0,0,0,0,0,0,0,0,0,0,0,0,0,0,0,0,0,0,0,0,0,0,0,0,0,0,0,
0,0,0,0,0,0,0,0,0,0,0,0,0,0,0,0,0,0,0,0,0,0,0,0,0,0,0,
0,0,0,0,0,0,0,0,0,0,0,0,0,0,0,0,0,0,0,0,0,0,0,0,0,0,0,
0,0,0,0,0,0,0,0,0,0,0,0,0,0,0,0,0,0,0,0,0,0,0,0,0,0,0,
0,0,0,0,0,0,0,0,0,0,0,0,0,0,0,0,0,0,0,0,0,0,0,0,0,0,0,
0,0,0,0,0,0,0,0,0,0,0,0,0,0,0,0,0,0,0,0,0,0,0,0,0,0,0,
0,0,0,0,0,0,0,0,0,0,0,0,0,0,0,0,0,0,0,0,0,0,0,0,0,0,0,
0,0,0,0,0,0,0,0,0,0,0,0,0,0,0,0,0,0,0,0,0,0,0,0,0,0,0,
0,0,0,0,0,0,0,0,0,0,0,0,0,0,0,0,0,0,0,0,0,0,0,0,0,0,0,
0,0,0,0,0,0,0,0,0,0,0,0,0,0,0,0,0,0,0,0,0,0,0,0,0,0,0,
0,0,0,0,0,0,0,0,0,0,0,0,0,0,0,0,0,0,0,0,0,0,0,0,0,0,0,
0,0,0,0,0,0,0,0,0,0,0,0,0,0,0,0,0,0,0,0,0,0,0,0,0,0,0,
0,0,0,0,0,0,0,0,0,0,0,0,0,0,0,0,0,0,0,0,0,0,0,0,0,0,0,
0,0,0,0,0,0,0,0,0,0,0,0,0,0,0,0,0,0,0,0,0,0,0,0,0,0,0,
0,0,0,0,0,0,0,0,0,0,0,0,0,0,0,0,0,0,0,0,0,0,0,0,0,0,0,
0,0,0,0,0,0,0,0,0,0,0,0,0,0,0,0,0,0,0,0,0,0,0,0,0,0,0,
0,0,0,0,0,0,0,0,0,0,0,0,0,0,0,0,0,0,0,0,0,0,0,0,0,0,0,
0,0,0,0,0,0,0,0,0,0,0,0,0,0,0,0,0,0,0,0,0,0,0,0,0,0,0,
0,0,0,0,0,0,0,0,0,0,0,0,0,0,0,0,0,0,0,0,0,0,0,0,0,0,0,
0,0,0,0,0,0,0,0,0,0,0,0,0,0,0,0,0,0,0,0,0,0,0,0,0,0,0
</data>
 </layer>
 <layer name="above" width="27" height="34">
  <data encoding="csv">
0,0,0,0,0,0,0,0,0,0,0,0,0,0,0,0,0,0,0,0,0,0,0,0,0,0,0,
0,0,0,0,0,0,0,0,0,0,0,0,0,0,0,0,0,0,0,0,0,0,0,0,0,0,0,
0,0,0,0,0,0,0,0,0,0,0,0,0,0,0,0,0,0,0,0,0,0,0,0,0,0,0,
0,0,0,0,0,0,0,0,0,0,0,0,0,0,0,0,0,0,0,0,0,0,0,0,0,0,0,
0,0,0,0,0,0,0,0,0,0,0,0,0,0,0,0,0,0,0,0,0,0,0,0,0,0,0,
0,0,0,0,0,0,0,0,0,0,0,0,0,0,0,0,0,0,0,0,0,0,0,0,0,0,0,
0,0,8066,8066,8066,8066,8066,8066,8066,8066,8066,8066,8066,8066,8066,8066,8066,8066,8066,8066,8066,8066,8066,8066,8066,0,0,
0,0,8066,8066,8066,8066,8066,8700,8701,8768,8373,8374,8375,8376,8769,8768,8696,8697,8066,8066,8066,8066,8066,8066,8066,0,0,
0,0,8066,8066,8066,8066,8700,8701,8736,8803,8408,8409,8410,8411,8804,8803,8731,8696,8697,8066,8066,8066,8066,8066,8066,0,0,
0,0,8066,8066,8066,8700,8701,8228,8771,8838,8443,8444,8445,8446,8839,8838,8265,8266,8302,8697,8066,8066,8066,8066,8066,0,0,
0,0,8066,8066,8700,8193,8228,8263,8264,0,0,0,0,0,0,0,8265,8301,8337,8302,8697,8066,8066,8066,8066,0,0,
0,0,8066,8066,8873,8228,8263,8264,8299,0,0,0,0,0,0,0,8300,8265,8266,8337,8302,8697,8066,8066,8066,0,0,
0,0,8066,8066,8908,8263,8264,8299,0,0,0,0,0,0,0,0,0,8300,8265,8266,8337,8302,8848,8066,8066,0,0,
0,0,8066,8066,8263,8264,8299,0,0,0,0,0,0,0,0,0,0,0,8300,8265,8266,8337,8883,8066,8066,0,0,
0,0,8066,8066,8298,8299,0,0,0,0,0,0,0,0,0,0,0,0,0,8300,8301,8266,8918,8066,8066,0,0,
0,0,8066,8066,8908,0,0,0,0,0,0,0,0,0,0,0,0,0,0,0,8300,8301,8953,8066,8066,0,0,
0,0,8066,8066,8943,0,0,0,0,0,0,0,0,0,0,0,0,0,0,0,0,8265,8266,8066,8066,0,0,
0,0,8066,8066,8873,0,0,0,0,0,0,0,0,0,0,0,0,0,0,0,0,8300,8301,8066,8066,0,0,
0,0,8066,8066,8908,0,0,0,0,0,0,0,0,0,0,0,0,0,0,0,0,0,0,8066,8066,0,0,
0,0,8066,8066,8943,0,0,0,0,0,0,0,0,0,0,0,0,0,0,0,0,0,8066,8066,8066,0,0,
0,0,8066,8066,8066,8478,0,0,0,0,0,0,0,0,0,0,0,0,0,0,0,8066,8066,8066,8066,0,0,
0,0,8066,8066,8066,8066,8066,0,0,0,0,0,0,0,0,0,0,0,0,0,8066,8066,8066,8066,8066,0,0,
0,0,8066,8066,8066,8066,8066,8066,8066,8066,8066,8066,8066,8066,8066,8066,8066,8066,8066,8066,8066,8066,8066,8066,8066,0,0,
0,0,0,0,0,0,0,0,0,0,0,0,0,0,0,0,0,0,0,0,0,0,0,0,0,0,0,
0,0,0,0,0,0,0,0,0,0,0,0,0,0,0,0,0,0,0,0,0,0,0,0,0,0,0,
0,0,0,0,0,0,0,0,0,0,0,0,0,0,0,0,0,0,0,0,0,0,0,0,0,0,0,
0,0,0,0,0,0,0,0,0,0,0,0,0,0,0,0,0,0,0,0,0,0,0,0,0,0,0,
0,0,0,0,0,0,0,0,0,0,0,0,0,0,0,0,0,0,0,0,0,0,0,0,0,0,0,
0,0,0,0,0,0,0,0,0,0,0,0,0,0,0,0,0,0,0,0,0,0,0,0,0,0,0,
0,0,0,0,0,0,0,0,0,0,0,0,0,0,0,0,0,0,0,0,0,0,0,0,0,0,0,
0,0,0,0,0,0,0,0,0,0,0,0,0,0,0,0,0,0,0,0,0,0,0,0,0,0,0,
0,0,0,0,0,0,0,0,0,0,0,0,0,0,0,0,0,0,0,0,0,0,0,0,0,0,0,
0,0,0,0,0,0,0,0,0,0,0,0,0,0,0,0,0,0,0,0,0,0,0,0,0,0,0,
0,0,0,0,0,0,0,0,0,0,0,0,0,0,0,0,0,0,0,0,0,0,0,0,0,0,0
</data>
 </layer>
 <layer name="above2" width="27" height="34">
  <data encoding="csv">
0,0,0,0,0,0,0,0,0,0,0,0,0,0,0,0,0,0,0,0,0,0,0,0,0,0,0,
0,0,0,0,0,0,0,0,0,0,0,0,0,0,0,0,0,0,0,0,0,0,0,0,0,0,0,
0,0,0,0,0,0,0,0,0,0,0,0,0,0,0,0,0,0,0,0,0,0,0,0,0,0,0,
0,0,0,0,0,0,0,0,0,0,0,0,0,0,0,0,0,0,0,0,0,0,0,0,0,0,0,
0,0,0,0,0,0,0,0,0,0,0,0,0,0,0,0,0,0,0,0,0,0,0,0,0,0,0,
0,0,0,0,0,0,0,0,0,0,0,0,0,0,0,0,0,0,0,0,0,0,0,0,0,0,0,
0,0,0,0,0,0,0,0,8922,8923,8924,8925,8926,8927,8928,8929,0,0,0,0,0,0,0,0,0,0,0,
0,0,0,0,8720,8749,8750,8751,8957,8958,8959,8960,8961,8962,8963,8964,8749,8750,8751,8723,0,0,0,0,0,0,0,
0,0,0,0,8782,8783,8784,8785,8786,8787,8788,8995,8996,8782,8783,8784,8785,8786,8787,8788,0,0,0,0,0,0,0,
0,0,0,8926,8900,8818,8819,8820,8821,8822,8823,0,0,8817,8818,8819,8820,8821,8822,8901,8902,8925,0,0,0,0,0,
0,0,0,8926,8900,8853,8854,8855,8856,8857,8858,0,0,8852,8853,8854,8855,8856,8857,8858,8901,8902,8925,0,0,0,0,
0,0,0,8926,8900,0,0,0,0,0,0,0,0,0,0,0,0,0,0,0,0,8901,8902,8925,0,0,0,
0,0,0,8926,8900,0,0,0,0,0,0,0,0,0,0,0,0,0,0,0,0,0,8901,8925,0,0,0,
0,0,0,8926,8900,0,0,0,0,0,0,0,0,0,0,0,0,0,0,0,0,0,8901,8925,0,0,0,
0,0,0,8926,8900,0,0,0,0,0,0,0,0,0,0,0,0,0,0,0,0,0,8901,8925,0,0,0,
0,0,0,8926,8900,0,0,0,0,0,0,0,0,0,0,0,0,0,0,0,0,0,8901,8925,0,0,0,
0,0,0,8926,8900,0,0,0,0,0,0,0,0,0,0,0,0,0,0,0,0,0,8901,8925,0,0,0,
0,0,0,8926,8900,0,0,0,0,0,0,0,0,0,0,0,0,0,0,0,0,0,8901,8925,0,0,0,
0,0,0,8926,8900,0,0,0,0,0,0,0,0,0,0,0,0,0,0,0,0,0,8901,8925,0,0,0,
0,0,0,8926,8900,0,0,0,0,0,0,0,0,0,0,0,0,0,0,0,0,0,0,8066,8066,0,0,
0,0,0,0,0,0,0,0,0,0,0,0,0,0,0,0,0,0,0,0,0,0,0,8066,8066,0,0,
0,0,0,0,8066,8066,0,0,0,0,0,0,0,0,0,0,0,0,0,0,0,0,0,0,0,0,0,
0,0,0,0,8066,8066,8066,0,0,0,0,0,0,0,0,0,0,0,0,0,0,0,0,0,0,0,0,
0,0,0,0,0,0,0,0,0,0,0,0,0,0,0,0,0,0,0,0,0,0,0,0,0,0,0,
0,0,0,0,0,0,0,0,0,0,0,0,0,0,0,0,0,0,0,0,0,0,0,0,0,0,0,
0,0,0,0,0,0,0,0,0,0,0,0,0,0,0,0,0,0,0,0,0,0,0,0,0,0,0,
0,0,0,0,0,0,0,0,0,0,0,0,0,0,0,0,0,0,0,0,0,0,0,0,0,0,0,
0,0,0,0,0,0,0,0,0,0,0,0,0,0,0,0,0,0,0,0,0,0,0,0,0,0,0,
0,0,0,0,0,0,0,0,0,0,0,0,0,0,0,0,0,0,0,0,0,0,0,0,0,0,0,
0,0,0,0,0,0,0,0,0,0,0,0,0,0,0,0,0,0,0,0,0,0,0,0,0,0,0,
0,0,0,0,0,0,0,0,0,0,0,0,0,0,0,0,0,0,0,0,0,0,0,0,0,0,0,
0,0,0,0,0,0,0,0,0,0,0,0,0,0,0,0,0,0,0,0,0,0,0,0,0,0,0,
0,0,0,0,0,0,0,0,0,0,0,0,0,0,0,0,0,0,0,0,0,0,0,0,0,0,0,
0,0,0,0,0,0,0,0,0,0,0,0,0,0,0,0,0,0,0,0,0,0,0,0,0,0,0
</data>
 </layer>
 <objectgroup name="objects7">
  <object id="17" name="Spawn 1" type="Player" gid="6902" x="384" y="160" width="32" height="32">
   <properties>
    <property name="ghost" type="bool" value="true"/>
    <property name="orientation" value="down"/>
   </properties>
  </object>
  <object id="19" name="Mushroom1" type="BasicNPC" gid="4565" x="576" y="608" width="80" height="64">
   <properties>
    <property name="align" value="bottom_center"/>
    <property name="ghost" type="bool" value="true"/>
    <property name="sprite" type="file" value="../art/sprites/mushroom.png"/>
    <property name="swapLayers" value="objects:objects7, objects2:objects7, objects3:objects7, objects4:objects7, objects5:objects5, objects6:objects7, objects7:objects7"/>
   </properties>
  </object>
  <object id="22" name="Cat1" type="BasicNPC" gid="4565" x="384" y="576" width="64" height="32">
   <properties>
    <property name="onInteract">local MessageBox = require &quot;actions/MessageBox&quot;
local BlockPlayer = require &quot;actions/BlockPlayer&quot;

return function(self)
    return BlockPlayer {
        self:hop(),
        MessageBox{message=&quot;Cat: Meow me wo omow me nya. Myao me wmo mi mi nem.&quot;}
    }
end</property>
    <property name="sprite" type="file" value="../art/sprites/kitty.png"/>
   </properties>
  </object>
  <object id="23" name="Chest1" type="Chest" gid="6839" x="224" y="640" width="64" height="64">
   <properties>
    <property name="LeatherJacket" type="int" value="1"/>
    <property name="sprite" type="file" value="../art/sprites/chest2.png"/>
   </properties>
  </object>
 </objectgroup>
 <objectgroup name="objects6"/>
 <objectgroup name="objects5"/>
 <objectgroup name="objects4" offsetx="-288" offsety="0"/>
 <layer name="top" width="27" height="34">
  <data encoding="csv">
8066,8066,8066,8066,8066,8066,8066,8066,8066,8066,8066,8066,8066,8066,8066,8066,8066,8066,8066,8066,8066,8066,8066,8066,8066,8066,8066,
8066,8066,8066,8066,8066,8066,8066,8066,8066,8066,8066,8066,8066,8066,8066,8066,8066,8066,8066,8066,8066,8066,8066,8066,8066,8066,8066,
8066,8066,8066,8066,8066,8066,8066,8066,8066,8066,8066,8066,8066,8066,8066,8066,8066,8066,8066,8066,8066,8066,8066,8066,8066,8066,8066,
8066,8066,8066,8066,8066,8066,8066,8066,8066,8066,8066,8066,8066,8066,8066,8066,8066,8066,8066,8066,8066,8066,8066,8066,8066,8066,8066,
8066,8066,8066,8066,8066,8066,8066,8066,8066,8066,8066,8066,8066,8066,8066,8066,8066,8066,8066,8066,8066,8066,8066,8066,8066,8066,8066,
8066,8066,8066,8066,8066,8066,8066,8066,8066,8066,8066,8066,8066,8066,8066,8066,8066,8066,8066,8066,8066,8066,8066,8066,8066,8066,8066,
8066,8066,0,0,0,0,0,0,0,0,0,0,0,0,0,0,0,0,0,0,0,0,0,0,8066,8066,8066,
8066,8066,0,0,0,0,0,0,0,0,0,0,0,0,0,0,0,0,0,0,0,0,0,0,8066,8066,8066,
8066,8066,0,0,0,0,0,0,0,0,0,0,0,0,0,0,0,0,0,0,0,0,0,0,8066,8066,8066,
8066,8066,0,0,0,0,0,0,0,0,0,0,0,0,0,0,0,0,0,0,0,0,0,0,8066,8066,8066,
8066,8066,0,0,0,0,0,0,0,0,0,0,0,0,0,0,0,0,0,0,0,0,0,0,8066,8066,8066,
8066,8066,0,0,0,0,0,0,0,0,0,0,0,0,0,0,0,0,0,0,0,0,0,0,8066,8066,8066,
8066,8066,0,0,0,0,0,0,0,0,0,0,0,0,0,0,0,0,0,0,0,0,0,0,8066,8066,8066,
8066,8066,0,0,0,0,0,0,0,0,0,0,0,0,0,0,0,0,0,0,0,0,0,0,8066,8066,8066,
8066,8066,0,0,0,0,0,0,0,0,0,0,0,0,0,0,0,0,0,0,0,0,0,0,8066,8066,8066,
8066,8066,0,0,0,0,0,0,0,0,0,0,0,0,0,0,0,0,0,0,0,0,0,0,8066,8066,8066,
8066,8066,0,0,0,0,0,0,0,0,0,0,0,0,0,0,0,0,0,0,0,0,0,0,8066,8066,8066,
8066,8066,0,0,0,0,0,0,0,0,0,0,0,0,0,0,0,0,0,0,0,0,0,0,8066,8066,8066,
8066,8066,0,0,0,0,0,0,0,0,0,0,0,0,0,0,0,0,0,0,0,0,0,0,8066,8066,8066,
8066,8066,0,8096,0,0,0,0,0,0,0,0,0,0,0,0,0,0,0,0,0,0,8066,8066,8066,8066,8066,
8066,8066,0,8066,8066,0,0,0,0,0,0,0,0,0,0,0,0,0,0,0,0,8066,8066,8066,8066,8066,8066,
8066,8066,8083,8066,8066,8066,8066,0,0,0,0,0,0,0,0,0,0,0,0,0,8066,8066,8066,8066,8066,8066,8066,
8066,8066,8066,8066,8066,8066,8066,8066,8066,8066,8066,8066,8066,8066,8066,8066,8066,8066,8066,8066,8066,8066,8066,8066,8066,8066,8066,
8066,8066,8066,8066,8066,8066,8066,8066,8066,8066,8066,8066,8066,8066,8066,8066,8066,8066,8066,8066,8066,8066,8066,8066,8066,8066,8066,
8066,8066,8066,8066,8066,8066,8066,8066,8066,8066,8066,8066,8066,8066,8066,8066,8066,8066,8066,8066,8066,8066,8066,8066,8066,8066,8066,
8066,8066,8066,8066,8066,8066,8066,8066,8066,8066,8066,8066,8066,8066,8066,8066,8066,8066,8066,8066,8066,8066,8066,8066,8066,8066,8066,
8066,8066,8066,8066,8066,8066,8066,8066,8066,8066,8066,8066,8066,8066,8066,8066,8066,8066,8066,8066,8066,8066,8066,8066,8066,8066,8066,
8066,8066,8066,8066,8066,8066,8066,8066,8066,8066,8066,8066,8066,8066,8066,8066,8066,8066,8066,8066,8066,8066,8066,8066,8066,8066,8066,
8066,8066,8066,8066,8066,8066,8066,8066,8066,8066,8066,8066,8066,8066,8066,8066,8066,8066,8066,8066,8066,8066,8066,8066,8066,8066,8066,
8066,8066,8066,8066,8066,8066,8066,8066,8066,8066,8066,8066,8066,8066,8066,8066,8066,8066,8066,8066,8066,8066,8066,8066,8066,8066,8066,
8066,8066,8066,8066,8066,8066,8066,8066,8066,8066,8066,8066,8066,8066,8066,8066,8066,8066,8066,8066,8066,8066,8066,8066,8066,8066,8066,
8066,8066,8066,8066,8066,8066,8066,8066,8066,8066,8066,8066,8066,8066,8066,8066,8066,8066,8066,8066,8066,8066,8066,8066,8066,8066,8066,
8066,8066,8066,8066,8066,8066,8066,8066,8066,8066,8066,8066,8066,8066,8066,8066,8066,8066,8066,8066,8066,8066,8066,8066,8066,8066,8066,
8066,8066,8066,8066,8066,8066,8066,8066,8066,8066,8066,8066,8066,8066,8066,8066,8066,8066,8066,8066,8066,8066,8066,8066,8066,8066,8066
</data>
 </layer>
 <objectgroup name="objects3"/>
 <objectgroup name="objects2"/>
 <objectgroup name="objects"/>
 <objectgroup name="all">
  <object id="21" name="3DMushroom1" type="ThreeDeeMushroom" gid="4565" x="576" y="608" width="80" height="224">
   <properties>
    <property name="depth" type="int" value="96"/>
    <property name="exitScene" type="file" value="greatjungle2.lua"/>
    <property name="flyHeight" type="int" value="200"/>
    <property name="flyLandingLayer" type="int" value="6"/>
    <property name="ghost" type="bool" value="true"/>
    <property name="nextFlyLandingLayer" type="int" value="7"/>
    <property name="nextFlyOffsetY" type="int" value="160"/>
    <property name="spawnPoint" value="Spawn 2"/>
    <property name="visualObject" value="Mushroom1"/>
   </properties>
  </object>
 </objectgroup>
 <objectgroup name="upper"/>
 <layer name="Collision7" width="27" height="34" visible="0">
  <data encoding="csv">
0,0,0,0,0,0,0,0,0,0,0,0,0,0,0,0,0,0,0,0,0,0,0,0,0,0,0,
0,0,0,0,0,0,0,0,0,0,0,0,0,0,0,0,0,0,0,0,0,0,0,0,0,0,0,
0,0,0,0,0,0,0,0,0,0,0,0,0,0,0,0,0,0,0,0,0,0,0,0,0,0,0,
0,0,0,0,0,0,0,0,0,0,0,0,0,0,0,0,0,0,0,0,0,0,0,0,0,0,0,
0,0,0,0,0,0,0,0,0,0,0,0,0,0,0,0,0,0,0,0,0,0,0,0,0,0,0,
0,0,0,0,0,0,0,0,0,0,0,0,0,0,0,0,0,0,0,0,0,0,0,0,0,0,0,
0,0,0,0,0,0,0,0,0,0,0,0,0,0,0,0,0,0,0,0,0,0,0,0,0,0,0,
0,0,0,0,0,0,0,0,0,0,0,0,0,0,0,0,0,0,0,0,0,0,0,0,0,0,0,
0,0,0,0,0,0,0,0,0,0,0,9753,9753,9753,9753,0,0,0,0,0,0,0,0,0,0,0,0,
0,0,0,0,0,0,0,0,9753,9753,9753,9753,9753,9753,9753,9753,0,0,0,0,0,0,0,0,0,0,0,
0,0,0,0,0,0,9753,9753,9753,0,0,0,0,0,0,0,9753,9753,0,0,0,0,0,0,0,0,0,
0,0,0,0,0,0,9753,9753,0,0,0,0,0,0,0,0,0,9753,9753,0,0,0,0,0,0,0,0,
0,0,0,0,9753,9753,9753,0,0,0,0,0,0,0,0,0,0,0,9753,9753,0,0,0,0,0,0,0,
0,0,0,0,9753,9753,0,0,0,0,0,0,0,0,0,0,0,0,0,9753,9753,0,0,0,0,0,0,
0,0,0,0,9753,0,0,0,0,0,0,0,0,0,0,0,0,0,0,0,9753,0,0,0,0,0,0,
0,0,0,9753,9753,0,0,0,0,0,0,0,0,0,0,0,0,0,0,0,9753,9753,0,0,0,0,0,
0,0,0,9753,9753,0,0,0,0,0,0,0,0,0,0,0,0,0,0,0,0,9753,9753,0,0,0,0,
0,0,0,9753,9753,0,0,0,0,0,0,0,9753,9753,0,0,0,0,9753,9753,0,0,9753,0,0,0,0,
0,0,0,9753,9753,0,0,9753,9753,0,0,0,0,0,0,0,0,0,9753,9753,0,0,9753,0,0,0,0,
0,0,9753,9753,9753,0,0,9753,9753,0,0,0,0,0,0,0,0,0,0,0,0,0,9753,0,0,0,0,
0,0,9753,9753,9753,0,0,0,0,0,0,0,0,0,0,0,0,0,0,0,0,9753,9753,0,0,0,0,
0,0,0,9753,9753,9753,9753,0,0,0,0,0,0,0,0,0,0,0,0,0,9753,9753,9753,0,0,0,0,
0,0,0,0,0,9753,9753,10167,9753,9753,9753,9753,9753,9753,9753,9753,9753,9753,9753,9753,9753,9753,9753,0,0,0,0,
0,0,0,0,0,0,0,0,0,0,0,0,0,0,0,0,0,0,0,0,0,0,0,0,0,0,0,
0,0,0,0,0,0,0,0,0,0,0,0,0,0,0,0,0,0,0,0,0,0,0,0,0,0,0,
0,0,0,0,0,0,0,0,0,0,0,0,0,0,0,0,0,0,0,0,0,0,0,0,0,0,0,
0,0,0,0,0,0,0,0,0,0,0,0,0,0,0,0,0,0,0,0,0,0,0,0,0,0,0,
0,0,0,0,0,0,0,0,0,0,0,0,0,0,0,0,0,0,0,0,0,0,0,0,0,0,0,
0,0,0,0,0,0,0,0,0,0,0,0,0,0,0,0,0,0,0,0,0,0,0,0,0,0,0,
0,0,0,0,0,0,0,0,0,0,0,0,0,0,0,0,0,0,0,0,0,0,0,0,0,0,0,
0,0,0,0,0,0,0,0,0,0,0,0,0,0,0,0,0,0,0,0,0,0,0,0,0,0,0,
0,0,0,0,0,0,0,0,0,0,0,0,0,0,0,0,0,0,0,0,0,0,0,0,0,0,0,
0,0,0,0,0,0,0,0,0,0,0,0,0,0,0,0,0,0,0,0,0,0,0,0,0,0,0,
0,0,0,0,0,0,0,0,0,0,0,0,0,0,0,0,0,0,0,0,0,0,0,0,0,0,0
</data>
 </layer>
 <layer name="Collision6" width="27" height="34" visible="0">
  <data encoding="csv">
0,0,0,0,0,0,0,0,0,0,0,0,0,0,0,0,0,0,0,0,0,0,0,0,0,0,0,
0,0,0,0,0,0,0,0,0,0,0,0,0,0,0,0,0,0,0,0,0,0,0,0,0,0,0,
0,0,0,0,0,0,0,0,0,0,0,0,0,0,0,0,0,0,0,0,0,0,0,0,0,0,0,
0,0,0,0,0,0,0,0,0,0,0,0,0,0,0,0,0,0,0,0,0,0,0,0,0,0,0,
0,0,0,0,0,0,0,0,0,0,0,0,0,0,0,0,0,0,0,0,0,0,0,0,0,0,0,
0,0,0,0,0,0,0,0,0,0,0,0,0,0,0,0,0,0,0,0,0,0,0,0,0,0,0,
0,0,9753,9753,9753,9753,9753,9753,9753,9753,9753,9753,9753,9753,9753,9753,9753,9753,9753,9753,9753,9753,9753,9753,9753,0,0,
0,0,9753,9753,9753,9753,9753,9753,9753,9753,9753,9753,9753,9753,9753,9753,9753,9753,9753,9753,9753,9753,9753,9753,9753,0,0,
0,0,9753,9753,9753,9753,9753,9753,9753,9753,9753,9753,9753,9753,9753,9753,9753,9753,9753,9753,9753,9753,9753,9753,9753,0,0,
0,0,9753,9753,9753,9753,9753,9753,9753,9753,9753,9753,9753,9753,9753,9753,9753,9753,9753,9753,9753,9753,9753,9753,9753,0,0,
0,0,9753,9753,9753,9753,9753,9753,9753,9753,9753,9753,9753,9753,9753,9753,9753,9753,9753,9753,9753,9753,9753,9753,9753,0,0,
0,0,9753,9753,9753,9753,9753,9753,9753,9753,9753,9753,9753,9753,9753,9753,9753,9753,9753,9753,9753,9753,9753,9753,9753,0,0,
0,0,9753,9753,9753,9753,9753,9753,9753,9753,9753,9753,9753,9753,9753,9753,9753,0,0,0,0,9753,9753,9753,9753,0,0,
0,0,9753,9753,9753,9753,9753,9753,9753,9753,9753,9753,9753,9753,9753,9753,9753,0,0,0,0,9753,9753,9753,9753,0,0,
0,0,9753,9753,9753,9753,9753,9753,9753,9753,9753,9753,9753,9753,9753,9753,9753,9753,9753,9753,9753,9753,9753,9753,9753,0,0,
0,0,9753,9753,9753,9753,9753,9753,9753,9753,9753,9753,9753,9753,9753,9753,9753,9753,9753,9753,9753,9753,9753,9753,9753,0,0,
0,0,9753,9753,9753,9753,9753,9753,9753,9753,9753,9753,9753,9753,9753,9753,9753,9753,9753,9753,9753,9753,9753,9753,9753,0,0,
0,0,9753,9753,9753,9753,9753,9753,9753,9753,9753,9753,9753,9753,9753,9753,9753,9753,9753,9753,9753,9753,9753,9753,9753,0,0,
0,0,9753,9753,9753,9753,9753,9753,9753,9753,9753,9753,9753,9753,9753,9753,9753,9753,9753,9753,9753,9753,9753,9753,9753,0,0,
0,0,9753,9753,9753,9753,9753,9753,9753,9753,9753,9753,9753,9753,9753,9753,9753,9753,9753,9753,9753,9753,9753,9753,9753,0,0,
0,0,9753,9753,9753,9753,9753,9753,9753,9753,9753,9753,9753,9753,9753,9753,9753,9753,9753,9753,9753,9753,9753,9753,9753,0,0,
0,0,9753,9753,9753,9753,9753,9753,9753,9753,9753,9753,9753,9753,9753,9753,9753,9753,9753,9753,9753,9753,9753,9753,9753,0,0,
0,0,9753,9753,9753,9753,9753,9753,9753,9753,9753,9753,9753,9753,9753,9753,9753,9753,9753,9753,9753,9753,9753,9753,9753,0,0,
0,0,0,0,0,0,0,0,0,0,0,0,0,0,0,0,0,0,0,0,0,0,0,0,0,0,0,
0,0,0,0,0,0,0,0,0,0,0,0,0,0,0,0,0,0,0,0,0,0,0,0,0,0,0,
0,0,0,0,0,0,0,0,0,0,0,0,0,0,0,0,0,0,0,0,0,0,0,0,0,0,0,
0,0,0,0,0,0,0,0,0,0,0,0,0,0,0,0,0,0,0,0,0,0,0,0,0,0,0,
0,0,0,0,0,0,0,0,0,0,0,0,0,0,0,0,0,0,0,0,0,0,0,0,0,0,0,
0,0,0,0,0,0,0,0,0,0,0,0,0,0,0,0,0,0,0,0,0,0,0,0,0,0,0,
0,0,0,0,0,0,0,0,0,0,0,0,0,0,0,0,0,0,0,0,0,0,0,0,0,0,0,
0,0,0,0,0,0,0,0,0,0,0,0,0,0,0,0,0,0,0,0,0,0,0,0,0,0,0,
0,0,0,0,0,0,0,0,0,0,0,0,0,0,0,0,0,0,0,0,0,0,0,0,0,0,0,
0,0,0,0,0,0,0,0,0,0,0,0,0,0,0,0,0,0,0,0,0,0,0,0,0,0,0,
0,0,0,0,0,0,0,0,0,0,0,0,0,0,0,0,0,0,0,0,0,0,0,0,0,0,0
</data>
 </layer>
 <layer name="Collision5" width="27" height="34" visible="0">
  <data encoding="csv">
0,0,0,0,0,0,0,0,0,0,0,0,0,0,0,0,0,0,0,0,0,0,0,0,0,0,0,
0,0,0,0,0,0,0,0,0,0,0,0,0,0,0,0,0,0,0,0,0,0,0,0,0,0,0,
0,0,0,0,0,0,0,0,0,0,0,0,0,0,0,0,0,0,0,0,0,0,0,0,0,0,0,
0,0,0,0,0,0,0,0,0,0,0,0,0,0,0,0,0,0,0,0,0,0,0,0,0,0,0,
0,0,0,0,0,0,0,0,0,0,0,0,0,0,0,0,0,0,0,0,0,0,0,0,0,0,0,
0,0,0,0,0,0,0,0,0,0,0,0,0,0,0,0,0,0,0,0,0,0,0,0,0,0,0,
0,0,0,0,0,0,0,0,0,0,0,0,0,0,0,0,0,0,0,0,0,0,0,0,0,0,0,
0,0,0,0,0,0,0,0,0,0,0,0,0,0,0,0,0,0,0,0,0,0,0,0,0,0,0,
0,0,0,0,0,0,0,0,0,0,0,9753,9753,9753,9753,0,0,0,0,0,0,0,0,0,0,0,0,
0,0,0,0,0,0,0,0,9753,9753,9753,9753,9753,9753,9753,9753,0,0,0,0,0,0,0,0,0,0,0,
0,0,0,0,0,0,9753,9753,9753,0,0,0,0,0,0,0,9753,9753,0,0,0,0,0,0,0,0,0,
0,0,0,0,0,0,9753,9753,0,0,0,0,0,0,0,0,0,9753,9753,0,0,0,0,0,0,0,0,
0,0,0,0,9753,9753,9753,0,0,0,0,0,0,0,0,0,0,0,9753,9753,0,0,0,0,0,0,0,
0,0,0,0,9753,9753,0,0,0,0,0,0,0,0,0,0,0,0,0,9753,9753,0,0,0,0,0,0,
0,0,0,0,9753,0,0,0,0,0,0,0,0,0,0,0,0,0,0,0,9753,0,0,0,0,0,0,
0,0,0,9753,9753,0,0,0,0,0,0,0,0,0,0,0,0,0,0,0,9753,9753,0,0,0,0,0,
0,0,0,9753,9753,0,0,0,0,0,0,0,0,0,0,0,0,0,0,0,0,9753,9753,0,0,0,0,
0,0,0,9753,9753,0,0,0,0,0,0,0,0,0,0,0,0,0,9753,9753,0,0,9753,0,0,0,0,
0,0,0,9753,9753,0,0,0,0,0,0,0,0,0,0,0,0,0,9753,9753,0,0,9753,0,0,0,0,
0,0,0,9753,9753,0,0,0,0,0,0,0,0,0,0,0,0,0,0,0,0,0,9753,0,0,0,0,
0,0,0,9753,9753,0,0,0,0,0,0,0,0,0,0,0,0,0,0,0,0,9753,9753,0,0,0,0,
0,0,0,9753,9753,9753,9753,0,0,0,0,0,0,0,0,0,0,0,0,0,9753,9753,9753,0,0,0,0,
0,0,0,0,0,9753,9753,10167,9753,9753,9753,9753,9753,9753,9753,9753,9753,9753,9753,9753,9753,9753,9753,9753,0,0,0,
0,0,0,0,0,0,0,0,0,0,0,0,0,0,0,0,0,0,0,0,0,0,0,0,0,0,0,
0,0,0,0,0,0,0,0,0,0,0,0,0,0,0,0,0,0,0,0,0,0,0,0,0,0,0,
0,0,0,0,0,0,0,0,0,0,0,0,0,0,0,0,0,0,0,0,0,0,0,0,0,0,0,
0,0,0,0,0,0,0,0,0,0,0,0,0,0,0,0,0,0,0,0,0,0,0,0,0,0,0,
0,0,0,0,0,0,0,0,0,0,0,0,0,0,0,0,0,0,0,0,0,0,0,0,0,0,0,
0,0,0,0,0,0,0,0,0,0,0,0,0,0,0,0,0,0,0,0,0,0,0,0,0,0,0,
0,0,0,0,0,0,0,0,0,0,0,0,0,0,0,0,0,0,0,0,0,0,0,0,0,0,0,
0,0,0,0,0,0,0,0,0,0,0,0,0,0,0,0,0,0,0,0,0,0,0,0,0,0,0,
0,0,0,0,0,0,0,0,0,0,0,0,0,0,0,0,0,0,0,0,0,0,0,0,0,0,0,
0,0,0,0,0,0,0,0,0,0,0,0,0,0,0,0,0,0,0,0,0,0,0,0,0,0,0,
0,0,0,0,0,0,0,0,0,0,0,0,0,0,0,0,0,0,0,0,0,0,0,0,0,0,0
</data>
 </layer>
 <layer name="Collision4" width="27" height="34" visible="0">
  <data encoding="csv">
0,0,0,0,0,0,0,0,0,0,0,0,0,0,0,0,0,0,0,0,0,0,0,0,0,0,0,
0,0,0,0,0,0,0,0,0,0,0,0,0,0,0,0,0,0,0,0,0,0,0,0,0,0,0,
0,0,0,0,0,0,0,0,0,0,0,0,0,0,0,0,0,0,0,0,0,0,0,0,0,0,0,
0,0,0,0,0,0,0,0,0,0,0,0,0,0,0,0,0,0,0,0,0,0,0,0,0,0,0,
0,0,0,0,0,0,0,0,0,0,0,0,0,0,0,0,0,0,0,0,0,0,0,0,0,0,0,
0,0,0,0,0,0,0,0,0,0,0,0,0,0,0,0,0,0,0,0,0,0,0,0,0,0,0,
0,0,0,0,0,0,0,0,0,0,0,0,0,0,0,0,0,0,0,0,0,0,0,0,0,0,0,
0,0,0,0,0,0,0,0,0,0,0,0,0,0,0,0,0,0,0,0,0,0,0,0,0,0,0,
0,0,0,0,0,0,0,0,0,0,0,9753,9753,9753,9753,0,0,0,0,0,0,0,0,0,0,0,0,
0,0,0,0,0,0,0,0,9753,9753,9753,9753,9753,9753,9753,9753,0,0,0,0,0,0,0,0,0,0,0,
0,0,0,0,0,0,9753,9753,9753,0,0,0,0,0,0,0,9753,9753,0,0,0,0,0,0,0,0,0,
0,0,0,0,0,0,9753,9753,0,0,0,0,0,0,0,0,0,9753,9753,0,0,0,0,0,0,0,0,
0,0,0,0,9753,9753,9753,0,0,0,0,0,0,0,0,0,0,0,9753,9753,0,0,0,0,0,0,0,
0,0,0,0,9753,9753,0,0,0,0,0,0,0,0,0,0,0,0,0,9753,9753,0,0,0,0,0,0,
0,0,0,0,9753,0,0,0,0,0,0,0,0,0,0,0,0,0,0,0,9753,0,0,0,0,0,0,
0,0,0,9753,9753,0,0,0,0,0,0,0,0,0,0,0,0,0,0,0,9753,9753,0,0,0,0,0,
0,0,0,9753,9753,0,0,0,0,0,0,0,0,0,0,0,0,0,0,0,0,9753,9753,0,0,0,0,
0,0,0,9753,9753,0,0,0,0,0,0,0,0,0,0,0,0,0,0,0,0,0,10167,10167,0,0,0,
0,0,0,9753,9753,0,0,0,0,0,0,0,0,0,0,0,0,0,0,0,0,0,10167,10167,0,0,0,
0,0,0,10167,9753,0,0,0,0,0,0,0,0,0,0,0,0,0,0,0,0,0,10167,10167,0,0,0,
0,0,0,10167,9753,0,0,0,0,0,0,0,0,0,0,0,0,0,0,0,0,10167,10167,10167,0,0,0,
0,0,0,0,10167,9753,9753,0,0,0,0,0,0,0,0,0,0,0,0,0,10167,10167,9753,0,0,0,0,
0,0,0,0,0,10167,10167,10167,10167,10167,10167,10167,10167,10167,10167,10167,10167,10167,10167,10167,10167,0,9753,0,0,0,0,
0,0,0,0,0,0,0,0,0,0,0,0,0,0,0,0,0,0,0,0,0,0,0,0,0,0,0,
0,0,0,0,0,0,0,0,0,0,0,0,0,0,0,0,0,0,0,0,0,0,0,0,0,0,0,
0,0,0,0,0,0,0,0,0,0,0,0,0,0,0,0,0,0,0,0,0,0,0,0,0,0,0,
0,0,0,0,0,0,0,0,0,0,0,0,0,0,0,0,0,0,0,0,0,0,0,0,0,0,0,
0,0,0,0,0,0,0,0,0,0,0,0,0,0,0,0,0,0,0,0,0,0,0,0,0,0,0,
0,0,0,0,0,0,0,0,0,0,0,0,0,0,0,0,0,0,0,0,0,0,0,0,0,0,0,
0,0,0,0,0,0,0,0,0,0,0,0,0,0,0,0,0,0,0,0,0,0,0,0,0,0,0,
0,0,0,0,0,0,0,0,0,0,0,0,0,0,0,0,0,0,0,0,0,0,0,0,0,0,0,
0,0,0,0,0,0,0,0,0,0,0,0,0,0,0,0,0,0,0,0,0,0,0,0,0,0,0,
0,0,0,0,0,0,0,0,0,0,0,0,0,0,0,0,0,0,0,0,0,0,0,0,0,0,0,
0,0,0,0,0,0,0,0,0,0,0,0,0,0,0,0,0,0,0,0,0,0,0,0,0,0,0
</data>
 </layer>
 <layer name="Collision3" width="27" height="34" visible="0">
  <data encoding="csv">
0,0,0,0,0,0,0,0,0,0,0,0,0,0,0,0,0,0,0,0,0,0,0,0,0,0,0,
0,0,0,0,0,0,0,0,0,0,0,0,0,0,0,0,0,0,0,0,0,0,0,0,0,0,0,
0,0,0,0,0,0,0,0,0,0,0,0,0,0,0,0,0,0,0,0,0,0,0,0,0,0,0,
0,0,0,0,0,0,0,0,0,0,0,0,0,0,0,0,0,0,0,0,0,0,0,0,0,0,0,
0,0,0,0,0,0,0,0,0,0,0,0,0,0,0,0,0,0,0,0,0,0,0,0,0,0,0,
0,0,0,0,0,0,0,0,0,0,0,0,0,0,0,0,0,0,0,0,0,0,0,0,0,0,0,
0,0,0,0,0,0,0,0,0,0,0,0,0,0,0,0,0,0,0,0,0,0,0,0,0,0,0,
0,0,0,0,0,0,0,0,0,0,0,0,0,0,0,0,0,0,0,0,0,0,0,0,0,0,0,
0,0,0,0,0,0,0,0,0,0,0,9753,9753,9753,9753,0,0,0,0,0,0,0,0,0,0,0,0,
0,0,0,0,0,0,0,0,9753,9753,9753,9753,9753,9753,9753,9753,0,0,0,0,0,0,0,0,0,0,0,
0,0,0,0,0,0,9753,9753,9753,0,0,0,0,0,0,0,9753,9753,0,0,0,0,0,0,0,0,0,
0,0,0,0,0,0,9753,9753,0,0,0,0,0,0,0,0,0,9753,9753,0,0,0,0,0,0,0,0,
0,0,0,0,9753,9753,9753,0,0,0,0,0,0,0,0,0,0,0,9753,9753,0,0,0,0,0,0,0,
0,0,0,0,9753,9753,0,0,0,0,0,0,0,0,0,0,0,0,0,9753,9753,0,0,0,0,0,0,
0,0,0,0,9753,0,0,0,0,0,0,0,0,0,0,0,0,0,0,0,9753,0,0,0,0,0,0,
0,0,0,9753,9753,0,0,0,0,0,0,0,0,0,0,0,0,0,0,0,9753,9753,0,0,0,0,0,
0,0,0,9753,9753,0,0,0,0,0,0,0,0,0,0,0,0,0,0,0,0,9753,9753,0,0,0,0,
0,0,0,9753,9753,0,0,0,0,0,0,0,0,0,0,0,0,0,0,0,0,0,10167,10167,0,0,0,
0,0,0,9753,9753,0,0,0,0,0,0,0,0,0,0,0,0,0,0,0,0,0,10167,10167,0,0,0,
0,0,0,10167,9753,0,0,0,0,0,0,0,0,0,0,0,0,0,0,0,0,0,10167,10167,0,0,0,
0,0,0,10167,9753,0,0,0,0,0,0,0,0,0,0,0,0,0,0,0,0,10167,10167,10167,0,0,0,
0,0,0,0,10167,9753,9753,0,0,0,0,0,0,0,0,0,0,0,0,0,10167,10167,9753,0,0,0,0,
0,0,0,0,0,10167,10167,10167,10167,10167,10167,10167,10167,10167,10167,10167,10167,10167,10167,10167,10167,0,9753,0,0,0,0,
0,0,0,0,0,0,0,0,0,0,0,0,0,0,0,0,0,0,0,0,0,0,0,0,0,0,0,
0,0,0,0,0,0,0,0,0,0,0,0,0,0,0,0,0,0,0,0,0,0,0,0,0,0,0,
0,0,0,0,0,0,0,0,0,0,0,0,0,0,0,0,0,0,0,0,0,0,0,0,0,0,0,
0,0,0,0,0,0,0,0,0,0,0,0,0,0,0,0,0,0,0,0,0,0,0,0,0,0,0,
0,0,0,0,0,0,0,0,0,0,0,0,0,0,0,0,0,0,0,0,0,0,0,0,0,0,0,
0,0,0,0,0,0,0,0,0,0,0,0,0,0,0,0,0,0,0,0,0,0,0,0,0,0,0,
0,0,0,0,0,0,0,0,0,0,0,0,0,0,0,0,0,0,0,0,0,0,0,0,0,0,0,
0,0,0,0,0,0,0,0,0,0,0,0,0,0,0,0,0,0,0,0,0,0,0,0,0,0,0,
0,0,0,0,0,0,0,0,0,0,0,0,0,0,0,0,0,0,0,0,0,0,0,0,0,0,0,
0,0,0,0,0,0,0,0,0,0,0,0,0,0,0,0,0,0,0,0,0,0,0,0,0,0,0,
0,0,0,0,0,0,0,0,0,0,0,0,0,0,0,0,0,0,0,0,0,0,0,0,0,0,0
</data>
 </layer>
 <layer name="Collision2" width="27" height="34" visible="0">
  <data encoding="csv">
0,0,0,0,0,0,0,0,0,0,0,0,0,0,0,0,0,0,0,0,0,0,0,0,0,0,0,
0,0,0,0,0,0,0,0,0,0,0,0,0,0,0,0,0,0,0,0,0,0,0,0,0,0,0,
0,0,0,0,0,0,0,0,0,0,0,0,0,0,0,0,0,0,0,0,0,0,0,0,0,0,0,
0,0,0,0,0,0,0,0,0,0,0,0,0,0,0,0,0,0,0,0,0,0,0,0,0,0,0,
0,0,0,0,0,0,0,0,0,0,0,0,0,0,0,0,0,0,0,0,0,0,0,0,0,0,0,
0,0,0,0,0,0,0,0,0,0,0,0,0,0,0,0,0,0,0,0,0,0,0,0,0,0,0,
0,0,0,0,0,0,0,0,0,0,0,0,0,0,0,0,0,0,0,0,0,0,0,0,0,0,0,
0,0,0,0,0,0,0,0,0,0,0,0,0,0,0,0,0,0,0,0,0,0,0,0,0,0,0,
0,0,0,0,0,0,0,0,0,0,0,0,0,0,0,0,0,0,0,0,0,0,0,0,0,0,0,
0,0,0,0,0,0,0,0,0,0,0,0,0,0,0,0,0,0,0,0,0,0,0,0,0,0,0,
0,0,0,0,0,0,0,0,0,0,0,0,0,0,0,0,0,0,0,0,0,0,0,0,0,0,0,
0,0,0,0,0,0,0,0,0,0,0,0,0,0,0,0,0,0,0,0,0,0,0,0,0,0,0,
0,0,0,0,0,0,0,0,0,0,0,0,0,0,0,0,0,0,0,0,0,0,0,0,0,0,0,
0,0,0,0,0,0,0,0,0,0,0,0,0,0,0,0,0,0,0,0,0,0,0,0,0,0,0,
0,0,0,0,0,0,0,0,0,0,0,0,0,0,0,0,0,0,0,0,0,0,0,0,0,0,0,
0,0,0,0,0,0,0,0,0,0,0,0,0,0,0,0,0,0,0,0,0,0,0,0,0,0,0,
0,0,0,0,0,0,0,0,0,0,0,0,0,0,0,0,0,0,0,0,0,0,0,0,0,0,0,
0,0,0,0,0,0,0,0,0,0,0,0,0,0,0,0,0,0,0,0,0,0,0,0,0,0,0,
0,0,0,0,0,0,0,0,0,0,0,0,0,0,0,0,0,0,0,0,0,0,0,0,0,0,0,
0,0,0,0,0,0,0,0,0,0,0,0,0,0,0,0,0,0,0,0,0,0,0,0,0,0,0,
0,0,0,0,0,0,0,0,0,0,0,0,0,0,0,0,0,0,0,0,0,0,0,0,0,0,0,
0,0,0,0,0,0,0,0,0,0,0,0,0,0,0,0,0,0,0,0,0,0,0,0,0,0,0,
0,0,0,0,0,0,0,0,0,0,0,0,0,0,0,0,0,0,0,0,0,0,0,0,0,0,0,
0,0,0,0,0,0,0,0,0,0,0,0,0,0,0,0,0,0,0,0,0,0,0,0,0,0,0,
0,0,0,0,0,0,0,0,0,0,0,0,0,0,0,0,0,0,0,0,0,0,0,0,0,0,0,
0,0,0,0,0,0,0,0,0,0,0,0,0,0,0,0,0,0,0,0,0,0,0,0,0,0,0,
0,0,0,0,0,0,0,0,0,0,0,0,0,0,0,0,0,0,0,0,0,0,0,0,0,0,0,
0,0,0,0,0,0,0,0,0,0,0,0,0,0,0,0,0,0,0,0,0,0,0,0,0,0,0,
0,0,0,0,0,0,0,0,0,0,0,0,0,0,0,0,0,0,0,0,0,0,0,0,0,0,0,
0,0,0,0,0,0,0,0,0,0,0,0,0,0,0,0,0,0,0,0,0,0,0,0,0,0,0,
0,0,0,0,0,0,0,0,0,0,0,0,0,0,0,0,0,0,0,0,0,0,0,0,0,0,0,
0,0,0,0,0,0,0,0,0,0,0,0,0,0,0,0,0,0,0,0,0,0,0,0,0,0,0,
0,0,0,0,0,0,0,0,0,0,0,0,0,0,0,0,0,0,0,0,0,0,0,0,0,0,0,
0,0,0,0,0,0,0,0,0,0,0,0,0,0,0,0,0,0,0,0,0,0,0,0,0,0,0
</data>
 </layer>
 <layer name="Collision" width="27" height="34" visible="0">
  <data encoding="csv">
0,0,0,0,0,0,0,0,0,0,0,0,0,0,0,0,0,0,0,0,0,0,0,0,0,0,0,
0,0,0,0,0,0,0,0,0,0,0,0,0,0,0,0,0,0,0,0,0,0,0,0,0,0,0,
0,0,0,0,0,0,0,0,0,0,0,0,0,0,0,0,0,0,0,0,0,0,0,0,0,0,0,
0,0,0,0,0,0,0,0,0,0,0,0,0,0,0,0,0,0,0,0,0,0,0,0,0,0,0,
0,0,0,0,0,0,0,0,0,0,0,0,0,0,0,0,0,0,0,0,0,0,0,0,0,0,0,
0,0,0,0,0,0,0,0,0,0,0,0,0,0,0,0,0,0,0,0,0,0,0,0,0,0,0,
0,0,0,0,0,0,0,0,0,0,0,0,0,0,0,0,0,0,0,0,0,0,0,0,0,0,0,
0,0,0,0,0,0,0,0,0,0,0,0,0,0,0,0,0,0,0,0,0,0,0,0,0,0,0,
0,0,0,0,0,0,0,0,0,0,0,0,0,0,0,0,0,0,0,0,0,0,0,0,0,0,0,
0,0,0,0,0,0,0,0,0,0,0,0,0,0,0,0,0,0,0,0,0,0,0,0,0,0,0,
0,0,0,0,0,0,0,0,0,0,0,0,0,0,0,0,0,0,0,0,0,0,0,0,0,0,0,
0,0,0,0,0,0,0,0,0,0,0,0,0,0,0,0,0,0,0,0,0,0,0,0,0,0,0,
0,0,0,0,0,0,0,0,0,0,0,0,0,0,0,0,0,0,0,0,0,0,0,0,0,0,0,
0,0,0,0,0,0,0,0,0,0,0,0,0,0,0,0,0,0,0,0,0,0,0,0,0,0,0,
0,0,0,0,0,0,0,0,0,0,0,0,0,0,0,0,0,0,0,0,0,0,0,0,0,0,0,
0,0,0,0,0,0,0,0,0,0,0,0,0,0,0,0,0,0,0,0,0,0,0,0,0,0,0,
0,0,0,0,0,0,0,0,0,0,0,0,0,0,0,0,0,0,0,0,0,0,0,0,0,0,0,
0,0,0,0,0,0,0,0,0,0,0,0,0,0,0,0,0,0,0,0,0,0,0,0,0,0,0,
0,0,0,0,0,0,0,0,0,0,0,0,0,0,0,0,0,0,0,0,0,0,0,0,0,0,0,
0,0,0,0,0,0,0,0,0,0,0,0,0,0,0,0,0,0,0,0,0,0,0,0,0,0,0,
0,0,0,0,0,0,0,0,0,0,0,0,0,0,0,0,0,0,0,0,0,0,0,0,0,0,0,
0,0,0,0,0,0,0,0,0,0,0,0,0,0,0,0,0,0,0,0,0,0,0,0,0,0,0,
0,0,0,0,0,0,0,0,0,0,0,0,0,0,0,0,0,0,0,0,0,0,0,0,0,0,0,
0,0,0,0,0,0,0,0,0,0,0,0,0,0,0,0,0,0,0,0,0,0,0,0,0,0,0,
0,0,0,0,0,0,0,0,0,0,0,0,0,0,0,0,0,0,0,0,0,0,0,0,0,0,0,
0,0,0,0,0,0,0,0,0,0,0,0,0,0,0,0,0,0,0,0,0,0,0,0,0,0,0,
0,0,0,0,0,0,0,0,0,0,0,0,0,0,0,0,0,0,0,0,0,0,0,0,0,0,0,
0,0,0,0,0,0,0,0,0,0,0,0,0,0,0,0,0,0,0,0,0,0,0,0,0,0,0,
0,0,0,0,0,0,0,0,0,0,0,0,0,0,0,0,0,0,0,0,0,0,0,0,0,0,0,
0,0,0,0,0,0,0,0,0,0,0,0,0,0,0,0,0,0,0,0,0,0,0,0,0,0,0,
0,0,0,0,0,0,0,0,0,0,0,0,0,0,0,0,0,0,0,0,0,0,0,0,0,0,0,
0,0,0,0,0,0,0,0,0,0,0,0,0,0,0,0,0,0,0,0,0,0,0,0,0,0,0,
0,0,0,0,0,0,0,0,0,0,0,0,0,0,0,0,0,0,0,0,0,0,0,0,0,0,0,
0,0,0,0,0,0,0,0,0,0,0,0,0,0,0,0,0,0,0,0,0,0,0,0,0,0,0
</data>
 </layer>
 <layer name="BunnyExtCollision" width="27" height="34" visible="0">
  <data encoding="csv">
0,0,0,0,0,0,0,0,0,0,0,0,0,0,0,0,0,0,0,0,0,0,0,0,0,0,0,
0,0,0,0,0,0,0,0,0,0,0,0,0,0,0,0,0,0,0,0,0,0,0,0,0,0,0,
0,0,0,0,0,0,0,0,0,0,0,0,0,0,0,0,0,0,0,0,0,0,0,0,0,0,0,
0,0,0,0,0,0,0,0,0,0,0,0,0,0,0,0,0,0,0,0,0,0,0,0,0,0,0,
0,0,0,0,0,0,0,0,0,0,0,0,0,0,0,0,0,0,0,0,0,0,0,0,0,0,0,
0,0,0,0,0,0,0,0,0,0,0,0,0,0,0,0,0,0,0,0,0,0,0,0,0,0,0,
0,0,0,0,0,0,0,0,0,0,0,0,0,0,0,0,0,0,0,0,0,0,0,0,0,0,0,
0,0,0,0,0,0,0,0,0,0,0,0,0,0,0,0,0,0,0,0,0,0,0,0,0,0,0,
0,0,0,0,0,0,0,0,0,0,0,0,0,0,0,0,0,0,0,0,0,0,0,0,0,0,0,
0,0,0,0,0,0,0,0,0,0,0,0,0,0,0,0,0,0,0,0,0,0,0,0,0,0,0,
0,0,0,0,0,0,0,0,0,0,0,0,0,0,0,0,0,0,0,0,0,0,0,0,0,0,0,
0,0,0,0,0,0,0,0,0,0,0,0,0,0,0,0,0,0,0,0,0,0,0,0,0,0,0,
0,0,0,0,0,0,0,0,0,0,0,0,0,0,0,0,0,0,0,0,0,0,0,0,0,0,0,
0,0,0,0,0,0,0,0,0,0,0,0,0,0,0,0,0,0,0,0,0,0,0,0,0,0,0,
0,0,0,0,0,0,0,0,0,0,0,0,0,0,0,0,0,0,0,0,0,0,0,0,0,0,0,
0,0,0,0,0,0,0,0,0,0,0,0,0,0,0,0,0,0,0,0,0,0,0,0,0,0,0,
0,0,0,0,0,0,0,0,0,0,0,0,0,0,0,0,0,0,0,0,0,0,0,0,0,0,0,
0,0,0,0,0,0,0,0,0,0,0,0,0,0,0,0,0,0,0,0,0,0,0,0,0,0,0,
0,0,0,0,0,0,0,0,0,0,0,0,0,0,0,0,0,0,0,0,0,0,0,0,0,0,0,
0,0,0,0,0,0,0,0,0,0,0,0,0,0,0,0,0,0,0,0,0,0,0,0,0,0,0,
0,0,0,0,0,0,0,0,0,0,0,0,0,0,0,0,0,0,0,0,0,0,0,0,0,0,0,
0,0,0,0,0,0,0,0,0,0,0,0,0,0,0,0,0,0,0,0,0,0,0,0,0,0,0,
0,0,0,0,0,0,0,0,0,0,0,0,0,0,0,0,0,0,0,0,0,0,0,0,0,0,0,
0,0,0,0,0,0,0,0,0,0,0,0,0,0,0,0,0,0,0,0,0,0,0,0,0,0,0,
0,0,0,0,0,0,0,0,0,0,0,0,0,0,0,0,0,0,0,0,0,0,0,0,0,0,0,
0,0,0,0,0,0,0,0,0,0,0,0,0,0,0,0,0,0,0,0,0,0,0,0,0,0,0,
0,0,0,0,0,0,0,0,0,0,0,0,0,0,0,0,0,0,0,0,0,0,0,0,0,0,0,
0,0,0,0,0,0,0,0,0,0,0,0,0,0,0,0,0,0,0,0,0,0,0,0,0,0,0,
0,0,0,0,0,0,0,0,0,0,0,0,0,0,0,0,0,0,0,0,0,0,0,0,0,0,0,
0,0,0,0,0,0,0,0,0,0,0,0,0,0,0,0,0,0,0,0,0,0,0,0,0,0,0,
0,0,0,0,0,0,0,0,0,0,0,0,0,0,0,0,0,0,0,0,0,0,0,0,0,0,0,
0,0,0,0,0,0,0,0,0,0,0,0,0,0,0,0,0,0,0,0,0,0,0,0,0,0,0,
0,0,0,0,0,0,0,0,0,0,0,0,0,0,0,0,0,0,0,0,0,0,0,0,0,0,0,
0,0,0,0,0,0,0,0,0,0,0,0,0,0,0,0,0,0,0,0,0,0,0,0,0,0,0
</data>
 </layer>
</map>
