<?xml version="1.0" encoding="UTF-8"?>
<map version="1.0" tiledversion="1.1.5" orientation="orthogonal" renderorder="right-down" width="26" height="28" tilewidth="32" tileheight="32" infinite="0" nextobjectid="125">
 <properties>
  <property name="battlebg" type="file" value="../art/backgrounds/robotropolis1.png"/>
  <property name="bgm" type="file" value="../audio/music/battle.ogg"/>
  <property name="onload" type="file" value="actions/robot_wasteland1.lua"/>
  <property name="regionName" value="Robotropolis"/>
  <property name="sectorName" value="Sector 7"/>
 </properties>
 <tileset firstgid="1" source="robotropolis.tsx"/>
 <tileset firstgid="3501" source="knothole.tsx"/>
 <tileset firstgid="6985" source="tunnel.tsx"/>
 <tileset firstgid="10167" source="forest2.tsx"/>
 <layer name="Ground" width="26" height="28">
  <data encoding="csv">
0,0,0,0,0,0,0,0,0,0,0,0,0,0,0,0,0,0,0,0,0,0,0,0,0,0,
0,0,0,0,0,0,0,0,0,0,0,0,0,0,0,0,0,0,0,0,0,0,0,0,0,0,
0,0,0,0,0,0,0,0,0,0,0,0,0,0,0,0,0,0,0,0,0,0,0,0,0,0,
0,0,0,0,0,0,0,0,0,0,0,0,0,0,0,0,0,0,0,0,0,0,0,0,0,0,
0,0,0,0,0,0,0,0,0,0,0,0,0,0,0,0,0,0,0,0,0,0,0,0,0,0,
0,0,0,0,0,0,0,0,0,0,0,0,0,0,0,0,0,0,0,0,0,0,0,0,0,0,
0,0,0,0,0,0,0,0,0,0,0,0,0,0,0,0,0,0,0,0,0,0,0,0,0,0,
0,0,0,0,0,0,0,0,0,0,0,0,0,0,0,0,0,0,0,0,0,0,0,0,0,0,
0,0,0,0,0,0,0,0,0,0,0,0,0,0,0,0,0,0,0,0,0,0,0,0,0,0,
2461,2462,2461,2462,2461,2462,2531,2497,2497,2461,2461,2462,2461,2462,2461,2462,2461,2462,2461,2462,2461,2462,2461,2462,2531,2497,
2496,2497,2496,2497,2496,2497,2461,2462,2461,2496,2496,2497,2496,2497,2496,2497,2496,2497,2496,2497,2496,2497,2496,2497,2461,2462,
2530,2496,2497,2529,2530,2496,2497,2529,2530,2531,2532,2533,2534,2535,2536,2537,2532,2533,2534,2535,2536,2537,2532,2533,2496,2497,
2565,2536,2537,2564,2565,2536,2537,2564,2565,2566,2669,2670,2569,2570,2571,2572,2567,2568,2569,2570,2571,2572,2669,2670,2532,2533,
2533,2534,2535,2710,2711,2712,2709,2599,2600,2601,2704,2705,2604,2605,2606,2607,2602,2603,2604,2605,2606,2607,2704,2705,2636,2702,
2568,2569,2570,2952,2952,2952,2952,3191,3228,3228,3228,3228,3228,3228,3228,3228,3228,3228,3192,2952,2952,2952,2739,2740,2601,2952,
2603,2604,2605,2628,2628,2628,2628,2628,2628,2628,2628,2628,2628,2628,2628,2628,2628,2628,2628,2532,2533,2534,2535,2532,2533,2534,
2638,2639,2640,2532,2533,2534,2535,2628,2628,2628,2628,2628,2628,2628,2628,2628,2628,2628,2628,2567,2568,2569,2570,2567,2568,2569,
2533,2534,2535,2567,2568,2569,2570,2628,2628,2628,2628,2628,2628,2628,2628,2628,2628,2628,2628,2602,2603,2604,2605,2602,2603,2604,
2568,2569,2570,2602,2603,2604,2605,2628,2628,2628,2628,2628,2628,2628,2628,2628,2628,2628,2628,2637,2638,2639,2640,2532,2533,2534,
2603,2604,2605,2637,2638,2639,2640,2628,2628,2628,2628,2628,2628,2628,2628,2628,2628,2628,2628,2532,2533,2534,2535,2567,2568,2569,
2638,2639,2640,2532,2533,2534,2535,2628,2628,2628,2628,2628,2628,2628,2628,2628,2628,2628,2628,2567,2568,2569,2570,2602,2603,2604,
2533,2534,2535,2567,2568,2569,2570,2628,2628,2628,2628,2628,2628,2628,2628,2628,2628,2628,2628,2602,2603,2604,2605,2637,2638,2639,
2568,2569,2570,2602,2603,2604,2605,2628,2628,2628,2628,2628,2628,2628,2628,2628,2628,2628,2628,2637,2638,2639,2640,2532,2533,2534,
2603,2604,2605,2637,2638,2639,2640,2628,2628,2628,2628,2628,2628,2628,2628,2628,2628,2628,2628,2532,2533,2534,2535,2567,2568,2569,
2638,2639,2640,2532,2533,2534,2535,2628,2628,2628,2628,2628,2628,2628,2628,2628,2628,2628,2628,2567,2568,2569,2570,2602,2603,2604,
2533,2534,2535,2567,2568,2569,2570,2628,2628,2628,2628,2628,2628,2628,2628,2628,2628,2628,2628,2602,2603,2604,2605,2637,2638,2639,
2568,2569,2570,2602,2603,2604,2605,2628,2628,2628,2628,2628,2628,2628,2628,2628,2628,2628,2628,2637,2638,2639,2640,2532,2533,2534,
2603,2604,2605,2637,2638,2639,2640,2628,2628,2628,2628,2628,2628,2628,2628,2628,2628,2628,2628,2532,2533,2534,2535,2567,2568,2569
</data>
 </layer>
 <imagelayer name="dino" offsetx="96" offsety="224">
  <image source="../art/sprites/dinohead.png" width="455" height="301"/>
 </imagelayer>
 <objectgroup name="lower">
  <object id="124" name="Hoverbot" type="BasicNPC" gid="1714" x="576" y="672" width="64" height="64">
   <properties>
    <property name="align" value="bottom_left"/>
    <property name="defaultAnim" value="trashed"/>
    <property name="nocollision" type="bool" value="true"/>
    <property name="sprite" type="file" value="../art/sprites/hoverbot.png"/>
   </properties>
  </object>
 </objectgroup>
 <layer name="ObstacleShadow2" width="26" height="28" opacity="0.8">
  <data encoding="csv">
0,0,0,0,0,0,0,0,0,0,0,0,0,0,0,0,0,0,0,0,0,0,0,0,0,0,
0,0,0,0,0,0,0,0,0,0,0,0,0,0,0,0,0,0,0,0,0,0,0,0,0,0,
0,0,0,0,0,0,0,0,0,0,0,0,0,0,0,0,0,0,0,0,0,0,0,0,0,0,
0,0,0,0,0,0,0,0,0,0,0,0,0,0,0,0,0,0,0,0,0,0,0,0,0,0,
0,0,0,0,0,0,0,0,0,0,0,0,0,0,0,0,0,0,0,0,0,0,0,0,0,0,
0,0,0,0,0,0,0,0,0,0,0,0,0,0,0,0,0,0,0,0,0,0,0,0,0,0,
0,0,0,0,0,0,0,0,0,0,0,0,0,0,0,0,0,0,0,0,0,0,0,0,0,0,
0,0,0,0,0,0,0,0,0,0,0,0,0,0,0,0,0,0,0,0,0,0,0,0,0,0,
0,0,0,0,0,0,0,0,0,0,0,0,0,0,0,0,0,0,0,0,0,0,0,0,0,0,
0,0,0,0,0,0,0,0,0,0,0,0,0,0,0,0,0,0,0,0,0,0,0,0,0,0,
0,0,0,0,0,0,0,0,0,0,0,0,0,0,0,0,0,0,0,0,0,0,0,0,0,0,
0,0,0,0,0,0,0,0,0,0,0,0,0,0,0,0,0,0,0,0,0,0,0,0,0,0,
0,0,0,0,0,0,0,0,0,0,0,0,0,0,0,0,0,0,0,0,0,0,0,0,0,0,
0,0,0,0,0,0,0,0,0,0,0,0,0,0,0,0,0,0,0,0,0,0,0,0,0,0,
0,0,0,0,0,0,0,0,0,0,0,0,0,0,0,0,0,0,0,0,0,0,0,0,0,0,
0,0,0,0,0,0,0,0,0,0,0,0,0,0,0,0,0,0,0,0,0,0,0,0,0,0,
0,0,0,0,0,0,0,0,0,0,0,0,0,0,0,0,0,0,0,0,0,0,0,0,0,0,
0,0,0,0,0,0,0,0,0,0,0,0,0,0,0,0,0,0,0,0,0,0,0,0,0,0,
0,0,0,0,0,0,0,0,0,0,0,0,0,0,0,0,0,0,0,0,0,0,0,0,0,0,
0,0,0,0,0,0,0,0,0,0,0,0,0,0,0,0,0,0,0,0,0,0,0,0,0,0,
0,0,0,0,0,0,0,0,0,0,0,0,0,0,0,0,0,0,0,0,0,0,0,0,0,0,
0,0,0,0,0,0,0,0,0,0,0,0,0,0,0,0,0,0,0,0,0,0,0,0,0,0,
0,0,0,0,0,0,0,0,0,0,0,0,0,0,0,0,0,0,0,0,0,0,0,0,0,0,
0,0,0,0,0,0,0,0,0,0,0,0,0,0,0,0,0,0,0,0,0,0,0,0,0,0,
0,0,0,0,0,0,0,0,0,0,0,0,0,0,0,0,0,0,0,0,0,0,0,0,0,0,
0,0,0,0,0,0,0,0,0,0,0,0,0,0,0,0,0,0,0,0,0,0,0,0,0,0,
0,0,0,0,0,0,0,0,0,0,0,0,0,0,0,0,0,0,0,0,0,0,0,0,0,0,
0,0,0,0,0,0,0,0,0,0,0,0,0,0,0,0,0,0,0,0,0,0,0,0,0,0
</data>
 </layer>
 <layer name="Obstacle" width="26" height="28">
  <data encoding="csv">
0,0,0,0,0,0,0,0,0,0,0,0,0,0,0,0,0,0,0,0,0,0,0,0,0,0,
0,0,0,0,0,0,0,0,0,0,0,0,0,0,0,0,0,0,0,0,0,0,0,0,0,0,
0,0,0,0,0,0,0,0,0,0,0,0,0,0,0,0,0,0,0,0,0,0,0,0,0,0,
0,0,0,0,0,0,0,0,0,0,0,0,0,0,0,0,0,0,0,0,0,0,0,0,0,0,
0,0,0,0,0,0,0,0,0,0,0,0,0,0,0,0,0,0,0,0,0,0,0,0,0,0,
0,0,0,0,0,0,0,0,0,0,0,0,0,0,0,0,0,0,0,0,0,0,0,0,0,0,
0,0,0,0,0,0,0,0,0,0,0,0,0,0,0,0,0,0,0,0,0,0,0,0,0,0,
0,0,0,0,0,0,0,0,0,0,0,0,0,0,0,0,0,0,0,0,0,0,0,0,0,0,
0,0,0,0,0,0,0,0,0,0,0,0,0,0,0,0,0,0,0,0,0,0,0,0,0,0,
0,0,0,0,0,0,0,0,0,0,0,0,0,0,0,0,0,0,0,0,0,0,0,0,0,0,
0,0,0,0,0,0,0,0,0,0,0,0,0,0,0,0,0,0,0,0,0,0,0,0,0,0,
0,0,0,0,0,0,0,0,0,0,0,0,0,0,0,0,0,0,0,0,0,0,0,0,0,0,
0,0,0,0,0,0,0,0,0,0,0,0,0,0,0,0,0,0,0,0,0,0,0,0,0,0,
0,0,0,0,0,0,0,0,0,0,0,0,0,0,0,0,0,0,0,0,0,0,0,0,0,0,
0,0,0,0,0,0,0,3191,3228,3228,3228,3228,3228,3228,3228,3228,3228,3228,3192,0,0,0,0,0,0,0,
0,0,0,0,0,0,0,3189,2628,2628,2628,2628,2628,2628,2628,2628,2628,2628,3229,0,0,0,0,0,0,0,
0,0,0,0,0,0,0,3230,2628,2628,2628,2628,2628,2628,2628,2628,2628,2628,3229,0,0,0,0,0,0,0,
0,0,0,0,0,0,0,3230,2628,2628,2628,2628,2628,2628,2628,2628,2628,2628,3188,0,0,0,0,0,0,0,
0,0,0,0,0,0,0,3230,2628,2628,2628,2628,2628,2628,2628,2628,2628,2628,3229,0,0,0,0,0,0,0,
0,0,0,0,0,0,0,3193,3231,3231,3231,3231,3231,3231,3231,3231,3231,3231,3194,0,0,0,0,0,0,0,
0,0,0,0,0,0,0,2456,2457,2456,2457,2456,2457,2456,2457,2456,2457,2456,2457,0,0,0,0,0,0,0,
0,0,0,0,0,0,0,2456,2457,2456,2457,2456,2457,2456,2457,2456,2457,2456,2457,0,0,0,0,0,0,0,
0,0,0,0,0,0,0,2456,2457,2456,2457,2456,2457,2456,2457,2456,2457,2456,2457,0,0,0,0,0,0,0,
0,0,0,0,0,0,0,2456,2457,2456,2457,2456,2457,2456,2457,2456,2457,2456,2457,0,0,0,0,0,0,0,
0,0,0,0,0,0,0,2456,2457,2456,2457,2456,2457,2456,2457,2456,2457,2456,2457,0,0,0,0,0,0,0,
0,0,0,0,0,0,0,2456,2457,2456,2457,2456,2457,2456,2457,2456,2457,2456,2457,0,0,0,0,0,0,0,
0,0,0,0,0,0,0,2456,2457,2456,2457,2456,2457,2456,2457,2456,2457,2456,2457,0,0,0,0,0,0,0,
0,0,0,0,0,0,0,2456,2457,2456,2457,2456,2457,2456,2457,2456,2457,2456,2457,0,0,0,0,0,0,0
</data>
 </layer>
 <layer name="ObstacleShadow" width="26" height="28" opacity="0.8">
  <data encoding="csv">
0,0,0,0,0,0,0,0,0,0,0,0,0,0,0,0,0,0,0,0,0,0,0,0,0,0,
0,0,0,0,0,0,0,0,0,0,0,0,0,0,0,0,0,0,0,0,0,0,0,0,0,0,
0,0,0,0,0,0,0,0,0,0,0,0,0,0,0,0,0,0,0,0,0,0,0,0,0,0,
0,0,0,0,0,0,0,0,0,0,0,0,0,0,0,0,0,0,0,0,0,0,0,0,0,0,
0,0,0,0,0,0,0,0,0,0,0,0,0,0,0,0,0,0,0,0,0,0,0,0,0,0,
0,0,0,0,0,0,0,0,0,0,0,0,0,0,0,0,0,0,0,0,0,0,0,0,0,0,
0,0,0,0,0,0,0,0,0,0,0,0,0,0,0,0,0,0,0,0,0,0,0,0,0,0,
0,0,0,0,0,0,0,0,0,0,0,0,0,0,0,0,0,0,0,0,0,0,0,0,0,0,
0,0,0,0,0,0,0,0,0,0,0,0,0,0,0,0,0,0,0,0,0,0,0,0,0,0,
0,0,0,0,0,0,0,0,0,0,0,0,0,0,0,0,0,0,0,0,0,0,0,0,0,0,
0,0,0,0,0,0,0,0,0,0,0,0,0,0,0,0,0,0,0,0,0,0,0,0,0,0,
0,0,0,0,0,0,0,0,0,0,0,0,0,0,0,0,0,0,0,0,0,0,0,0,0,0,
0,0,0,0,0,0,0,0,0,0,0,0,0,0,0,0,0,0,0,0,0,0,0,0,0,0,
0,0,0,0,0,0,0,0,0,0,0,0,0,0,0,0,0,0,0,0,0,0,0,0,0,0,
0,0,0,0,0,0,0,0,0,0,0,0,0,0,0,0,0,0,0,0,0,0,0,0,0,0,
0,0,0,0,0,0,0,0,0,0,0,0,0,0,0,0,0,0,0,0,0,0,0,0,0,0,
0,0,0,0,0,0,0,0,0,0,0,0,0,0,0,0,0,0,0,0,0,0,0,0,0,0,
0,0,0,0,0,0,0,0,0,0,0,0,0,0,0,0,0,0,0,0,0,0,0,0,0,0,
0,0,0,0,0,0,0,0,0,0,0,0,0,0,0,0,0,0,0,0,0,0,0,0,0,0,
0,0,0,0,0,0,0,0,0,0,0,0,0,0,0,0,0,0,0,0,0,0,0,0,0,0,
0,0,0,0,0,0,0,0,0,0,0,0,0,0,0,0,0,0,0,0,0,0,0,0,0,0,
0,0,0,0,0,0,0,0,0,0,0,0,0,0,0,0,0,0,0,0,0,0,0,0,0,0,
0,0,0,0,0,0,0,0,0,0,0,0,0,0,0,0,0,0,0,0,0,0,0,0,0,0,
0,0,0,0,0,0,0,0,0,0,0,0,0,0,0,0,0,0,0,0,0,0,0,0,0,0,
0,0,0,0,0,0,0,0,0,0,0,0,0,0,0,0,0,0,0,0,0,0,0,0,0,0,
0,0,0,0,0,0,0,0,0,0,0,0,0,0,0,0,0,0,0,0,0,0,0,0,0,0,
0,0,0,0,0,0,0,0,0,0,0,0,0,0,0,0,0,0,0,0,0,0,0,0,0,0,
0,0,0,0,0,0,0,0,0,0,0,0,0,0,0,0,0,0,0,0,0,0,0,0,0,0
</data>
 </layer>
 <layer name="ObstacleShadow3" width="26" height="28" opacity="0.8">
  <data encoding="csv">
0,0,0,0,0,0,0,0,0,0,0,0,0,0,0,0,0,0,0,0,0,0,0,0,0,0,
0,0,0,0,0,0,0,0,0,0,0,0,0,0,0,0,0,0,0,0,0,0,0,0,0,0,
0,0,0,0,0,0,0,0,0,0,0,0,0,0,0,0,0,0,0,0,0,0,0,0,0,0,
0,0,0,0,0,0,0,0,0,0,0,0,0,0,0,0,0,0,0,0,0,0,0,0,0,0,
0,0,0,0,0,0,0,0,0,0,0,0,0,0,0,0,0,0,0,0,0,0,0,0,0,0,
0,0,0,0,0,0,0,0,0,0,0,0,0,0,0,0,0,0,0,0,0,0,0,0,0,0,
0,0,0,0,0,0,0,0,0,0,0,0,0,0,0,0,0,0,0,0,0,0,0,0,0,0,
0,0,0,0,0,0,0,0,0,0,0,0,0,0,0,0,0,0,0,0,0,0,0,0,0,0,
0,0,0,0,0,0,0,0,0,0,0,0,0,0,0,0,0,0,0,0,0,0,0,0,0,0,
0,0,0,0,0,0,0,0,0,0,0,0,0,0,0,0,0,0,0,0,0,0,0,0,0,0,
0,0,0,0,0,0,0,0,0,0,0,0,0,0,0,0,0,0,0,0,0,0,0,0,0,0,
0,0,0,0,0,0,0,0,0,0,0,0,0,0,0,0,0,0,0,0,0,0,0,0,0,0,
0,0,0,0,0,0,0,0,0,0,0,0,0,0,0,0,0,0,0,0,0,0,0,0,0,0,
0,0,0,0,0,0,0,0,0,0,0,0,0,0,0,0,0,0,0,0,0,0,0,0,0,0,
0,0,0,0,0,0,0,0,0,0,0,0,0,0,0,0,0,0,0,0,0,0,0,0,0,0,
0,0,0,0,0,0,0,0,0,0,0,0,0,0,0,0,0,0,0,0,0,0,0,0,0,0,
0,0,0,0,0,0,0,0,0,0,0,0,0,0,0,0,0,0,0,0,0,0,0,0,0,0,
0,0,0,0,0,0,0,0,0,0,0,0,0,0,0,0,0,0,0,0,0,0,0,0,0,0,
0,0,0,0,0,0,0,0,0,0,0,0,0,0,0,0,0,0,0,0,0,0,0,0,0,0,
0,0,0,0,0,0,0,0,0,0,0,0,0,0,0,0,0,0,0,0,0,0,0,0,0,0,
0,0,0,0,0,0,0,0,0,0,0,0,0,0,0,0,0,0,0,0,0,0,0,0,0,0,
0,0,0,0,0,0,0,0,0,0,0,0,0,0,0,0,0,0,0,0,0,0,0,0,0,0,
0,0,0,0,0,0,0,0,0,0,0,0,0,0,0,0,0,0,0,0,0,0,0,0,0,0,
0,0,0,0,0,0,0,0,0,0,0,0,0,0,0,0,0,0,0,0,0,0,0,0,0,0,
0,0,0,0,0,0,0,0,0,0,0,0,0,0,0,0,0,0,0,0,0,0,0,0,0,0,
0,0,0,0,0,0,0,0,0,0,0,0,0,0,0,0,0,0,0,0,0,0,0,0,0,0,
0,0,0,0,0,0,0,0,0,0,0,0,0,0,0,0,0,0,0,0,0,0,0,0,0,0,
0,0,0,0,0,0,0,0,0,0,0,0,0,0,0,0,0,0,0,0,0,0,0,0,0,0
</data>
 </layer>
 <layer name="Obstacle2" width="26" height="28">
  <data encoding="csv">
0,0,0,0,0,0,0,0,0,0,0,0,0,0,0,0,0,0,0,0,0,0,0,0,0,0,
0,0,0,0,0,0,0,0,0,0,0,0,0,0,0,0,0,0,0,0,0,0,0,0,0,0,
0,0,0,0,0,0,0,0,0,0,0,0,0,0,0,0,0,0,0,0,0,0,0,0,0,0,
0,0,0,0,0,0,0,0,0,0,0,0,0,0,0,0,0,0,0,0,0,0,0,0,0,0,
0,0,0,0,0,0,0,0,0,0,0,0,0,0,0,0,0,0,0,0,0,0,0,0,0,0,
0,0,0,0,0,0,0,0,0,0,0,0,0,0,0,0,0,0,0,0,0,0,0,0,0,0,
0,0,0,0,0,0,0,0,0,0,0,0,0,0,0,0,0,0,0,0,0,0,0,0,0,0,
0,0,0,0,0,0,0,0,0,0,0,0,0,0,0,0,0,0,0,0,0,0,0,0,0,0,
0,0,0,0,0,0,0,0,0,0,0,0,0,0,0,0,0,0,0,0,0,0,0,0,0,0,
0,0,0,0,0,0,0,0,0,0,0,0,0,0,0,0,0,0,0,0,0,0,0,0,0,0,
0,0,0,0,0,0,0,0,0,0,0,0,0,0,0,0,0,0,0,0,0,0,0,0,0,0,
0,0,0,0,0,0,0,0,0,0,0,0,0,0,0,0,0,0,0,0,0,0,0,0,0,0,
0,0,0,0,0,0,0,0,0,0,0,0,0,0,0,0,0,0,0,0,0,0,0,0,0,0,
0,0,0,0,0,0,0,0,0,0,0,0,0,0,0,0,0,0,0,0,0,0,0,0,0,0,
0,0,0,0,0,0,0,0,0,0,0,0,0,0,0,0,0,0,0,0,0,0,0,0,0,0,
0,0,0,0,0,0,0,0,0,0,0,0,0,0,0,0,0,0,0,0,0,0,0,0,0,0,
0,0,0,0,0,0,0,0,0,0,0,0,0,0,0,0,0,0,0,0,0,0,0,0,0,0,
0,0,0,0,0,0,0,0,0,0,0,0,0,0,0,0,0,0,0,0,0,0,0,0,0,0,
0,0,0,0,0,0,0,0,0,0,0,0,0,0,0,0,0,0,0,0,0,0,0,0,0,0,
0,0,0,0,0,0,0,0,0,0,0,0,0,0,0,0,0,0,0,0,0,0,0,0,0,0,
0,0,0,0,0,0,0,0,0,0,0,0,0,0,0,0,0,0,0,0,0,0,0,0,0,0,
0,0,0,0,0,0,0,0,0,0,0,0,0,0,0,0,0,0,0,0,0,0,0,0,0,0,
0,0,0,0,0,0,0,0,0,0,0,0,0,0,0,0,0,0,0,0,0,0,0,0,0,0,
0,0,0,0,0,0,0,0,0,0,0,0,0,0,0,0,0,0,0,0,0,0,0,0,0,0,
0,0,0,0,0,0,0,0,0,0,0,0,0,0,0,0,0,0,0,0,0,0,0,0,0,0,
0,0,0,0,0,0,0,0,0,0,0,0,0,0,0,0,0,0,0,0,0,0,0,0,0,0,
0,0,0,0,0,0,0,0,0,0,0,0,0,0,0,0,0,0,0,0,0,0,0,0,0,0,
0,0,0,0,0,0,0,0,0,0,0,0,0,0,0,0,0,0,0,0,0,0,0,0,0,0
</data>
 </layer>
 <layer name="Obstacle3" width="26" height="28">
  <data encoding="csv">
0,0,0,0,0,0,0,0,0,0,0,0,0,0,0,0,0,0,0,0,0,0,0,0,0,0,
0,0,0,0,0,0,0,0,0,0,0,0,0,0,0,0,0,0,0,0,0,0,0,0,0,0,
0,0,0,0,0,0,0,0,0,0,0,0,0,0,0,0,0,0,0,0,0,0,0,0,0,0,
0,0,0,0,0,0,0,0,0,0,0,0,0,0,0,0,0,0,0,0,0,0,0,0,0,0,
0,0,0,0,0,0,0,0,0,0,0,0,0,0,0,0,0,0,0,0,0,0,0,0,0,0,
0,0,0,0,0,0,0,0,0,0,0,0,0,0,0,0,0,0,0,0,0,0,0,0,0,0,
0,0,0,0,0,0,0,0,0,0,0,0,0,0,0,0,0,0,0,0,0,0,0,0,0,0,
0,0,0,0,0,0,0,0,0,0,0,0,0,0,0,0,0,0,0,0,0,0,0,0,0,0,
0,0,0,0,0,0,0,0,0,0,0,0,0,0,0,0,0,0,0,0,0,0,0,0,0,0,
0,0,0,0,0,0,0,0,0,0,0,0,0,0,0,0,0,0,0,0,0,0,0,0,0,0,
0,0,0,0,0,0,0,0,0,0,0,0,0,0,0,0,0,0,0,0,0,0,0,0,0,0,
0,0,0,0,0,0,0,0,0,0,0,0,0,0,0,0,0,0,0,0,0,0,0,0,0,0,
0,0,0,0,0,0,0,0,0,0,0,0,0,0,0,0,0,0,0,0,0,0,0,0,0,0,
0,0,0,0,0,0,0,0,0,0,0,0,0,0,0,0,0,0,0,0,0,0,0,0,0,0,
0,0,0,0,0,0,0,0,0,0,0,0,0,0,0,0,0,0,0,0,0,0,0,0,0,0,
0,0,0,0,0,0,0,0,0,0,0,0,0,0,0,0,0,0,0,0,0,0,0,0,0,0,
0,0,0,0,0,0,0,0,0,0,0,0,0,0,0,0,0,0,0,0,0,0,0,0,0,0,
0,0,0,0,0,0,0,0,0,0,0,0,0,0,0,0,0,0,0,0,0,0,0,0,0,0,
0,0,0,0,0,0,0,0,0,0,0,0,0,0,0,0,0,0,0,0,0,0,0,0,0,0,
0,0,0,0,0,0,0,0,0,0,0,0,0,0,0,0,0,0,0,0,0,0,0,0,0,0,
0,0,0,0,0,0,0,0,0,0,0,0,0,0,0,0,0,0,0,0,0,0,0,0,0,0,
0,0,0,0,0,0,0,0,0,0,0,0,0,0,0,0,0,0,0,0,0,0,0,0,0,0,
0,0,0,0,0,0,0,0,0,0,0,0,0,0,0,0,0,0,0,0,0,0,0,0,0,0,
0,0,0,0,0,0,0,0,0,0,0,0,0,0,0,0,0,0,0,0,0,0,0,0,0,0,
0,0,0,0,0,0,0,0,0,0,0,0,0,0,0,0,0,0,0,0,0,0,0,0,0,0,
0,0,0,0,0,0,0,0,0,0,0,0,0,0,0,0,0,0,0,0,0,0,0,0,0,0,
0,0,0,0,0,0,0,0,0,0,0,0,0,0,0,0,0,0,0,0,0,0,0,0,0,0,
0,0,0,0,0,0,0,0,0,0,0,0,0,0,0,0,0,0,0,0,0,0,0,0,0,0
</data>
 </layer>
 <objectgroup name="objects">
  <object id="119" name="Spawn 1" type="Player" gid="1714" x="400" y="576" width="32" height="32">
   <properties>
    <property name="orientation" value="down"/>
   </properties>
  </object>
  <object id="120" name="Sally" type="BasicNPC" gid="1714" x="352" y="480" width="32" height="32">
   <properties>
    <property name="defaultAnim" value="kneeldown"/>
    <property name="nocollision" type="bool" value="true"/>
    <property name="sprite" type="file" value="../art/sprites/sally.png"/>
   </properties>
  </object>
  <object id="121" name="B" type="BasicNPC" gid="1714" x="320" y="448" width="32" height="32">
   <properties>
    <property name="defaultAnim" value="idledown"/>
    <property name="nocollision" type="bool" value="true"/>
    <property name="sprite" type="file" value="../art/sprites/b.png"/>
   </properties>
  </object>
  <object id="122" name="Save" type="SavePoint" gid="1714" x="512" y="512" width="32" height="32">
   <properties>
    <property name="nonight" type="bool" value="true"/>
    <property name="sprite" type="file" value="../art/sprites/save.png"/>
   </properties>
  </object>
 </objectgroup>
 <imagelayer name="rain" offsetx="-1312" offsety="-3584">
  <image source="../art/parallax/rain2.png" width="800" height="600"/>
  <properties>
   <property name="speedx" type="float" value="0"/>
   <property name="speedy" type="float" value="8"/>
   <property name="type" value="Parallax"/>
  </properties>
 </imagelayer>
 <layer name="darkness" width="26" height="28" opacity="0.5">
  <data encoding="csv">
72,72,72,72,72,72,72,72,72,72,72,72,72,72,72,72,72,72,72,72,72,72,72,72,72,72,
72,72,72,72,72,72,72,72,72,72,72,72,72,72,72,72,72,72,72,72,72,72,72,72,72,72,
72,72,72,72,72,72,72,72,72,72,72,72,72,72,72,72,72,72,72,72,72,72,72,72,72,72,
72,72,72,72,72,72,72,72,72,72,72,72,72,72,72,72,72,72,72,72,72,72,72,72,72,72,
72,72,72,72,72,72,72,72,72,72,72,72,72,72,72,72,72,72,72,72,72,72,72,72,72,72,
72,72,72,72,72,72,72,72,72,72,72,72,72,72,72,72,72,72,72,72,72,72,72,72,72,72,
72,72,72,72,72,72,72,72,72,72,72,72,72,72,72,72,72,72,72,72,72,72,72,72,72,72,
72,72,72,72,72,72,72,72,72,72,72,72,72,72,72,72,72,72,72,72,72,72,72,72,72,72,
72,72,72,72,72,72,72,72,72,72,72,72,72,72,72,72,72,72,72,72,72,72,72,72,72,72,
72,72,72,72,72,72,72,72,72,72,72,72,72,72,72,72,72,72,72,72,72,72,72,72,72,72,
72,72,72,72,72,72,72,72,72,72,72,72,72,72,72,72,72,72,72,72,72,72,72,72,72,72,
72,72,72,72,72,72,72,72,72,72,72,72,72,72,72,72,72,72,72,72,72,72,72,72,72,72,
72,72,72,72,72,72,72,72,72,72,72,72,72,72,72,72,72,72,72,72,72,72,72,72,72,72,
72,72,72,72,72,72,72,72,72,72,72,72,72,72,72,72,72,72,72,72,72,72,72,72,72,72,
72,72,72,72,72,72,72,72,72,72,72,72,72,72,72,72,72,72,72,72,72,72,72,72,72,72,
72,72,72,72,72,72,72,72,72,72,72,72,72,72,72,72,72,72,72,72,72,72,72,72,72,72,
72,72,72,72,72,72,72,72,72,72,72,72,72,72,72,72,72,72,72,72,72,72,72,72,72,72,
72,72,72,72,72,72,72,72,72,72,72,72,72,72,72,72,72,72,72,72,72,72,72,72,72,72,
72,72,72,72,72,72,72,72,72,72,72,72,72,72,72,72,72,72,72,72,72,72,72,72,72,72,
72,72,72,72,72,72,72,72,72,72,72,72,72,72,72,72,72,72,72,72,72,72,72,72,72,72,
72,72,72,72,72,72,72,72,72,72,72,72,72,72,72,72,72,72,72,72,72,72,72,72,72,72,
72,72,72,72,72,72,72,72,72,72,72,72,72,72,72,72,72,72,72,72,72,72,72,72,72,72,
72,72,72,72,72,72,72,72,72,72,72,72,72,72,72,72,72,72,72,72,72,72,72,72,72,72,
72,72,72,72,72,72,72,72,72,72,72,72,72,72,72,72,72,72,72,72,72,72,72,72,72,72,
72,72,72,72,72,72,72,72,72,72,72,72,72,72,72,72,72,72,72,72,72,72,72,72,72,72,
72,72,72,72,72,72,72,72,72,72,72,72,72,72,72,72,72,72,72,72,72,72,72,72,72,72,
72,72,72,72,72,72,72,72,72,72,72,72,72,72,72,72,72,72,72,72,72,72,72,72,72,72,
72,72,72,72,72,72,72,72,72,72,72,72,72,72,72,72,72,72,72,72,72,72,72,72,72,72
</data>
 </layer>
 <layer name="Collision" width="26" height="28" visible="0">
  <data encoding="csv">
2701,2701,2701,2701,2701,2701,2701,2701,2701,2701,2701,2701,2701,2701,2701,2701,2701,2701,2701,2701,2701,2701,2701,2701,2701,2701,
2701,2701,2701,2701,2701,2701,2701,2701,2701,2701,2701,2701,2701,2701,2701,2701,2701,2701,2701,2701,2701,2701,2701,2701,2701,2701,
2701,2701,2701,2701,2701,2701,2701,2701,2701,2701,2701,2701,2701,2701,2701,2701,2701,2701,2701,2701,2701,2701,2701,2701,2701,2701,
2701,2701,2701,2701,2701,2701,2701,2701,2701,2701,2701,2701,2701,2701,2701,2701,2701,2701,2701,2701,2701,2701,2701,2701,2701,2701,
2701,2701,2701,2701,2701,2701,2701,2701,2701,2701,2701,2701,2701,2701,2701,2701,2701,2701,2701,2701,2701,2701,2701,2701,2701,2701,
2701,2701,2701,2701,2701,2701,2701,2701,2701,2701,2701,2701,2701,2701,2701,2701,2701,2701,2701,2701,2701,2701,2701,2701,2701,2701,
2701,2701,2701,2701,2701,2701,2701,2701,2701,2701,2701,2701,2701,2701,2701,2701,2701,2701,2701,2701,2701,2701,2701,2701,2701,2701,
2701,2701,2701,2701,2701,2701,2701,2701,2701,2701,2701,2701,2701,2701,2701,2701,2701,2701,2701,2701,2701,2701,2701,2701,2701,2701,
2701,2701,2701,2701,2701,2701,2701,2701,2701,2701,2701,2701,2701,2701,2701,2701,2701,2701,2701,2701,2701,2701,2701,2701,2701,2701,
2701,2701,2701,2701,2701,2701,2701,2701,2701,2701,2701,2701,2701,2701,2701,2701,2701,2701,2701,2701,2701,2701,2701,2701,2701,2701,
2701,2701,2701,2701,2701,2701,2701,2701,2701,2701,2701,2701,2701,2701,2701,2701,2701,2701,2701,2701,2701,2701,2701,2701,2701,2701,
2701,2701,2701,2701,2701,2701,2701,2701,2701,2701,2701,2701,2701,2701,2701,2701,2701,2701,2701,2701,2701,2701,2701,2701,2701,2701,
2701,2701,2701,2701,2701,2701,2701,2701,2701,2701,2701,2701,2701,2701,2701,2701,2701,2701,2701,2701,2701,2701,2701,2701,2701,2701,
2701,2701,2701,2701,2701,2701,2701,2701,2701,2701,2701,2701,2701,2701,2701,2701,2701,2701,2701,2701,2701,2701,2701,2701,2701,2701,
2701,2701,2701,2701,2701,2701,2701,0,0,0,0,0,0,0,0,0,0,0,0,2701,2701,2701,2701,2701,2701,2701,
2701,2701,2701,2701,2701,2701,2701,0,0,0,0,0,0,0,0,0,0,0,0,2701,2701,2701,2701,2701,2701,2701,
2701,2701,2701,2701,2701,2701,2701,0,0,0,0,0,0,0,0,0,0,0,0,2701,2701,2701,2701,2701,2701,2701,
2701,2701,2701,2701,2701,2701,2701,0,0,0,0,0,0,0,0,0,0,0,0,2701,2701,2701,2701,2701,2701,2701,
2701,2701,2701,2701,2701,2701,2701,0,0,0,0,0,0,0,0,0,0,0,0,2701,2701,2701,2701,2701,2701,2701,
2701,2701,2701,2701,2701,2701,2701,0,0,0,0,0,0,0,0,0,0,0,0,2701,2701,2701,2701,2701,2701,2701,
2701,2701,2701,2701,2701,2701,2701,0,0,0,0,0,0,0,0,0,0,0,0,2701,2701,2701,2701,2701,2701,2701,
2701,2701,2701,2701,2701,2701,2701,0,0,0,0,0,0,0,0,0,0,0,0,2701,2701,2701,2701,2701,2701,2701,
2701,2701,2701,2701,2701,2701,2701,0,0,0,0,0,0,0,0,0,0,0,0,2701,2701,2701,2701,2701,2701,2701,
2701,2701,2701,2701,2701,2701,2701,0,0,0,0,0,0,0,0,0,0,0,0,2701,2701,2701,2701,2701,2701,2701,
2701,2701,2701,2701,2701,2701,2701,0,0,0,0,0,0,0,0,0,0,0,0,2701,2701,2701,2701,2701,2701,2701,
2701,2701,2701,2701,2701,2701,2701,0,0,0,0,0,0,0,0,0,0,0,0,2701,2701,2701,2701,2701,2701,2701,
2701,2701,2701,2701,2701,2701,2701,0,0,0,0,0,0,0,0,0,0,0,0,2701,2701,2701,2701,2701,2701,2701,
2701,2701,2701,2701,2701,2701,2701,0,0,0,0,0,0,0,0,0,0,0,0,2701,2701,2701,2701,2701,2701,2701
</data>
 </layer>
</map>
