<?xml version="1.0" encoding="UTF-8"?>
<map version="1.0" tiledversion="1.1.5" orientation="orthogonal" renderorder="right-down" width="25" height="20" tilewidth="32" tileheight="32" infinite="0" nextobjectid="20">
 <properties>
  <property name="battlebg" type="file" value="../art/backgrounds/robotropolis1.png"/>
  <property name="ignorenight" type="bool" value="true"/>
  <property name="onload" type="file" value="actions/sonicdream1.lua"/>
 </properties>
 <tileset firstgid="1" name="knotholehut" tilewidth="32" tileheight="32" tilecount="1044" columns="29">
  <image source="../art/tiles/knotholehutinterior.png" trans="000000" width="950" height="1170"/>
 </tileset>
 <tileset firstgid="1045" source="knothole.tsx"/>
 <tileset firstgid="4529" source="robotropolis.tsx"/>
 <tileset firstgid="8029" source="knotholeindoors.tsx"/>
 <objectgroup name="lower"/>
 <objectgroup name="objects">
  <object id="4" name="Mom" type="BasicNPC" gid="6839" x="288" y="288" width="64" height="64">
   <properties>
    <property name="defaultAnim" value="mom_concerned"/>
    <property name="ghost" type="bool" value="true"/>
    <property name="sprite" type="file" value="../art/sprites/sonic.png"/>
   </properties>
  </object>
  <object id="14" name="Spawn 1" type="Player" gid="4565" x="384" y="320" width="32" height="32"/>
  <object id="18" name="Chuck" type="BasicNPC" gid="6839" x="416" y="288" width="64" height="64">
   <properties>
    <property name="defaultAnim" value="chuck_surprisedleft"/>
    <property name="ghost" type="bool" value="true"/>
    <property name="sprite" type="file" value="../art/sprites/sonic.png"/>
   </properties>
  </object>
  <object id="19" name="Sonic" type="BasicNPC" gid="6839" x="352" y="288" width="64" height="64">
   <properties>
    <property name="defaultAnim" value="veryyoungsad"/>
    <property name="ghost" type="bool" value="true"/>
    <property name="sprite" type="file" value="../art/sprites/sonic.png"/>
   </properties>
  </object>
 </objectgroup>
 <layer name="Collision" width="25" height="20">
  <data encoding="csv">
0,0,0,0,0,0,0,0,0,0,0,0,0,0,0,0,0,0,0,0,0,0,0,0,0,
0,0,0,0,0,0,0,0,0,0,0,0,0,0,0,0,0,0,0,0,0,0,0,0,0,
0,0,0,0,0,0,0,0,0,0,0,0,0,0,0,0,0,0,0,0,0,0,0,0,0,
0,0,0,0,0,0,0,0,0,0,0,0,0,0,0,0,0,0,0,0,0,0,0,0,0,
0,0,0,0,0,0,0,0,0,0,0,0,0,0,0,0,0,0,0,0,0,0,0,0,0,
0,0,0,0,0,0,0,0,0,0,0,0,0,0,0,0,0,0,0,0,0,0,0,0,0,
0,0,0,0,0,0,0,0,0,0,0,0,0,0,0,0,0,0,0,0,0,0,0,0,0,
0,0,0,0,0,0,0,0,0,0,0,0,0,0,0,0,0,0,0,0,0,0,0,0,0,
0,0,0,0,0,0,0,0,0,0,0,0,0,0,0,0,0,0,0,0,0,0,0,0,0,
0,0,0,0,0,0,0,0,0,0,0,0,0,0,0,0,0,0,0,0,0,0,0,0,0,
0,0,0,0,0,0,0,0,0,0,0,0,0,0,0,0,0,0,0,0,0,0,0,0,0,
0,0,0,0,0,0,0,0,0,0,0,0,0,0,0,0,0,0,0,0,0,0,0,0,0,
0,0,0,0,0,0,0,0,0,0,0,0,0,0,0,0,0,0,0,0,0,0,0,0,0,
0,0,0,0,0,0,0,0,0,0,0,0,0,0,0,0,0,0,0,0,0,0,0,0,0,
0,0,0,0,0,0,0,0,0,0,0,0,0,0,0,0,0,0,0,0,0,0,0,0,0,
0,0,0,0,0,0,0,0,0,0,0,0,0,0,0,0,0,0,0,0,0,0,0,0,0,
0,0,0,0,0,0,0,0,0,0,0,0,0,0,0,0,0,0,0,0,0,0,0,0,0,
0,0,0,0,0,0,0,0,0,0,0,0,0,0,0,0,0,0,0,0,0,0,0,0,0,
0,0,0,0,0,0,0,0,0,0,0,0,0,0,0,0,0,0,0,0,0,0,0,0,0,
0,0,0,0,0,0,0,0,0,0,0,0,0,0,0,0,0,0,0,0,0,0,0,0,0
</data>
 </layer>
 <layer name="BunnyExtCollision" width="25" height="20">
  <data encoding="csv">
0,0,0,0,0,0,0,0,0,0,0,0,0,0,0,0,0,0,0,0,0,0,0,0,0,
0,0,0,0,0,0,0,0,0,0,0,0,0,0,0,0,0,0,0,0,0,0,0,0,0,
0,0,0,0,0,0,0,0,0,0,0,0,0,0,0,0,0,0,0,0,0,0,0,0,0,
0,0,0,0,0,0,0,0,0,0,0,0,0,0,0,0,0,0,0,0,0,0,0,0,0,
0,0,0,0,0,0,0,0,0,0,0,0,0,0,0,0,0,0,0,0,0,0,0,0,0,
0,0,0,0,0,0,0,0,0,0,0,0,0,0,0,0,0,0,0,0,0,0,0,0,0,
0,0,0,0,0,0,0,0,0,0,0,0,0,0,0,0,0,0,0,0,0,0,0,0,0,
0,0,0,0,0,0,0,0,0,0,0,0,0,0,0,0,0,0,0,0,0,0,0,0,0,
0,0,0,0,0,0,0,0,0,0,0,0,0,0,0,0,0,0,0,0,0,0,0,0,0,
0,0,0,0,0,0,0,0,0,0,0,0,0,0,0,0,0,0,0,0,0,0,0,0,0,
0,0,0,0,0,0,0,0,0,0,0,0,0,0,0,0,0,0,0,0,0,0,0,0,0,
0,0,0,0,0,0,0,0,0,0,0,0,0,0,0,0,0,0,0,0,0,0,0,0,0,
0,0,0,0,0,0,0,0,0,0,0,0,0,0,0,0,0,0,0,0,0,0,0,0,0,
0,0,0,0,0,0,0,0,0,0,0,0,0,0,0,0,0,0,0,0,0,0,0,0,0,
0,0,0,0,0,0,0,0,0,0,0,0,0,0,0,0,0,0,0,0,0,0,0,0,0,
0,0,0,0,0,0,0,0,0,0,0,0,0,0,0,0,0,0,0,0,0,0,0,0,0,
0,0,0,0,0,0,0,0,0,0,0,0,0,0,0,0,0,0,0,0,0,0,0,0,0,
0,0,0,0,0,0,0,0,0,0,0,0,0,0,0,0,0,0,0,0,0,0,0,0,0,
0,0,0,0,0,0,0,0,0,0,0,0,0,0,0,0,0,0,0,0,0,0,0,0,0,
0,0,0,0,0,0,0,0,0,0,0,0,0,0,0,0,0,0,0,0,0,0,0,0,0
</data>
 </layer>
</map>
