<?xml version="1.0" encoding="UTF-8"?>
<map version="1.0" tiledversion="1.1.5" orientation="orthogonal" renderorder="right-down" width="50" height="20" tilewidth="32" tileheight="32" infinite="0" nextobjectid="28">
 <properties>
  <property name="onload" type="file" value="actions/ironlock_room3_1.lua"/>
 </properties>
 <tileset firstgid="1" name="knotholehut" tilewidth="32" tileheight="32" tilecount="1044" columns="29">
  <image source="../art/tiles/knotholehutinterior.png" trans="000000" width="950" height="1170"/>
 </tileset>
 <tileset firstgid="1045" source="knothole.tsx"/>
 <tileset firstgid="4529" source="robotropolis.tsx"/>
 <tileset firstgid="8029" source="cave.tsx"/>
 <tileset firstgid="10374" source="knotholeindoors.tsx"/>
 <tileset firstgid="12176" source="ironlock.tsx"/>
 <tileset firstgid="19176" source="tunnel.tsx"/>
 <layer name="below" width="50" height="20">
  <data encoding="csv">
0,0,0,0,0,0,0,0,0,0,0,0,0,0,0,0,0,0,0,0,0,0,0,0,0,0,0,0,0,0,0,0,0,0,0,0,0,0,0,0,0,0,0,0,0,0,0,0,0,0,
0,0,0,0,0,0,0,0,0,0,0,0,0,0,0,0,0,0,0,0,0,0,0,0,0,0,0,0,0,0,0,0,0,0,0,0,0,0,0,0,0,0,0,0,0,0,0,0,0,0,
0,0,0,0,0,0,0,0,0,0,0,0,0,0,0,0,0,0,0,0,0,0,0,0,0,0,0,0,0,0,0,0,0,0,0,0,0,0,0,0,0,0,0,0,0,0,0,0,0,0,
0,0,0,0,0,0,0,0,0,0,0,0,0,0,0,0,0,0,0,0,0,0,0,0,0,0,0,0,0,0,0,0,0,0,0,0,0,0,0,0,0,0,0,0,0,0,0,0,0,0,
0,0,0,0,0,0,0,0,0,0,0,0,0,0,0,0,0,0,0,0,0,0,0,0,0,0,0,0,0,0,0,0,0,0,0,0,0,0,0,0,0,0,0,0,0,0,0,0,0,0,
0,0,0,0,0,0,0,0,0,0,0,0,0,0,0,0,0,0,0,0,0,0,0,0,0,0,0,0,0,0,0,0,0,0,0,0,0,0,0,0,0,0,0,0,0,0,0,0,0,0,
0,0,0,0,0,0,0,0,0,0,0,0,0,0,0,0,0,0,0,0,0,0,0,0,0,0,0,0,0,0,0,0,0,0,0,0,0,0,0,0,0,0,0,0,0,0,0,0,0,0,
0,0,0,0,0,0,0,0,0,0,0,0,0,0,0,0,0,0,0,0,0,0,0,0,0,0,0,0,0,0,0,0,0,0,0,0,0,0,0,0,0,0,0,0,0,0,0,0,0,0,
0,0,0,0,0,0,0,0,0,0,0,0,0,0,0,0,0,0,0,0,0,0,0,0,0,0,0,0,0,0,0,0,0,0,0,0,0,0,0,0,0,0,0,0,0,0,0,0,0,0,
0,0,0,0,0,0,0,0,0,0,0,0,0,0,0,0,0,0,0,0,0,0,0,0,0,0,0,0,0,0,0,0,0,0,0,0,0,0,0,0,0,0,0,0,0,0,0,0,0,0,
0,0,0,0,0,0,0,0,0,0,0,0,0,0,0,0,0,0,0,0,0,0,0,0,0,0,0,0,0,0,0,0,0,0,0,0,0,0,0,0,0,0,0,0,0,0,0,0,0,0,
0,0,0,0,0,0,0,0,0,0,0,0,0,0,0,0,0,0,0,0,0,0,0,0,0,0,0,0,0,0,0,0,0,0,0,0,0,0,0,0,0,0,0,0,0,0,0,0,0,0,
0,0,0,0,0,0,0,0,0,0,0,0,0,0,0,0,0,0,0,0,0,0,0,0,0,0,0,0,0,0,0,0,0,0,0,0,0,0,0,0,0,0,0,0,0,0,0,0,0,0,
0,0,0,0,0,0,0,0,0,0,0,0,0,0,0,0,0,0,0,0,0,0,0,0,0,0,0,0,0,0,0,0,0,0,0,0,0,0,0,0,0,0,0,0,0,0,0,0,0,0,
0,0,0,0,0,0,0,0,0,0,0,0,0,0,0,0,0,0,0,0,0,0,0,0,0,0,0,0,0,0,0,0,0,0,0,0,0,0,0,0,0,0,0,0,0,0,0,0,0,0,
0,0,0,0,0,0,0,0,0,0,0,0,0,0,0,0,0,0,0,0,0,0,0,0,0,0,0,0,0,0,0,0,0,0,0,0,0,0,0,0,0,0,0,0,0,0,0,0,0,0,
0,0,0,0,0,0,0,0,0,0,0,0,0,0,0,0,0,0,0,0,0,0,0,0,0,0,0,0,0,0,0,0,0,0,0,0,0,0,0,0,0,0,0,0,0,0,0,0,0,0,
0,0,0,0,0,0,0,0,0,0,0,0,0,0,0,0,0,0,0,0,0,0,0,0,0,0,0,0,0,0,0,0,0,0,0,0,0,0,0,0,0,0,0,0,0,0,0,0,0,0,
0,0,0,0,0,0,0,0,0,0,0,0,0,0,0,0,0,0,0,0,0,0,0,0,0,0,0,0,0,0,0,0,0,0,0,0,0,0,0,0,0,0,0,0,0,0,0,0,0,0,
0,0,0,0,0,0,0,0,0,0,0,0,0,0,0,0,0,0,0,0,0,0,0,0,0,0,0,0,0,0,0,0,0,0,0,0,0,0,0,0,0,0,0,0,0,0,0,0,0,0
</data>
 </layer>
 <layer name="floor" width="50" height="20">
  <data encoding="csv">
20191,20191,0,0,0,0,0,0,0,0,0,0,0,0,0,0,0,0,0,0,0,0,0,0,0,0,0,0,0,0,0,0,0,0,0,0,0,0,0,0,0,0,0,0,0,0,0,0,0,0,
20191,20191,0,0,0,0,0,0,0,0,0,0,0,0,0,0,0,0,0,0,0,0,0,0,0,0,0,0,0,0,0,0,0,0,0,0,0,0,0,0,0,0,0,0,0,0,0,0,0,0,
20191,20191,0,0,0,0,0,0,0,0,0,0,0,0,0,0,0,0,0,0,0,0,0,0,0,0,0,0,0,0,0,0,0,0,0,0,0,0,0,0,0,0,0,0,0,0,0,0,0,0,
20191,20191,0,0,0,0,0,0,0,0,0,0,0,0,0,0,0,0,0,0,0,0,0,0,0,0,0,0,0,0,0,0,0,0,0,0,0,0,0,0,0,0,0,0,0,0,0,0,0,0,
20191,20191,0,0,0,0,0,0,0,0,0,0,0,0,0,0,0,0,0,0,0,0,0,0,0,0,0,0,0,0,0,0,0,0,0,0,0,0,0,0,0,0,0,0,0,0,0,0,0,0,
20191,20191,0,0,0,0,0,0,0,0,0,0,0,0,0,0,0,0,0,0,0,0,0,0,0,0,0,0,0,0,0,0,0,0,0,0,0,0,0,0,0,0,0,0,0,0,0,0,0,0,
20191,20191,0,0,0,0,0,0,0,0,0,0,0,0,0,0,0,0,0,0,0,0,0,0,0,0,0,0,0,0,0,0,0,0,0,0,0,0,0,0,0,0,0,0,0,0,0,0,0,0,
20191,20191,0,0,0,0,0,0,0,0,0,0,0,0,0,0,0,0,0,0,0,0,0,0,0,0,0,0,0,0,0,0,0,0,0,0,0,0,0,0,0,0,0,0,0,0,0,0,0,0,
20191,20191,20128,20129,20036,20037,20036,20037,20036,20037,20036,20037,20036,20037,20036,20037,17236,17237,0,0,0,0,0,0,20036,20037,20036,20037,20036,20037,20036,20037,20036,20037,20036,20037,20036,20037,17236,17237,0,0,0,0,0,0,0,0,0,0,
0,0,20171,20172,20079,20080,20079,20080,20079,20080,20079,20080,20079,20080,20079,20080,17306,17307,0,0,0,0,0,0,20079,20080,20079,20080,20079,20080,20079,20080,20079,20080,20079,20080,20079,20080,17306,17307,0,0,0,0,0,0,0,0,0,0,
0,0,20386,20387,20038,20039,20038,20039,20038,20039,20038,20039,20038,20039,20038,20039,17376,17377,0,0,0,0,0,0,20038,20039,20038,20039,20038,20039,20038,20039,20038,20039,20038,20039,20038,20039,20038,20039,20038,20039,0,0,0,0,0,0,0,0,
0,0,20429,20430,20081,20082,20081,20082,20081,20082,20081,20082,20081,20082,20081,20082,17446,17447,0,0,0,0,0,0,20081,20082,20081,20082,20081,20082,20081,20082,20081,20082,20081,20082,20081,20082,20081,20082,20081,20082,0,0,0,0,0,0,0,0,
0,0,0,0,0,0,17514,17515,17516,17517,17514,17515,17516,17517,17514,17515,17516,17517,0,0,0,0,0,0,0,0,0,0,17514,17515,17516,17517,17514,17515,17516,17517,17514,17515,17516,17517,0,0,0,0,0,0,0,0,0,0,
0,0,0,0,0,0,17584,17585,17586,17587,17584,17585,17586,17587,17584,17585,17586,17587,0,0,0,0,0,0,0,0,0,0,17584,17585,17586,17587,17584,17585,17586,17587,17584,17585,17586,17587,0,0,0,0,0,0,0,0,0,0,
0,0,0,0,0,0,17234,17235,17236,17237,17234,17235,17236,17237,17234,17235,17236,17237,0,0,0,0,0,0,0,0,0,0,17234,17235,17236,17237,17234,17235,17236,17237,17234,17235,17236,17237,0,0,0,0,0,0,0,0,0,0,
0,0,0,0,0,0,17304,17305,17306,17307,17304,17305,17306,17307,17304,17305,17306,17307,0,0,0,0,0,0,0,0,0,0,17304,17305,17306,17307,17304,17305,17306,17307,17304,17305,17306,17307,0,0,0,0,0,0,0,0,0,0,
0,0,0,0,0,0,0,0,0,0,0,0,0,0,0,0,0,0,0,0,0,0,0,0,0,0,0,0,0,0,0,0,0,0,0,0,0,0,0,0,0,0,0,0,0,0,0,0,0,0,
0,0,0,0,0,0,0,0,0,0,0,0,0,0,0,0,0,0,0,0,0,0,0,0,0,0,0,0,0,0,0,0,0,0,0,0,0,0,0,0,0,0,0,0,0,0,0,0,0,0,
0,0,0,0,0,0,0,0,0,0,0,0,0,0,0,0,0,0,0,0,0,0,0,0,0,0,0,0,0,0,0,0,0,0,0,0,0,0,0,0,0,0,0,0,0,0,0,0,0,0,
0,0,0,0,0,0,0,0,0,0,0,0,0,0,0,0,0,0,0,0,0,0,0,0,0,0,0,0,0,0,0,0,0,0,0,0,0,0,0,0,0,0,0,0,0,0,0,0,0,0
</data>
 </layer>
 <layer name="above" width="50" height="20">
  <data encoding="csv">
0,0,0,0,0,0,0,0,0,0,0,0,0,0,0,0,0,0,0,0,0,0,0,0,0,0,0,0,0,0,0,0,0,0,0,0,0,0,0,0,0,0,0,0,0,0,0,0,0,0,
0,21713,21714,21715,21716,21717,21718,21113,21114,21115,21116,21117,21112,21113,21718,21719,0,0,0,0,0,0,0,0,19735,20811,20812,20813,20814,20815,20816,20512,20513,20512,20513,20512,20513,20514,0,0,0,0,0,0,0,0,0,0,0,0,
0,21756,21757,21758,21759,21760,21761,21156,21157,21158,21159,21160,21155,21156,21761,21762,0,0,0,0,0,0,0,0,19778,20854,20855,20856,20857,20858,20859,20555,20556,20555,20556,20555,20556,20557,0,0,0,0,0,0,0,0,0,0,0,0,
0,21799,21800,21801,21802,21803,21804,21199,21200,21201,21202,21203,21198,21199,21804,21805,0,0,0,0,0,0,0,0,19821,20897,20898,20899,20900,20901,20902,20598,20599,20598,20599,20598,20599,20600,0,0,0,0,0,0,0,0,0,0,0,0,
0,21842,21843,21844,21845,21846,21847,21242,21243,21244,21245,21246,21241,21242,21847,21848,0,0,0,0,0,0,0,0,19864,20940,20941,20942,20943,20944,20945,20641,20642,20641,20642,20641,20642,20643,0,0,0,0,0,0,0,0,0,0,0,0,
0,21885,21886,21887,21888,21889,21890,21285,21286,21287,21288,21289,21284,21285,21890,21891,0,0,0,0,0,0,0,0,19907,20983,20984,20985,20986,20987,20988,20684,20685,20684,20685,20684,20685,20686,0,0,0,0,0,0,0,0,0,0,0,0,
0,21928,21929,21930,21931,21932,21933,21328,21329,21330,21331,21332,21327,21328,21933,21934,0,0,0,0,0,0,0,0,19950,21026,21027,21028,21029,21030,21031,20727,20728,20727,20728,20727,20728,20729,0,0,0,0,0,0,0,0,0,0,0,0,
0,21971,21972,21973,21974,21975,21976,21371,21372,21373,21374,21375,21370,21371,21976,21977,0,0,0,0,0,0,0,0,19993,21069,21070,21071,21072,21073,21074,20770,20771,20770,20771,20770,20771,20772,0,0,0,0,0,0,0,0,0,0,0,0,
0,0,0,0,0,0,0,0,0,0,0,0,0,0,0,0,0,0,0,0,0,0,0,0,0,0,0,0,0,0,0,0,0,0,0,0,0,0,0,0,0,0,0,0,0,0,0,0,0,0,
0,0,0,0,0,0,0,0,0,0,0,0,0,0,0,0,0,0,0,0,0,0,0,0,0,0,0,0,0,0,0,0,0,0,0,0,0,0,0,0,0,0,0,0,0,0,0,0,0,0,
0,0,0,0,0,0,0,0,0,0,0,0,0,0,0,0,0,0,0,0,0,0,0,0,0,0,0,0,0,0,0,0,0,0,0,0,0,0,0,0,0,0,0,0,0,0,0,0,0,0,
0,0,0,0,0,0,0,0,0,0,0,0,0,0,0,0,0,0,0,0,0,0,0,0,0,0,0,0,0,0,0,0,0,0,0,0,0,0,0,0,0,0,0,0,0,0,0,0,0,0,
0,0,0,0,0,0,0,0,0,0,0,0,0,0,0,0,0,0,0,0,0,0,0,0,0,0,0,0,0,0,0,0,0,0,0,0,0,0,0,0,0,0,0,0,0,0,0,0,0,0,
0,0,0,0,0,0,0,0,0,0,0,0,0,0,0,0,0,0,0,0,0,0,0,0,0,0,0,0,0,0,0,0,0,0,0,0,0,0,0,0,0,0,0,0,0,0,0,0,0,0,
0,0,0,0,0,0,0,0,0,0,0,0,0,0,0,0,0,0,0,0,0,0,0,0,0,0,0,0,0,0,0,0,0,0,0,0,0,0,0,0,0,0,0,0,0,0,0,0,0,0,
0,0,0,0,0,0,0,0,0,0,0,0,0,0,0,0,0,0,0,0,0,0,0,0,0,0,0,0,0,0,0,0,0,0,0,0,0,0,0,0,0,0,0,0,0,0,0,0,0,0,
0,0,0,0,0,0,0,0,0,0,0,0,0,0,0,0,0,0,0,0,0,0,0,0,0,0,0,0,0,0,0,0,0,0,0,0,0,0,0,0,0,0,0,0,0,0,0,0,0,0,
0,0,0,0,0,0,0,0,0,0,0,0,0,0,0,0,0,0,0,0,0,0,0,0,0,0,0,0,0,0,0,0,0,0,0,0,0,0,0,0,0,0,0,0,0,0,0,0,0,0,
0,0,0,0,0,0,0,0,0,0,0,0,0,0,0,0,0,0,0,0,0,0,0,0,0,0,0,0,0,0,0,0,0,0,0,0,0,0,0,0,0,0,0,0,0,0,0,0,0,0,
0,0,0,0,0,0,0,0,0,0,0,0,0,0,0,0,0,0,0,0,0,0,0,0,0,0,0,0,0,0,0,0,0,0,0,0,0,0,0,0,0,0,0,0,0,0,0,0,0,0
</data>
 </layer>
 <objectgroup name="objects">
  <object id="2" name="Door" type="Door" gid="6839" x="352" y="512" width="64" height="32">
   <properties>
    <property name="align" value="bottom_left"/>
    <property name="alignOffsetX" type="float" value="-20"/>
    <property name="ghost" type="bool" value="true"/>
    <property name="key" value="down"/>
    <property name="orientation" value="up"/>
    <property name="scene" type="file" value="ironlock3.lua"/>
    <property name="spawn_point" value="Door1"/>
    <property name="spawn_point_offset_x" type="float" value="16"/>
    <property name="spawn_point_offset_y" type="float" value="40"/>
    <property name="sprite" type="file" value="../art/sprites/door6.png"/>
   </properties>
  </object>
  <object id="22" name="Door2" type="Door" gid="6839" x="1056" y="512" width="64" height="32">
   <properties>
    <property name="align" value="bottom_left"/>
    <property name="alignOffsetX" type="float" value="-20"/>
    <property name="ghost" type="bool" value="true"/>
    <property name="key" value="down"/>
    <property name="orientation" value="up"/>
    <property name="scene" type="file" value="ironlock3.lua"/>
    <property name="spawn_point" value="Door1"/>
    <property name="spawn_point_offset_x" type="float" value="16"/>
    <property name="spawn_point_offset_y" type="float" value="40"/>
    <property name="sprite" type="file" value="../art/sprites/door6.png"/>
   </properties>
  </object>
  <object id="23" name="Fleet" type="BasicNPC" gid="6242" x="960" y="320" width="64" height="64">
   <properties>
    <property name="align" value="bottom_left"/>
    <property name="defaultAnim" value="annoyed"/>
    <property name="sprite" type="file" value="../art/sprites/fleet.png"/>
   </properties>
  </object>
  <object id="24" name="Ivan" type="BasicNPC" gid="6242" x="1152" y="320" width="64" height="64">
   <properties>
    <property name="align" value="bottom_left"/>
    <property name="defaultAnim" value="attitude"/>
    <property name="sprite" type="file" value="../art/sprites/ivan.png"/>
   </properties>
  </object>
  <object id="25" name="Logan" type="BasicNPC" gid="6242" x="1056" y="384" width="64" height="64">
   <properties>
    <property name="align" value="bottom_left"/>
    <property name="defaultAnim" value="attitude"/>
    <property name="sprite" type="file" value="../art/sprites/logan.png"/>
   </properties>
  </object>
 </objectgroup>
 <layer name="top" width="50" height="20">
  <data encoding="csv">
20191,20191,20191,20191,20191,20191,20191,20191,20191,20191,20191,20191,20191,20191,20191,20191,0,0,0,0,0,0,0,0,0,0,0,0,0,0,0,0,0,0,0,0,0,0,0,0,0,0,20191,20191,20191,20191,20191,20191,20191,20191,
20191,0,0,0,0,0,0,0,0,0,0,0,0,0,0,0,0,0,0,0,0,0,0,0,0,0,0,0,0,0,0,0,0,0,0,0,0,0,0,0,0,0,20191,20191,20191,20191,20191,20191,20191,20191,
20191,0,0,0,0,0,0,0,0,0,0,0,0,0,0,0,0,0,0,0,0,0,0,0,0,0,0,0,0,0,0,0,0,0,0,0,0,0,0,0,0,0,20191,20191,20191,20191,20191,20191,20191,20191,
20191,0,0,0,0,0,0,0,0,0,0,0,0,0,0,0,0,0,0,0,0,0,0,0,0,0,0,0,0,0,0,0,0,0,0,0,0,0,0,0,0,0,20191,20191,20191,20191,20191,20191,20191,20191,
20191,0,0,0,0,0,0,0,0,0,0,0,0,0,0,0,0,0,0,0,0,0,0,0,0,0,0,0,0,0,0,0,0,0,0,0,0,0,0,0,0,0,20191,20191,20191,20191,20191,20191,20191,20191,
20191,0,0,0,0,0,0,0,0,0,0,0,0,0,0,0,0,0,0,0,0,0,0,0,0,0,0,0,0,0,0,0,0,0,0,0,0,0,0,0,0,0,20191,20191,20191,20191,20191,20191,20191,20191,
20191,0,0,0,0,0,0,0,0,0,0,0,0,0,0,0,0,0,0,0,0,0,0,0,0,0,0,0,0,0,0,0,0,0,0,0,0,0,0,0,0,0,20191,20191,20191,20191,20191,20191,20191,20191,
20191,0,0,0,0,0,0,0,0,0,0,0,0,0,0,0,0,0,0,0,0,0,0,0,0,0,0,0,0,0,0,0,0,0,0,0,0,0,0,0,0,0,20191,20191,20191,20191,20191,20191,20191,20191,
20191,20191,0,0,0,0,0,0,0,0,0,0,0,0,0,0,0,0,0,0,0,0,0,0,0,0,0,0,0,0,0,0,0,0,0,0,0,0,0,0,0,0,20191,20191,20191,20191,20191,20191,20191,20191,
20191,20191,0,0,0,0,0,0,0,0,0,0,0,0,0,0,0,0,0,0,0,0,0,0,0,0,0,0,0,0,0,0,0,0,0,0,0,0,0,0,0,0,20191,20191,20191,20191,20191,20191,20191,20191,
20191,20191,0,0,0,0,0,0,0,0,0,0,0,0,0,0,0,0,0,0,0,0,0,0,0,0,0,0,0,0,0,0,0,0,0,0,0,0,0,0,0,0,20191,20191,20191,20191,20191,20191,20191,20191,
20191,20191,0,0,0,0,0,0,0,0,0,0,0,0,0,0,0,0,0,0,0,0,0,0,0,0,0,0,0,0,0,0,0,0,0,0,0,0,0,0,0,0,20191,20191,20191,20191,20191,20191,20191,20191,
20191,20191,20191,20191,20191,20191,20191,20191,20191,20191,20191,20191,20191,20191,20191,20191,20191,20191,20191,20191,20191,20191,20191,20191,20191,20191,20191,20191,20191,20191,20191,20191,20191,20191,20191,20191,20191,20191,20191,20191,20191,20191,20191,20191,20191,20191,20191,20191,20191,20191,
20191,20191,20191,20191,20191,20191,20191,20191,20191,20191,20191,20191,20191,20191,20191,20191,20191,20191,20191,20191,20191,20191,20191,20191,20191,20191,20191,20191,20191,20191,20191,20191,20191,20191,20191,20191,20191,20191,20191,20191,20191,20191,20191,20191,20191,20191,20191,20191,20191,20191,
20191,20191,20191,20191,20191,20191,20191,20191,20191,20191,20191,20191,20191,20191,20191,20191,20191,20191,20191,20191,20191,20191,20191,20191,20191,20191,20191,20191,20191,20191,20191,20191,20191,20191,20191,20191,20191,20191,20191,20191,20191,20191,20191,20191,20191,20191,20191,20191,20191,20191,
20191,20191,20191,20191,20191,20191,20191,20191,20191,20191,20191,20191,20191,20191,20191,20191,20191,20191,20191,20191,20191,20191,20191,20191,20191,20191,20191,20191,20191,20191,20191,20191,20191,20191,20191,20191,20191,20191,20191,20191,20191,20191,20191,20191,20191,20191,20191,20191,20191,20191,
20191,20191,20191,20191,20191,20191,20191,20191,20191,20191,20191,20191,20191,20191,20191,20191,20191,20191,20191,20191,20191,20191,20191,20191,20191,20191,20191,20191,20191,20191,20191,20191,20191,20191,20191,20191,20191,20191,20191,20191,20191,20191,20191,20191,20191,20191,20191,20191,20191,20191,
20191,20191,20191,20191,20191,20191,20191,20191,20191,20191,20191,20191,20191,20191,20191,20191,20191,20191,20191,20191,20191,20191,20191,20191,20191,20191,20191,20191,20191,20191,20191,20191,20191,20191,20191,20191,20191,20191,20191,20191,20191,20191,20191,20191,20191,20191,20191,20191,20191,20191,
20191,20191,20191,20191,20191,20191,20191,20191,20191,20191,20191,20191,20191,20191,20191,20191,20191,20191,20191,20191,20191,20191,20191,20191,20191,20191,20191,20191,20191,20191,20191,20191,20191,20191,20191,20191,20191,20191,20191,20191,20191,20191,20191,20191,20191,20191,20191,20191,20191,20191,
20191,20191,20191,20191,20191,20191,20191,20191,20191,20191,20191,20191,20191,20191,20191,20191,20191,20191,20191,20191,20191,20191,20191,20191,20191,20191,20191,20191,20191,20191,20191,20191,20191,20191,20191,20191,20191,20191,20191,20191,20191,20191,20191,20191,20191,20191,20191,20191,20191,20191
</data>
 </layer>
 <layer name="Collision" width="50" height="20" visible="0">
  <data encoding="csv">
0,0,0,0,0,0,0,0,0,0,0,0,0,0,0,0,0,0,0,0,0,0,0,0,0,0,0,0,0,0,0,0,0,0,0,0,0,0,0,0,0,0,0,0,0,0,0,0,0,0,
0,0,0,0,0,0,0,0,0,0,0,0,0,0,0,0,0,0,0,0,0,0,0,0,0,0,0,0,0,0,0,0,0,0,0,0,0,0,0,0,0,0,0,0,0,0,0,0,0,0,
0,0,0,0,0,0,0,0,0,0,0,0,0,0,0,0,0,0,0,0,0,0,0,0,0,0,0,0,0,0,0,0,0,0,0,0,0,0,0,0,0,0,0,0,0,0,0,0,0,0,
0,0,0,0,0,0,0,0,0,0,0,0,0,0,0,0,0,0,0,0,0,0,0,0,0,0,0,0,0,0,0,0,0,0,0,0,0,0,0,0,0,0,0,0,0,0,0,0,0,0,
0,0,0,0,0,0,0,0,0,0,0,0,0,0,0,0,0,0,0,0,0,0,0,0,0,0,0,0,0,0,0,0,0,0,0,0,0,0,0,0,0,0,0,0,0,0,0,0,0,0,
0,0,0,0,0,0,0,0,0,0,0,0,0,0,0,0,0,0,0,0,0,0,0,0,0,0,0,0,0,0,0,0,0,0,0,0,0,0,0,0,0,0,0,0,0,0,0,0,0,0,
0,0,0,0,0,0,0,0,0,0,0,0,0,0,0,0,0,0,0,0,0,0,0,0,0,0,0,0,0,0,0,0,0,0,0,0,0,0,0,0,0,0,0,0,0,0,0,0,0,0,
0,0,0,0,0,16887,16887,16887,16887,16887,16887,16887,16887,16887,16887,16887,16887,16887,16887,0,0,0,0,0,0,0,0,0,0,0,0,0,0,0,0,0,0,0,0,0,0,0,0,0,0,0,0,0,0,0,
0,0,0,0,0,16887,0,0,0,0,0,0,0,0,0,0,0,0,16887,0,0,0,0,0,0,0,0,0,0,0,0,0,0,0,0,0,0,0,0,0,0,0,0,0,0,0,0,0,0,0,
0,0,0,0,0,16887,0,0,0,0,0,0,0,0,0,0,0,0,16887,0,0,0,0,0,0,0,0,0,0,0,0,0,0,0,0,0,0,0,0,0,0,0,0,0,0,0,0,0,0,0,
0,0,0,0,0,16887,0,0,0,0,0,0,0,0,0,0,0,0,16887,0,0,0,0,0,0,0,0,0,0,0,0,0,0,0,0,0,0,0,0,0,0,0,0,0,0,0,0,0,0,0,
0,0,0,0,0,16887,0,0,0,0,0,0,0,0,0,0,0,0,16887,0,0,0,0,0,0,0,0,0,0,0,0,0,0,0,0,0,0,0,0,0,0,0,0,0,0,0,0,0,0,0,
0,0,0,0,0,16887,0,0,0,0,0,0,0,0,0,0,0,0,16887,0,0,0,0,0,0,0,0,0,0,0,0,0,0,0,0,0,0,0,0,0,0,0,0,0,0,0,0,0,0,0,
0,0,0,0,0,16887,0,0,0,0,0,0,0,0,0,0,0,0,16887,0,0,0,0,0,0,0,0,0,0,0,0,0,0,0,0,0,0,0,0,0,0,0,0,0,0,0,0,0,0,0,
0,0,0,0,0,16887,0,0,0,0,0,0,0,0,0,0,0,0,16887,0,0,0,0,0,0,0,0,0,0,0,0,0,0,0,0,0,0,0,0,0,0,0,0,0,0,0,0,0,0,0,
0,0,0,0,0,16887,0,0,0,0,0,0,0,0,0,0,0,0,16887,0,0,0,0,0,0,0,0,0,0,0,0,0,0,0,0,0,0,0,0,0,0,0,0,0,0,0,0,0,0,0,
0,0,0,0,0,16887,16887,16887,16887,16887,16887,16887,16887,16887,16887,16887,16887,16887,16887,0,0,0,0,0,0,0,0,0,0,0,0,0,0,0,0,0,0,0,0,0,0,0,0,0,0,0,0,0,0,0,
0,0,0,0,0,0,0,0,0,0,0,0,0,0,0,0,0,0,0,0,0,0,0,0,0,0,0,0,0,0,0,0,0,0,0,0,0,0,0,0,0,0,0,0,0,0,0,0,0,0,
0,0,0,0,0,0,0,0,0,0,0,0,0,0,0,0,0,0,0,0,0,0,0,0,0,0,0,0,0,0,0,0,0,0,0,0,0,0,0,0,0,0,0,0,0,0,0,0,0,0,
0,0,0,0,0,0,0,0,0,0,0,0,0,0,0,0,0,0,0,0,0,0,0,0,0,0,0,0,0,0,0,0,0,0,0,0,0,0,0,0,0,0,0,0,0,0,0,0,0,0
</data>
 </layer>
 <layer name="BunnyExtCollision" width="50" height="20" visible="0">
  <data encoding="csv">
0,0,0,0,0,0,0,0,0,0,0,0,0,0,0,0,0,0,0,0,0,0,0,0,0,0,0,0,0,0,0,0,0,0,0,0,0,0,0,0,0,0,0,0,0,0,0,0,0,0,
0,0,0,0,0,0,0,0,0,0,0,0,0,0,0,0,0,0,0,0,0,0,0,0,0,0,0,0,0,0,0,0,0,0,0,0,0,0,0,0,0,0,0,0,0,0,0,0,0,0,
0,0,0,0,0,0,0,0,0,0,0,0,0,0,0,0,0,0,0,0,0,0,0,0,0,0,0,0,0,0,0,0,0,0,0,0,0,0,0,0,0,0,0,0,0,0,0,0,0,0,
0,0,0,0,0,0,0,0,0,0,0,0,0,0,0,0,0,0,0,0,0,0,0,0,0,0,0,0,0,0,0,0,0,0,0,0,0,0,0,0,0,0,0,0,0,0,0,0,0,0,
0,0,0,0,0,0,0,0,0,0,0,0,0,0,0,0,0,0,0,0,0,0,0,0,0,0,0,0,0,0,0,0,0,0,0,0,0,0,0,0,0,0,0,0,0,0,0,0,0,0,
0,0,0,0,0,0,0,0,0,0,0,0,0,0,0,0,0,0,0,0,0,0,0,0,0,0,0,0,0,0,0,0,0,0,0,0,0,0,0,0,0,0,0,0,0,0,0,0,0,0,
0,0,0,0,0,0,0,0,0,0,0,0,0,0,0,0,0,0,0,0,0,0,0,0,0,0,0,0,0,0,0,0,0,0,0,0,0,0,0,0,0,0,0,0,0,0,0,0,0,0,
0,0,0,0,0,0,0,0,0,0,0,0,0,0,0,0,0,0,0,0,0,0,0,0,0,0,0,0,0,0,0,0,0,0,0,0,0,0,0,0,0,0,0,0,0,0,0,0,0,0,
0,0,0,0,0,0,0,0,0,0,0,0,0,0,0,0,0,0,0,0,0,0,0,0,0,0,0,0,0,0,0,0,0,0,0,0,0,0,0,0,0,0,0,0,0,0,0,0,0,0,
0,0,0,0,0,0,0,0,0,0,0,0,0,0,0,0,0,0,0,0,0,0,0,0,0,0,0,0,0,0,0,0,0,0,0,0,0,0,0,0,0,0,0,0,0,0,0,0,0,0,
0,0,0,0,0,0,0,0,0,0,0,0,0,0,0,0,0,0,0,0,0,0,0,0,0,0,0,0,0,0,0,0,0,0,0,0,0,0,0,0,0,0,0,0,0,0,0,0,0,0,
0,0,0,0,0,0,0,0,0,0,0,0,0,0,0,0,0,0,0,0,0,0,0,0,0,0,0,0,0,0,0,0,0,0,0,0,0,0,0,0,0,0,0,0,0,0,0,0,0,0,
0,0,0,0,0,0,0,0,0,0,0,0,0,0,0,0,0,0,0,0,0,0,0,0,0,0,0,0,0,0,0,0,0,0,0,0,0,0,0,0,0,0,0,0,0,0,0,0,0,0,
0,0,0,0,0,0,0,0,0,0,0,0,0,0,0,0,0,0,0,0,0,0,0,0,0,0,0,0,0,0,0,0,0,0,0,0,0,0,0,0,0,0,0,0,0,0,0,0,0,0,
0,0,0,0,0,0,0,0,0,0,0,0,0,0,0,0,0,0,0,0,0,0,0,0,0,0,0,0,0,0,0,0,0,0,0,0,0,0,0,0,0,0,0,0,0,0,0,0,0,0,
0,0,0,0,0,0,0,0,0,0,0,0,0,0,0,0,0,0,0,0,0,0,0,0,0,0,0,0,0,0,0,0,0,0,0,0,0,0,0,0,0,0,0,0,0,0,0,0,0,0,
0,0,0,0,0,0,0,0,0,0,0,0,0,0,0,0,0,0,0,0,0,0,0,0,0,0,0,0,0,0,0,0,0,0,0,0,0,0,0,0,0,0,0,0,0,0,0,0,0,0,
0,0,0,0,0,0,0,0,0,0,0,0,0,0,0,0,0,0,0,0,0,0,0,0,0,0,0,0,0,0,0,0,0,0,0,0,0,0,0,0,0,0,0,0,0,0,0,0,0,0,
0,0,0,0,0,0,0,0,0,0,0,0,0,0,0,0,0,0,0,0,0,0,0,0,0,0,0,0,0,0,0,0,0,0,0,0,0,0,0,0,0,0,0,0,0,0,0,0,0,0,
0,0,0,0,0,0,0,0,0,0,0,0,0,0,0,0,0,0,0,0,0,0,0,0,0,0,0,0,0,0,0,0,0,0,0,0,0,0,0,0,0,0,0,0,0,0,0,0,0,0
</data>
 </layer>
</map>
